
; ### Ellis' Pressure Advance / Linear Advance Calibration Tool ###
;
; Original Marlin linear advance calibration tool by Sineos [https://github.com/Sineos]
; Heavily modified/rewritten by Andrew Ellis [https://github.com/AndrewEllis93]
;
; -------------------------------------------
; Generated: Sun Sep 10 2023 09:43:26 GMT-0400 (Eastern Daylight Time)
; -------------------------------------------
;
; Advanced Mode: false
;
; Printer:
;  - Firmware: klipper
;  - Bed Shape: Rect
;  - Bed Size X: 400 mm
;  - Bed Size Y: 400 mm
;  - Origin Bed Center: false
;  - Travel Speed: 120 mm/s
;  - Nozzle Diameter: 0.6 mm
;  - Filament Diameter: 1.75 mm
;  - Extrusion Multiplier: 0.98
;
; Retraction / Z Hop:
;  - Retraction Distance: 0.7 mm
;  - Retract Speed: 35 mm/s
;  - Unretract Speed: 35 mm/s
;  - Z Hop Enable: true
;  - Z Hop Height: 0.1mm
;
; First Layer Settings:
;  - First Layer Height: 0.3 mm
;  - First Layer Printing Speed: 30 mm/s
;  - First Layer Fan Speed: 0%
;  - Anchor Option: anchor_frame
;
; Print Settings:
;  - Layer Height: 0.3 mm
;  - Print Speed: 100 mm/s
;  - Acceleration: Disabled
;  - Fan Speed: 50%
;
; Pressure Advance Stepping:
;  - PA Start Value: 0
;  - PA End Value: 0.08
;  - PA Increment: 0.005
;
; Start / End G-code:
;  - Hotend Temp: 270C
;  - Bed Temp: 108C
;  - Don't Add G28: true
;  - Don't Add Heating G-Codes: true
;
; Calculated Values:
;  - Print Size X: 99.03 mm
;  - Print Size Y: 54.27 mm
;  - Number of Patterns to Print: 17
;  - PA Values: 0, 0.005, 0.01, 0.015, 0.02, 0.025, 0.03, 0.035, 0.04, 0.045, 0.05, 0.055, 0.06, 0.065, 0.07, 0.075, 0.08
;
; Prepare printing
;
START_PRINT EXTRUDER_TEMP=270 BED_TEMP=108
G21 ; Millimeter units
G90 ; Absolute XYZ
M83 ; Relative E
G92 E0 ; Reset extruder distance
;
;  Begin printing
;
M106 S0 ; Set fan speed
G1 E-0.7 F2100 ; Retract
G0 Z5 F7200 ; Z raise
G0 X150.4836 Y172.8668 F7200 ; Move to start position
G0 Z0.3 F7200 ; Move to start layer height
G1 E0.7 F2100 ; Un-retract
SET_PRESSURE_ADVANCE ADVANCE=0 ; Set pressure advance to start value
M117 PA 0
G1 X150.4836 Y215.2932 E4.02222 F1800 ; Draw perimeter (up)
G1 X249.5164 Y215.2932 E9.38877 F1800 ; Draw perimeter (right)
G1 X249.5164 Y172.8668 E4.02222 F1800 ; Draw perimeter (down)
G1 X150.4836 Y172.8668 E9.38877 F1800 ; Draw perimeter (left)
G0 X151.2593 Y173.6424 F7200 ; Step inwards to print next perimeter
G1 X151.2593 Y214.5176 E3.87516 F1800 ; Draw perimeter (up)
G1 X248.7407 Y214.5176 E9.24171 F1800 ; Draw perimeter (right)
G1 X248.7407 Y173.6424 E3.87516 F1800 ; Draw perimeter (down)
G1 X151.2593 Y173.6424 E9.24171 F1800 ; Draw perimeter (left)
G0 X152.0349 Y174.418 F7200 ; Step inwards to print next perimeter
G1 X152.0349 Y213.742 E3.72809 F1800 ; Draw perimeter (up)
G1 X247.9651 Y213.742 E9.09464 F1800 ; Draw perimeter (right)
G1 X247.9651 Y174.418 E3.72809 F1800 ; Draw perimeter (down)
G1 X152.0349 Y174.418 E9.09464 F1800 ; Draw perimeter (left)
G0 X152.8105 Y175.1937 F7200 ; Step inwards to print next perimeter
G1 X152.8105 Y212.9663 E3.58103 F1800 ; Draw perimeter (up)
G1 X247.1895 Y212.9663 E8.94758 F1800 ; Draw perimeter (right)
G1 X247.1895 Y175.1937 E3.58103 F1800 ; Draw perimeter (down)
G1 X152.8105 Y175.1937 E8.94758 F1800 ; Draw perimeter (left)
G1 E-0.7 F2100 ; Retract
G1 Z0.4 F7200 ; Z hop
G0 X150.4836 Y216.0688 F7200 ; Move to box start
G1 Z0.3 F7200 ; Z hop return
G1 E0.7 F2100 ; Un-retract
G1 X150.4836 Y227.8444 E1.11638 F1800 ; Draw perimeter (up)
G1 X227.6153 Y227.8444 E7.31245 F1800 ; Draw perimeter (right)
G1 X227.6153 Y216.0688 E1.11638 F1800 ; Draw perimeter (down)
G1 X150.4836 Y216.0688 E7.31245 F1800 ; Draw perimeter (left)
G0 X151.2593 Y216.8444 F7200 ; Step inwards to print next perimeter
G1 X151.2593 Y227.0688 E0.96932 F1800 ; Draw perimeter (up)
G1 X226.8397 Y227.0688 E7.16539 F1800 ; Draw perimeter (right)
G1 X226.8397 Y216.8444 E0.96932 F1800 ; Draw perimeter (down)
G1 X151.2593 Y216.8444 E7.16539 F1800 ; Draw perimeter (left)
G0 X152.0349 Y217.6201 F7200 ; Step inwards to print next perimeter
G1 X152.0349 Y226.2932 E0.82225 F1800 ; Draw perimeter (up)
G1 X226.0641 Y226.2932 E7.01832 F1800 ; Draw perimeter (right)
G1 X226.0641 Y217.6201 E0.82225 F1800 ; Draw perimeter (down)
G1 X152.0349 Y217.6201 E7.01832 F1800 ; Draw perimeter (left)
G0 X152.8105 Y218.3957 F7200 ; Step inwards to print next perimeter
G1 X152.8105 Y225.5176 E0.67519 F1800 ; Draw perimeter (up)
G1 X225.2885 Y225.5176 E6.87126 F1800 ; Draw perimeter (right)
G1 X225.2885 Y218.3957 E0.67519 F1800 ; Draw perimeter (down)
G1 X152.8105 Y218.3957 E6.87126 F1800 ; Draw perimeter (left)
G0 X153.3705 Y218.9557 F7200 ; Move to fill start
G0 X154.4674 Y218.9557 F7200 ; Move
G1 X153.3705 Y220.0526 E0.14706 F1800 ; Fill
G0 X153.3705 Y221.1495 F7200 ; Move
G1 X155.5643 Y218.9557 E0.29413 F1800 ; Fill
G0 X156.6612 Y218.9557 F7200 ; Move
G1 X153.3705 Y222.2464 E0.44119 F1800 ; Fill
G0 X153.3705 Y223.3433 F7200 ; Move
G1 X157.7581 Y218.9557 E0.58826 F1800 ; Fill
G0 X158.855 Y218.9557 F7200 ; Move
G1 X153.3705 Y224.4401 E0.73532 F1800 ; Fill
G0 X153.9499 Y224.9576 F7200 ; Move
G1 X159.9518 Y218.9557 E0.8047 F1800 ; Fill
G0 X161.0487 Y218.9557 F7200 ; Move
G1 X155.0468 Y224.9576 E0.8047 F1800 ; Fill
G0 X156.1437 Y224.9576 F7200 ; Move
G1 X162.1456 Y218.9557 E0.8047 F1800 ; Fill
G0 X163.2425 Y218.9557 F7200 ; Move
G1 X157.2406 Y224.9576 E0.8047 F1800 ; Fill
G0 X158.3375 Y224.9576 F7200 ; Move
G1 X164.3394 Y218.9557 E0.8047 F1800 ; Fill
G0 X165.4363 Y218.9557 F7200 ; Move
G1 X159.4344 Y224.9576 E0.8047 F1800 ; Fill
G0 X160.5313 Y224.9576 F7200 ; Move
G1 X166.5332 Y218.9557 E0.8047 F1800 ; Fill
G0 X167.6301 Y218.9557 F7200 ; Move
G1 X161.6282 Y224.9576 E0.8047 F1800 ; Fill
G0 X162.7251 Y224.9576 F7200 ; Move
G1 X168.727 Y218.9557 E0.8047 F1800 ; Fill
G0 X169.8239 Y218.9557 F7200 ; Move
G1 X163.822 Y224.9576 E0.8047 F1800 ; Fill
G0 X164.9189 Y224.9576 F7200 ; Move
G1 X170.9208 Y218.9557 E0.8047 F1800 ; Fill
G0 X172.0176 Y218.9557 F7200 ; Move
G1 X166.0157 Y224.9576 E0.8047 F1800 ; Fill
G0 X167.1126 Y224.9576 F7200 ; Move
G1 X173.1145 Y218.9557 E0.8047 F1800 ; Fill
G0 X174.2114 Y218.9557 F7200 ; Move
G1 X168.2095 Y224.9576 E0.8047 F1800 ; Fill
G0 X169.3064 Y224.9576 F7200 ; Move
G1 X175.3083 Y218.9557 E0.8047 F1800 ; Fill
G0 X176.4052 Y218.9557 F7200 ; Move
G1 X170.4033 Y224.9576 E0.8047 F1800 ; Fill
G0 X171.5002 Y224.9576 F7200 ; Move
G1 X177.5021 Y218.9557 E0.8047 F1800 ; Fill
G0 X178.599 Y218.9557 F7200 ; Move
G1 X172.5971 Y224.9576 E0.8047 F1800 ; Fill
G0 X173.694 Y224.9576 F7200 ; Move
G1 X179.6959 Y218.9557 E0.8047 F1800 ; Fill
G0 X180.7928 Y218.9557 F7200 ; Move
G1 X174.7909 Y224.9576 E0.8047 F1800 ; Fill
G0 X175.8878 Y224.9576 F7200 ; Move
G1 X181.8897 Y218.9557 E0.8047 F1800 ; Fill
G0 X182.9866 Y218.9557 F7200 ; Move
G1 X176.9847 Y224.9576 E0.8047 F1800 ; Fill
G0 X178.0816 Y224.9576 F7200 ; Move
G1 X184.0835 Y218.9557 E0.8047 F1800 ; Fill
G0 X185.1803 Y218.9557 F7200 ; Move
G1 X179.1784 Y224.9576 E0.8047 F1800 ; Fill
G0 X180.2753 Y224.9576 F7200 ; Move
G1 X186.2772 Y218.9557 E0.8047 F1800 ; Fill
G0 X187.3741 Y218.9557 F7200 ; Move
G1 X181.3722 Y224.9576 E0.8047 F1800 ; Fill
G0 X182.4691 Y224.9576 F7200 ; Move
G1 X188.471 Y218.9557 E0.8047 F1800 ; Fill
G0 X189.5679 Y218.9557 F7200 ; Move
G1 X183.566 Y224.9576 E0.8047 F1800 ; Fill
G0 X184.6629 Y224.9576 F7200 ; Move
G1 X190.6648 Y218.9557 E0.8047 F1800 ; Fill
G0 X191.7617 Y218.9557 F7200 ; Move
G1 X185.7598 Y224.9576 E0.8047 F1800 ; Fill
G0 X186.8567 Y224.9576 F7200 ; Move
G1 X192.8586 Y218.9557 E0.8047 F1800 ; Fill
G0 X193.9555 Y218.9557 F7200 ; Move
G1 X187.9536 Y224.9576 E0.8047 F1800 ; Fill
G0 X189.0505 Y224.9576 F7200 ; Move
G1 X195.0524 Y218.9557 E0.8047 F1800 ; Fill
G0 X196.1493 Y218.9557 F7200 ; Move
G1 X190.1474 Y224.9576 E0.8047 F1800 ; Fill
G0 X191.2443 Y224.9576 F7200 ; Move
G1 X197.2462 Y218.9557 E0.8047 F1800 ; Fill
G0 X198.343 Y218.9557 F7200 ; Move
G1 X192.3411 Y224.9576 E0.8047 F1800 ; Fill
G0 X193.438 Y224.9576 F7200 ; Move
G1 X199.4399 Y218.9557 E0.8047 F1800 ; Fill
G0 X200.5368 Y218.9557 F7200 ; Move
G1 X194.5349 Y224.9576 E0.8047 F1800 ; Fill
G0 X195.6318 Y224.9576 F7200 ; Move
G1 X201.6337 Y218.9557 E0.8047 F1800 ; Fill
G0 X202.7306 Y218.9557 F7200 ; Move
G1 X196.7287 Y224.9576 E0.8047 F1800 ; Fill
G0 X197.8256 Y224.9576 F7200 ; Move
G1 X203.8275 Y218.9557 E0.8047 F1800 ; Fill
G0 X204.9244 Y218.9557 F7200 ; Move
G1 X198.9225 Y224.9576 E0.8047 F1800 ; Fill
G0 X200.0194 Y224.9576 F7200 ; Move
G1 X206.0213 Y218.9557 E0.8047 F1800 ; Fill
G0 X207.1182 Y218.9557 F7200 ; Move
G1 X201.1163 Y224.9576 E0.8047 F1800 ; Fill
G0 X202.2132 Y224.9576 F7200 ; Move
G1 X208.2151 Y218.9557 E0.8047 F1800 ; Fill
G0 X209.312 Y218.9557 F7200 ; Move
G1 X203.3101 Y224.9576 E0.8047 F1800 ; Fill
G0 X204.407 Y224.9576 F7200 ; Move
G1 X210.4089 Y218.9557 E0.8047 F1800 ; Fill
G0 X211.5057 Y218.9557 F7200 ; Move
G1 X205.5038 Y224.9576 E0.8047 F1800 ; Fill
G0 X206.6007 Y224.9576 F7200 ; Move
G1 X212.6026 Y218.9557 E0.8047 F1800 ; Fill
G0 X213.6995 Y218.9557 F7200 ; Move
G1 X207.6976 Y224.9576 E0.8047 F1800 ; Fill
G0 X208.7945 Y224.9576 F7200 ; Move
G1 X214.7964 Y218.9557 E0.8047 F1800 ; Fill
G0 X215.8933 Y218.9557 F7200 ; Move
G1 X209.8914 Y224.9576 E0.8047 F1800 ; Fill
G0 X210.9883 Y224.9576 F7200 ; Move
G1 X216.9902 Y218.9557 E0.8047 F1800 ; Fill
G0 X218.0871 Y218.9557 F7200 ; Move
G1 X212.0852 Y224.9576 E0.8047 F1800 ; Fill
G0 X213.1821 Y224.9576 F7200 ; Move
G1 X219.184 Y218.9557 E0.8047 F1800 ; Fill
G0 X220.2809 Y218.9557 F7200 ; Move
G1 X214.279 Y224.9576 E0.8047 F1800 ; Fill
G0 X215.3759 Y224.9576 F7200 ; Move
G1 X221.3778 Y218.9557 E0.8047 F1800 ; Fill
G0 X222.4747 Y218.9557 F7200 ; Move
G1 X216.4728 Y224.9576 E0.8047 F1800 ; Fill
G0 X217.5696 Y224.9576 F7200 ; Move
G1 X223.5716 Y218.9557 E0.8047 F1800 ; Fill
G0 X224.6684 Y218.9557 F7200 ; Move
G1 X218.6665 Y224.9576 E0.8047 F1800 ; Fill
G0 X219.7634 Y224.9576 F7200 ; Move
G1 X224.7285 Y219.9925 E0.66569 F1800 ; Fill
G0 X224.7285 Y221.0894 F7200 ; Move
G1 X220.8603 Y224.9576 E0.51862 F1800 ; Fill
G0 X221.9572 Y224.9576 F7200 ; Move
G1 X224.7285 Y222.1863 E0.37156 F1800 ; Fill
G0 X224.7285 Y223.2832 F7200 ; Move
G1 X223.0541 Y224.9576 E0.22449 F1800 ; Fill
G0 X224.151 Y224.9576 F7200 ; Move
G1 X224.7285 Y224.3801 E0.07743 F1800 ; Fill
G0 Z0.3 F7200 ; Move to layer height
G1 E-0.7 F2100 ; Retract
G1 Z0.4 F7200 ; Z hop
G0 X155.9269 Y175.7537 F7200 ; Move to pattern start

G1 Z0.3 F7200 ; Z hop return
G1 E0.7 F2100 ; Un-retract
SET_PRESSURE_ADVANCE ADVANCE=0 ; Set pressure advance
M117 PA 0
G1 X174.2533 Y194.08 E1.93438 F1800 ; Print pattern wall
G1 X155.9269 Y212.4063 E1.93438 F1800 ; Print pattern wall
G1 E-0.7 F2100 ; Retract
G1 Z0.4 F7200 ; Z hop
G0 X156.7905 Y175.7537 F7200 ; Move to start next pattern wall
G1 Z0.3 F7200 ; Z hop return
G1 E0.7 F2100 ; Un-retract
G1 X175.1168 Y194.08 E1.93438 F1800 ; Print pattern wall
G1 X156.7905 Y212.4063 E1.93438 F1800 ; Print pattern wall
G1 E-0.7 F2100 ; Retract
G1 Z0.4 F7200 ; Z hop
G0 X157.654 Y175.7537 F7200 ; Move to start next pattern wall
G1 Z0.3 F7200 ; Z hop return
G1 E0.7 F2100 ; Un-retract
G1 X175.9804 Y194.08 E1.93438 F1800 ; Print pattern wall
G1 X157.654 Y212.4063 E1.93438 F1800 ; Print pattern wall
G1 E-0.7 F2100 ; Retract
G1 Z0.4 F7200 ; Z hop
G0 X160.329 Y175.7537 F7200 ; Move to next pattern
G1 Z0.3 F7200 ; Z hop return
G1 E0.7 F2100 ; Un-retract
SET_PRESSURE_ADVANCE ADVANCE=0.005 ; Set pressure advance
M117 PA 0.005
G1 X178.6554 Y194.08 E1.93438 F1800 ; Print pattern wall
G1 X160.329 Y212.4063 E1.93438 F1800 ; Print pattern wall
G1 E-0.7 F2100 ; Retract
G1 Z0.4 F7200 ; Z hop
G0 X161.1926 Y175.7537 F7200 ; Move to start next pattern wall
G1 Z0.3 F7200 ; Z hop return
G1 E0.7 F2100 ; Un-retract
G1 X179.5189 Y194.08 E1.93438 F1800 ; Print pattern wall
G1 X161.1926 Y212.4063 E1.93438 F1800 ; Print pattern wall
G1 E-0.7 F2100 ; Retract
G1 Z0.4 F7200 ; Z hop
G0 X162.0561 Y175.7537 F7200 ; Move to start next pattern wall
G1 Z0.3 F7200 ; Z hop return
G1 E0.7 F2100 ; Un-retract
G1 X180.3825 Y194.08 E1.93438 F1800 ; Print pattern wall
G1 X162.0561 Y212.4063 E1.93438 F1800 ; Print pattern wall
G1 E-0.7 F2100 ; Retract
G1 Z0.4 F7200 ; Z hop
G0 X164.7311 Y175.7537 F7200 ; Move to next pattern
G1 Z0.3 F7200 ; Z hop return
G1 E0.7 F2100 ; Un-retract
SET_PRESSURE_ADVANCE ADVANCE=0.01 ; Set pressure advance
M117 PA 0.01
G1 X183.0575 Y194.08 E1.93438 F1800 ; Print pattern wall
G1 X164.7311 Y212.4063 E1.93438 F1800 ; Print pattern wall
G1 E-0.7 F2100 ; Retract
G1 Z0.4 F7200 ; Z hop
G0 X165.5947 Y175.7537 F7200 ; Move to start next pattern wall
G1 Z0.3 F7200 ; Z hop return
G1 E0.7 F2100 ; Un-retract
G1 X183.921 Y194.08 E1.93438 F1800 ; Print pattern wall
G1 X165.5947 Y212.4063 E1.93438 F1800 ; Print pattern wall
G1 E-0.7 F2100 ; Retract
G1 Z0.4 F7200 ; Z hop
G0 X166.4582 Y175.7537 F7200 ; Move to start next pattern wall
G1 Z0.3 F7200 ; Z hop return
G1 E0.7 F2100 ; Un-retract
G1 X184.7846 Y194.08 E1.93438 F1800 ; Print pattern wall
G1 X166.4582 Y212.4063 E1.93438 F1800 ; Print pattern wall
G1 E-0.7 F2100 ; Retract
G1 Z0.4 F7200 ; Z hop
G0 X169.1332 Y175.7537 F7200 ; Move to next pattern
G1 Z0.3 F7200 ; Z hop return
G1 E0.7 F2100 ; Un-retract
SET_PRESSURE_ADVANCE ADVANCE=0.015 ; Set pressure advance
M117 PA 0.015
G1 X187.4596 Y194.08 E1.93438 F1800 ; Print pattern wall
G1 X169.1332 Y212.4063 E1.93438 F1800 ; Print pattern wall
G1 E-0.7 F2100 ; Retract
G1 Z0.4 F7200 ; Z hop
G0 X169.9968 Y175.7537 F7200 ; Move to start next pattern wall
G1 Z0.3 F7200 ; Z hop return
G1 E0.7 F2100 ; Un-retract
G1 X188.3231 Y194.08 E1.93438 F1800 ; Print pattern wall
G1 X169.9968 Y212.4063 E1.93438 F1800 ; Print pattern wall
G1 E-0.7 F2100 ; Retract
G1 Z0.4 F7200 ; Z hop
G0 X170.8603 Y175.7537 F7200 ; Move to start next pattern wall
G1 Z0.3 F7200 ; Z hop return
G1 E0.7 F2100 ; Un-retract
G1 X189.1867 Y194.08 E1.93438 F1800 ; Print pattern wall
G1 X170.8603 Y212.4063 E1.93438 F1800 ; Print pattern wall
G1 E-0.7 F2100 ; Retract
G1 Z0.4 F7200 ; Z hop
G0 X173.5353 Y175.7537 F7200 ; Move to next pattern
G1 Z0.3 F7200 ; Z hop return
G1 E0.7 F2100 ; Un-retract
SET_PRESSURE_ADVANCE ADVANCE=0.02 ; Set pressure advance
M117 PA 0.02
G1 X191.8617 Y194.08 E1.93438 F1800 ; Print pattern wall
G1 X173.5353 Y212.4063 E1.93438 F1800 ; Print pattern wall
G1 E-0.7 F2100 ; Retract
G1 Z0.4 F7200 ; Z hop
G0 X174.3989 Y175.7537 F7200 ; Move to start next pattern wall
G1 Z0.3 F7200 ; Z hop return
G1 E0.7 F2100 ; Un-retract
G1 X192.7252 Y194.08 E1.93438 F1800 ; Print pattern wall
G1 X174.3989 Y212.4063 E1.93438 F1800 ; Print pattern wall
G1 E-0.7 F2100 ; Retract
G1 Z0.4 F7200 ; Z hop
G0 X175.2624 Y175.7537 F7200 ; Move to start next pattern wall
G1 Z0.3 F7200 ; Z hop return
G1 E0.7 F2100 ; Un-retract
G1 X193.5888 Y194.08 E1.93438 F1800 ; Print pattern wall
G1 X175.2624 Y212.4063 E1.93438 F1800 ; Print pattern wall
G1 E-0.7 F2100 ; Retract
G1 Z0.4 F7200 ; Z hop
G0 X177.9374 Y175.7537 F7200 ; Move to next pattern
G1 Z0.3 F7200 ; Z hop return
G1 E0.7 F2100 ; Un-retract
SET_PRESSURE_ADVANCE ADVANCE=0.025 ; Set pressure advance
M117 PA 0.025
G1 X196.2638 Y194.08 E1.93438 F1800 ; Print pattern wall
G1 X177.9374 Y212.4063 E1.93438 F1800 ; Print pattern wall
G1 E-0.7 F2100 ; Retract
G1 Z0.4 F7200 ; Z hop
G0 X178.801 Y175.7537 F7200 ; Move to start next pattern wall
G1 Z0.3 F7200 ; Z hop return
G1 E0.7 F2100 ; Un-retract
G1 X197.1273 Y194.08 E1.93438 F1800 ; Print pattern wall
G1 X178.801 Y212.4063 E1.93438 F1800 ; Print pattern wall
G1 E-0.7 F2100 ; Retract
G1 Z0.4 F7200 ; Z hop
G0 X179.6645 Y175.7537 F7200 ; Move to start next pattern wall
G1 Z0.3 F7200 ; Z hop return
G1 E0.7 F2100 ; Un-retract
G1 X197.9908 Y194.08 E1.93438 F1800 ; Print pattern wall
G1 X179.6645 Y212.4063 E1.93438 F1800 ; Print pattern wall
G1 E-0.7 F2100 ; Retract
G1 Z0.4 F7200 ; Z hop
G0 X182.3395 Y175.7537 F7200 ; Move to next pattern
G1 Z0.3 F7200 ; Z hop return
G1 E0.7 F2100 ; Un-retract
SET_PRESSURE_ADVANCE ADVANCE=0.03 ; Set pressure advance
M117 PA 0.03
G1 X200.6658 Y194.08 E1.93438 F1800 ; Print pattern wall
G1 X182.3395 Y212.4063 E1.93438 F1800 ; Print pattern wall
G1 E-0.7 F2100 ; Retract
G1 Z0.4 F7200 ; Z hop
G0 X183.203 Y175.7537 F7200 ; Move to start next pattern wall
G1 Z0.3 F7200 ; Z hop return
G1 E0.7 F2100 ; Un-retract
G1 X201.5294 Y194.08 E1.93438 F1800 ; Print pattern wall
G1 X183.203 Y212.4063 E1.93438 F1800 ; Print pattern wall
G1 E-0.7 F2100 ; Retract
G1 Z0.4 F7200 ; Z hop
G0 X184.0666 Y175.7537 F7200 ; Move to start next pattern wall
G1 Z0.3 F7200 ; Z hop return
G1 E0.7 F2100 ; Un-retract
G1 X202.3929 Y194.08 E1.93438 F1800 ; Print pattern wall
G1 X184.0666 Y212.4063 E1.93438 F1800 ; Print pattern wall
G1 E-0.7 F2100 ; Retract
G1 Z0.4 F7200 ; Z hop
G0 X186.7416 Y175.7537 F7200 ; Move to next pattern
G1 Z0.3 F7200 ; Z hop return
G1 E0.7 F2100 ; Un-retract
SET_PRESSURE_ADVANCE ADVANCE=0.035 ; Set pressure advance
M117 PA 0.035
G1 X205.0679 Y194.08 E1.93438 F1800 ; Print pattern wall
G1 X186.7416 Y212.4063 E1.93438 F1800 ; Print pattern wall
G1 E-0.7 F2100 ; Retract
G1 Z0.4 F7200 ; Z hop
G0 X187.6051 Y175.7537 F7200 ; Move to start next pattern wall
G1 Z0.3 F7200 ; Z hop return
G1 E0.7 F2100 ; Un-retract
G1 X205.9315 Y194.08 E1.93438 F1800 ; Print pattern wall
G1 X187.6051 Y212.4063 E1.93438 F1800 ; Print pattern wall
G1 E-0.7 F2100 ; Retract
G1 Z0.4 F7200 ; Z hop
G0 X188.4687 Y175.7537 F7200 ; Move to start next pattern wall
G1 Z0.3 F7200 ; Z hop return
G1 E0.7 F2100 ; Un-retract
G1 X206.795 Y194.08 E1.93438 F1800 ; Print pattern wall
G1 X188.4687 Y212.4063 E1.93438 F1800 ; Print pattern wall
G1 E-0.7 F2100 ; Retract
G1 Z0.4 F7200 ; Z hop
G0 X191.1437 Y175.7537 F7200 ; Move to next pattern
G1 Z0.3 F7200 ; Z hop return
G1 E0.7 F2100 ; Un-retract
SET_PRESSURE_ADVANCE ADVANCE=0.04 ; Set pressure advance
M117 PA 0.04
G1 X209.47 Y194.08 E1.93438 F1800 ; Print pattern wall
G1 X191.1437 Y212.4063 E1.93438 F1800 ; Print pattern wall
G1 E-0.7 F2100 ; Retract
G1 Z0.4 F7200 ; Z hop
G0 X192.0072 Y175.7537 F7200 ; Move to start next pattern wall
G1 Z0.3 F7200 ; Z hop return
G1 E0.7 F2100 ; Un-retract
G1 X210.3336 Y194.08 E1.93438 F1800 ; Print pattern wall
G1 X192.0072 Y212.4063 E1.93438 F1800 ; Print pattern wall
G1 E-0.7 F2100 ; Retract
G1 Z0.4 F7200 ; Z hop
G0 X192.8708 Y175.7537 F7200 ; Move to start next pattern wall
G1 Z0.3 F7200 ; Z hop return
G1 E0.7 F2100 ; Un-retract
G1 X211.1971 Y194.08 E1.93438 F1800 ; Print pattern wall
G1 X192.8708 Y212.4063 E1.93438 F1800 ; Print pattern wall
G1 E-0.7 F2100 ; Retract
G1 Z0.4 F7200 ; Z hop
G0 X195.5458 Y175.7537 F7200 ; Move to next pattern
G1 Z0.3 F7200 ; Z hop return
G1 E0.7 F2100 ; Un-retract
SET_PRESSURE_ADVANCE ADVANCE=0.045 ; Set pressure advance
M117 PA 0.045
G1 X213.8721 Y194.08 E1.93438 F1800 ; Print pattern wall
G1 X195.5458 Y212.4063 E1.93438 F1800 ; Print pattern wall
G1 E-0.7 F2100 ; Retract
G1 Z0.4 F7200 ; Z hop
G0 X196.4093 Y175.7537 F7200 ; Move to start next pattern wall
G1 Z0.3 F7200 ; Z hop return
G1 E0.7 F2100 ; Un-retract
G1 X214.7357 Y194.08 E1.93438 F1800 ; Print pattern wall
G1 X196.4093 Y212.4063 E1.93438 F1800 ; Print pattern wall
G1 E-0.7 F2100 ; Retract
G1 Z0.4 F7200 ; Z hop
G0 X197.2729 Y175.7537 F7200 ; Move to start next pattern wall
G1 Z0.3 F7200 ; Z hop return
G1 E0.7 F2100 ; Un-retract
G1 X215.5992 Y194.08 E1.93438 F1800 ; Print pattern wall
G1 X197.2729 Y212.4063 E1.93438 F1800 ; Print pattern wall
G1 E-0.7 F2100 ; Retract
G1 Z0.4 F7200 ; Z hop
G0 X199.9479 Y175.7537 F7200 ; Move to next pattern
G1 Z0.3 F7200 ; Z hop return
G1 E0.7 F2100 ; Un-retract
SET_PRESSURE_ADVANCE ADVANCE=0.05 ; Set pressure advance
M117 PA 0.05
G1 X218.2742 Y194.08 E1.93438 F1800 ; Print pattern wall
G1 X199.9479 Y212.4063 E1.93438 F1800 ; Print pattern wall
G1 E-0.7 F2100 ; Retract
G1 Z0.4 F7200 ; Z hop
G0 X200.8114 Y175.7537 F7200 ; Move to start next pattern wall
G1 Z0.3 F7200 ; Z hop return
G1 E0.7 F2100 ; Un-retract
G1 X219.1378 Y194.08 E1.93438 F1800 ; Print pattern wall
G1 X200.8114 Y212.4063 E1.93438 F1800 ; Print pattern wall
G1 E-0.7 F2100 ; Retract
G1 Z0.4 F7200 ; Z hop
G0 X201.675 Y175.7537 F7200 ; Move to start next pattern wall
G1 Z0.3 F7200 ; Z hop return
G1 E0.7 F2100 ; Un-retract
G1 X220.0013 Y194.08 E1.93438 F1800 ; Print pattern wall
G1 X201.675 Y212.4063 E1.93438 F1800 ; Print pattern wall
G1 E-0.7 F2100 ; Retract
G1 Z0.4 F7200 ; Z hop
G0 X204.35 Y175.7537 F7200 ; Move to next pattern
G1 Z0.3 F7200 ; Z hop return
G1 E0.7 F2100 ; Un-retract
SET_PRESSURE_ADVANCE ADVANCE=0.055 ; Set pressure advance
M117 PA 0.055
G1 X222.6763 Y194.08 E1.93438 F1800 ; Print pattern wall
G1 X204.35 Y212.4063 E1.93438 F1800 ; Print pattern wall
G1 E-0.7 F2100 ; Retract
G1 Z0.4 F7200 ; Z hop
G0 X205.2135 Y175.7537 F7200 ; Move to start next pattern wall
G1 Z0.3 F7200 ; Z hop return
G1 E0.7 F2100 ; Un-retract
G1 X223.5399 Y194.08 E1.93438 F1800 ; Print pattern wall
G1 X205.2135 Y212.4063 E1.93438 F1800 ; Print pattern wall
G1 E-0.7 F2100 ; Retract
G1 Z0.4 F7200 ; Z hop
G0 X206.0771 Y175.7537 F7200 ; Move to start next pattern wall
G1 Z0.3 F7200 ; Z hop return
G1 E0.7 F2100 ; Un-retract
G1 X224.4034 Y194.08 E1.93438 F1800 ; Print pattern wall
G1 X206.0771 Y212.4063 E1.93438 F1800 ; Print pattern wall
G1 E-0.7 F2100 ; Retract
G1 Z0.4 F7200 ; Z hop
G0 X208.7521 Y175.7537 F7200 ; Move to next pattern
G1 Z0.3 F7200 ; Z hop return
G1 E0.7 F2100 ; Un-retract
SET_PRESSURE_ADVANCE ADVANCE=0.06 ; Set pressure advance
M117 PA 0.06
G1 X227.0784 Y194.08 E1.93438 F1800 ; Print pattern wall
G1 X208.7521 Y212.4063 E1.93438 F1800 ; Print pattern wall
G1 E-0.7 F2100 ; Retract
G1 Z0.4 F7200 ; Z hop
G0 X209.6156 Y175.7537 F7200 ; Move to start next pattern wall
G1 Z0.3 F7200 ; Z hop return
G1 E0.7 F2100 ; Un-retract
G1 X227.9419 Y194.08 E1.93438 F1800 ; Print pattern wall
G1 X209.6156 Y212.4063 E1.93438 F1800 ; Print pattern wall
G1 E-0.7 F2100 ; Retract
G1 Z0.4 F7200 ; Z hop
G0 X210.4792 Y175.7537 F7200 ; Move to start next pattern wall
G1 Z0.3 F7200 ; Z hop return
G1 E0.7 F2100 ; Un-retract
G1 X228.8055 Y194.08 E1.93438 F1800 ; Print pattern wall
G1 X210.4792 Y212.4063 E1.93438 F1800 ; Print pattern wall
G1 E-0.7 F2100 ; Retract
G1 Z0.4 F7200 ; Z hop
G0 X213.1542 Y175.7537 F7200 ; Move to next pattern
G1 Z0.3 F7200 ; Z hop return
G1 E0.7 F2100 ; Un-retract
SET_PRESSURE_ADVANCE ADVANCE=0.065 ; Set pressure advance
M117 PA 0.065
G1 X231.4805 Y194.08 E1.93438 F1800 ; Print pattern wall
G1 X213.1542 Y212.4063 E1.93438 F1800 ; Print pattern wall
G1 E-0.7 F2100 ; Retract
G1 Z0.4 F7200 ; Z hop
G0 X214.0177 Y175.7537 F7200 ; Move to start next pattern wall
G1 Z0.3 F7200 ; Z hop return
G1 E0.7 F2100 ; Un-retract
G1 X232.344 Y194.08 E1.93438 F1800 ; Print pattern wall
G1 X214.0177 Y212.4063 E1.93438 F1800 ; Print pattern wall
G1 E-0.7 F2100 ; Retract
G1 Z0.4 F7200 ; Z hop
G0 X214.8812 Y175.7537 F7200 ; Move to start next pattern wall
G1 Z0.3 F7200 ; Z hop return
G1 E0.7 F2100 ; Un-retract
G1 X233.2076 Y194.08 E1.93438 F1800 ; Print pattern wall
G1 X214.8812 Y212.4063 E1.93438 F1800 ; Print pattern wall
G1 E-0.7 F2100 ; Retract
G1 Z0.4 F7200 ; Z hop
G0 X217.5562 Y175.7537 F7200 ; Move to next pattern
G1 Z0.3 F7200 ; Z hop return
G1 E0.7 F2100 ; Un-retract
SET_PRESSURE_ADVANCE ADVANCE=0.07 ; Set pressure advance
M117 PA 0.07
G1 X235.8826 Y194.08 E1.93438 F1800 ; Print pattern wall
G1 X217.5562 Y212.4063 E1.93438 F1800 ; Print pattern wall
G1 E-0.7 F2100 ; Retract
G1 Z0.4 F7200 ; Z hop
G0 X218.4198 Y175.7537 F7200 ; Move to start next pattern wall
G1 Z0.3 F7200 ; Z hop return
G1 E0.7 F2100 ; Un-retract
G1 X236.7461 Y194.08 E1.93438 F1800 ; Print pattern wall
G1 X218.4198 Y212.4063 E1.93438 F1800 ; Print pattern wall
G1 E-0.7 F2100 ; Retract
G1 Z0.4 F7200 ; Z hop
G0 X219.2833 Y175.7537 F7200 ; Move to start next pattern wall
G1 Z0.3 F7200 ; Z hop return
G1 E0.7 F2100 ; Un-retract
G1 X237.6097 Y194.08 E1.93438 F1800 ; Print pattern wall
G1 X219.2833 Y212.4063 E1.93438 F1800 ; Print pattern wall
G1 E-0.7 F2100 ; Retract
G1 Z0.4 F7200 ; Z hop
G0 X221.9583 Y175.7537 F7200 ; Move to next pattern
G1 Z0.3 F7200 ; Z hop return
G1 E0.7 F2100 ; Un-retract
SET_PRESSURE_ADVANCE ADVANCE=0.075 ; Set pressure advance
M117 PA 0.075
G1 X240.2847 Y194.08 E1.93438 F1800 ; Print pattern wall
G1 X221.9583 Y212.4063 E1.93438 F1800 ; Print pattern wall
G1 E-0.7 F2100 ; Retract
G1 Z0.4 F7200 ; Z hop
G0 X222.8219 Y175.7537 F7200 ; Move to start next pattern wall
G1 Z0.3 F7200 ; Z hop return
G1 E0.7 F2100 ; Un-retract
G1 X241.1482 Y194.08 E1.93438 F1800 ; Print pattern wall
G1 X222.8219 Y212.4063 E1.93438 F1800 ; Print pattern wall
G1 E-0.7 F2100 ; Retract
G1 Z0.4 F7200 ; Z hop
G0 X223.6854 Y175.7537 F7200 ; Move to start next pattern wall
G1 Z0.3 F7200 ; Z hop return
G1 E0.7 F2100 ; Un-retract
G1 X242.0118 Y194.08 E1.93438 F1800 ; Print pattern wall
G1 X223.6854 Y212.4063 E1.93438 F1800 ; Print pattern wall
G1 E-0.7 F2100 ; Retract
G1 Z0.4 F7200 ; Z hop
G0 X226.3604 Y175.7537 F7200 ; Move to next pattern
G1 Z0.3 F7200 ; Z hop return
G1 E0.7 F2100 ; Un-retract
SET_PRESSURE_ADVANCE ADVANCE=0.08 ; Set pressure advance
M117 PA 0.08
G1 X244.6868 Y194.08 E1.93438 F1800 ; Print pattern wall
G1 X226.3604 Y212.4063 E1.93438 F1800 ; Print pattern wall
G1 E-0.7 F2100 ; Retract
G1 Z0.4 F7200 ; Z hop
G0 X227.224 Y175.7537 F7200 ; Move to start next pattern wall
G1 Z0.3 F7200 ; Z hop return
G1 E0.7 F2100 ; Un-retract
G1 X245.5503 Y194.08 E1.93438 F1800 ; Print pattern wall
G1 X227.224 Y212.4063 E1.93438 F1800 ; Print pattern wall
G1 E-0.7 F2100 ; Retract
G1 Z0.4 F7200 ; Z hop
G0 X228.0875 Y175.7537 F7200 ; Move to start next pattern wall
G1 Z0.3 F7200 ; Z hop return
G1 E0.7 F2100 ; Un-retract
G1 X246.4139 Y194.08 E1.93438 F1800 ; Print pattern wall
G1 X228.0875 Y212.4063 E1.93438 F1800 ; Print pattern wall
G1 E-0.7 F2100 ; Retract
G1 Z0.4 F7200 ; Z hop
G0 X155.9269 Y175.7537 F7200 ; Move back to start position
G1 Z0.3 F7200 ; Z hop return
G1 E0.7 F2100 ; Un-retract
M106 S127 ; Set fan speed
G0 Z0.6 F7200 ; Move to layer height
SET_PRESSURE_ADVANCE ADVANCE=0 ; Set pressure advance to start value for numbering
M117 PA 0
G1 E-0.7 F2100 ; Retract
G1 Z0.7 F7200 ; Z hop
G0 X151.9036 Y216.9682 F7200 ; Move
G1 Z0.6 F7200 ; Z hop return
G1 E0.7 F2100 ; Un-retract
G1 X153.9036 Y216.9682 E0.14927 F1800 ; Glyph: 0
G1 X155.9036 Y216.9682 E0.14927 F1800 ; Glyph: 0
G1 X155.9036 Y218.9682 E0.14927 F1800 ; Glyph: 0
G1 X153.9036 Y218.9682 E0.14927 F1800 ; Glyph: 0
G1 X151.9036 Y218.9682 E0.14927 F1800 ; Glyph: 0
G1 X151.9036 Y216.9682 E0.14927 F1800 ; Glyph: 0
G1 E-0.7 F2100 ; Retract
G1 Z0.7 F7200 ; Z hop
G0 X160.7078 Y216.9682 F7200 ; Move
G1 Z0.6 F7200 ; Z hop return
G1 E0.7 F2100 ; Un-retract
G1 X162.7078 Y216.9682 E0.14927 F1800 ; Glyph: 0
G1 X164.7078 Y216.9682 E0.14927 F1800 ; Glyph: 0
G1 X164.7078 Y218.9682 E0.14927 F1800 ; Glyph: 0
G1 X162.7078 Y218.9682 E0.14927 F1800 ; Glyph: 0
G1 X160.7078 Y218.9682 E0.14927 F1800 ; Glyph: 0
G1 X160.7078 Y216.9682 E0.14927 F1800 ; Glyph: 0
G1 E-0.7 F2100 ; Retract
G1 Z0.7 F7200 ; Z hop
G0 X164.7078 Y219.9682 F7200 ; Move
G1 Z0.6 F7200 ; Z hop return
G1 E0.7 F2100 ; Un-retract
G1 X163.9578 Y219.9682 E0.05598 F1800 ; Glyph: .
G1 E-0.7 F2100 ; Retract
G1 Z0.7 F7200 ; Z hop
G0 X160.7078 Y220.9682 F7200 ; Move
G1 Z0.6 F7200 ; Z hop return
G1 E0.7 F2100 ; Un-retract
G1 X162.7078 Y220.9682 E0.14927 F1800 ; Glyph: 0
G1 X164.7078 Y220.9682 E0.14927 F1800 ; Glyph: 0
G1 X164.7078 Y222.9682 E0.14927 F1800 ; Glyph: 0
G1 X162.7078 Y222.9682 E0.14927 F1800 ; Glyph: 0
G1 X160.7078 Y222.9682 E0.14927 F1800 ; Glyph: 0
G1 X160.7078 Y220.9682 E0.14927 F1800 ; Glyph: 0
G1 E-0.7 F2100 ; Retract
G1 Z0.7 F7200 ; Z hop
G0 X160.7078 Y223.9682 F7200 ; Move
G1 Z0.6 F7200 ; Z hop return
G1 E0.7 F2100 ; Un-retract
G1 X162.7078 Y223.9682 E0.14927 F1800 ; Glyph: 1
G1 X164.7078 Y223.9682 E0.14927 F1800 ; Glyph: 1
G1 E-0.7 F2100 ; Retract
G1 Z0.7 F7200 ; Z hop
G0 X169.512 Y216.9682 F7200 ; Move
G1 Z0.6 F7200 ; Z hop return
G1 E0.7 F2100 ; Un-retract
G1 X171.512 Y216.9682 E0.14927 F1800 ; Glyph: 0
G1 X173.512 Y216.9682 E0.14927 F1800 ; Glyph: 0
G1 X173.512 Y218.9682 E0.14927 F1800 ; Glyph: 0
G1 X171.512 Y218.9682 E0.14927 F1800 ; Glyph: 0
G1 X169.512 Y218.9682 E0.14927 F1800 ; Glyph: 0
G1 X169.512 Y216.9682 E0.14927 F1800 ; Glyph: 0
G1 E-0.7 F2100 ; Retract
G1 Z0.7 F7200 ; Z hop
G0 X173.512 Y219.9682 F7200 ; Move
G1 Z0.6 F7200 ; Z hop return
G1 E0.7 F2100 ; Un-retract
G1 X172.762 Y219.9682 E0.05598 F1800 ; Glyph: .
G1 E-0.7 F2100 ; Retract
G1 Z0.7 F7200 ; Z hop
G0 X169.512 Y220.9682 F7200 ; Move
G1 Z0.6 F7200 ; Z hop return
G1 E0.7 F2100 ; Un-retract
G1 X171.512 Y220.9682 E0.14927 F1800 ; Glyph: 0
G1 X173.512 Y220.9682 E0.14927 F1800 ; Glyph: 0
G1 X173.512 Y222.9682 E0.14927 F1800 ; Glyph: 0
G1 X171.512 Y222.9682 E0.14927 F1800 ; Glyph: 0
G1 X169.512 Y222.9682 E0.14927 F1800 ; Glyph: 0
G1 X169.512 Y220.9682 E0.14927 F1800 ; Glyph: 0
G1 E-0.7 F2100 ; Retract
G1 Z0.7 F7200 ; Z hop
G0 X169.512 Y223.9682 F7200 ; Move
G1 Z0.6 F7200 ; Z hop return
G1 E0.7 F2100 ; Un-retract
G1 X169.512 Y225.9682 E0.14927 F1800 ; Glyph: 2
G1 X171.512 Y225.9682 E0.14927 F1800 ; Glyph: 2
G1 X171.512 Y223.9682 E0.14927 F1800 ; Glyph: 2
G1 X173.512 Y223.9682 E0.14927 F1800 ; Glyph: 2
G1 X173.512 Y225.9682 E0.14927 F1800 ; Glyph: 2
G1 E-0.7 F2100 ; Retract
G1 Z0.7 F7200 ; Z hop
G0 X178.3162 Y216.9682 F7200 ; Move
G1 Z0.6 F7200 ; Z hop return
G1 E0.7 F2100 ; Un-retract
G1 X180.3162 Y216.9682 E0.14927 F1800 ; Glyph: 0
G1 X182.3162 Y216.9682 E0.14927 F1800 ; Glyph: 0
G1 X182.3162 Y218.9682 E0.14927 F1800 ; Glyph: 0
G1 X180.3162 Y218.9682 E0.14927 F1800 ; Glyph: 0
G1 X178.3162 Y218.9682 E0.14927 F1800 ; Glyph: 0
G1 X178.3162 Y216.9682 E0.14927 F1800 ; Glyph: 0
G1 E-0.7 F2100 ; Retract
G1 Z0.7 F7200 ; Z hop
G0 X182.3162 Y219.9682 F7200 ; Move
G1 Z0.6 F7200 ; Z hop return
G1 E0.7 F2100 ; Un-retract
G1 X181.5662 Y219.9682 E0.05598 F1800 ; Glyph: .
G1 E-0.7 F2100 ; Retract
G1 Z0.7 F7200 ; Z hop
G0 X178.3162 Y220.9682 F7200 ; Move
G1 Z0.6 F7200 ; Z hop return
G1 E0.7 F2100 ; Un-retract
G1 X180.3162 Y220.9682 E0.14927 F1800 ; Glyph: 0
G1 X182.3162 Y220.9682 E0.14927 F1800 ; Glyph: 0
G1 X182.3162 Y222.9682 E0.14927 F1800 ; Glyph: 0
G1 X180.3162 Y222.9682 E0.14927 F1800 ; Glyph: 0
G1 X178.3162 Y222.9682 E0.14927 F1800 ; Glyph: 0
G1 X178.3162 Y220.9682 E0.14927 F1800 ; Glyph: 0
G1 E-0.7 F2100 ; Retract
G1 Z0.7 F7200 ; Z hop
G0 X178.3162 Y223.9682 F7200 ; Move
G1 Z0.6 F7200 ; Z hop return
G1 E0.7 F2100 ; Un-retract
G1 X178.3162 Y225.9682 E0.14927 F1800 ; Glyph: 3
G1 X180.3162 Y225.9682 E0.14927 F1800 ; Glyph: 3
G1 X180.3162 Y223.9682 E0.14927 F1800 ; Glyph: 3
G0 X180.3162 Y225.9682 F7200 ; Move
G1 X182.3162 Y225.9682 E0.14927 F1800 ; Glyph: 3
G1 X182.3162 Y223.9682 E0.14927 F1800 ; Glyph: 3
G1 E-0.7 F2100 ; Retract
G1 Z0.7 F7200 ; Z hop
G0 X187.1204 Y216.9682 F7200 ; Move
G1 Z0.6 F7200 ; Z hop return
G1 E0.7 F2100 ; Un-retract
G1 X189.1204 Y216.9682 E0.14927 F1800 ; Glyph: 0
G1 X191.1204 Y216.9682 E0.14927 F1800 ; Glyph: 0
G1 X191.1204 Y218.9682 E0.14927 F1800 ; Glyph: 0
G1 X189.1204 Y218.9682 E0.14927 F1800 ; Glyph: 0
G1 X187.1204 Y218.9682 E0.14927 F1800 ; Glyph: 0
G1 X187.1204 Y216.9682 E0.14927 F1800 ; Glyph: 0
G1 E-0.7 F2100 ; Retract
G1 Z0.7 F7200 ; Z hop
G0 X191.1204 Y219.9682 F7200 ; Move
G1 Z0.6 F7200 ; Z hop return
G1 E0.7 F2100 ; Un-retract
G1 X190.3704 Y219.9682 E0.05598 F1800 ; Glyph: .
G1 E-0.7 F2100 ; Retract
G1 Z0.7 F7200 ; Z hop
G0 X187.1204 Y220.9682 F7200 ; Move
G1 Z0.6 F7200 ; Z hop return
G1 E0.7 F2100 ; Un-retract
G1 X189.1204 Y220.9682 E0.14927 F1800 ; Glyph: 0
G1 X191.1204 Y220.9682 E0.14927 F1800 ; Glyph: 0
G1 X191.1204 Y222.9682 E0.14927 F1800 ; Glyph: 0
G1 X189.1204 Y222.9682 E0.14927 F1800 ; Glyph: 0
G1 X187.1204 Y222.9682 E0.14927 F1800 ; Glyph: 0
G1 X187.1204 Y220.9682 E0.14927 F1800 ; Glyph: 0
G1 E-0.7 F2100 ; Retract
G1 Z0.7 F7200 ; Z hop
G0 X187.1204 Y225.9682 F7200 ; Move
G1 Z0.6 F7200 ; Z hop return
G1 E0.7 F2100 ; Un-retract
G1 X189.1204 Y225.9682 E0.14927 F1800 ; Glyph: 4
G1 X191.1204 Y225.9682 E0.14927 F1800 ; Glyph: 4
G0 X189.1204 Y225.9682 F7200 ; Move
G1 X189.1204 Y223.9682 E0.14927 F1800 ; Glyph: 4
G1 X187.1204 Y223.9682 E0.14927 F1800 ; Glyph: 4
G1 E-0.7 F2100 ; Retract
G1 Z0.7 F7200 ; Z hop
G0 X195.9246 Y216.9682 F7200 ; Move
G1 Z0.6 F7200 ; Z hop return
G1 E0.7 F2100 ; Un-retract
G1 X197.9246 Y216.9682 E0.14927 F1800 ; Glyph: 0
G1 X199.9246 Y216.9682 E0.14927 F1800 ; Glyph: 0
G1 X199.9246 Y218.9682 E0.14927 F1800 ; Glyph: 0
G1 X197.9246 Y218.9682 E0.14927 F1800 ; Glyph: 0
G1 X195.9246 Y218.9682 E0.14927 F1800 ; Glyph: 0
G1 X195.9246 Y216.9682 E0.14927 F1800 ; Glyph: 0
G1 E-0.7 F2100 ; Retract
G1 Z0.7 F7200 ; Z hop
G0 X199.9246 Y219.9682 F7200 ; Move
G1 Z0.6 F7200 ; Z hop return
G1 E0.7 F2100 ; Un-retract
G1 X199.1746 Y219.9682 E0.05598 F1800 ; Glyph: .
G1 E-0.7 F2100 ; Retract
G1 Z0.7 F7200 ; Z hop
G0 X195.9246 Y220.9682 F7200 ; Move
G1 Z0.6 F7200 ; Z hop return
G1 E0.7 F2100 ; Un-retract
G1 X197.9246 Y220.9682 E0.14927 F1800 ; Glyph: 0
G1 X199.9246 Y220.9682 E0.14927 F1800 ; Glyph: 0
G1 X199.9246 Y222.9682 E0.14927 F1800 ; Glyph: 0
G1 X197.9246 Y222.9682 E0.14927 F1800 ; Glyph: 0
G1 X195.9246 Y222.9682 E0.14927 F1800 ; Glyph: 0
G1 X195.9246 Y220.9682 E0.14927 F1800 ; Glyph: 0
G1 E-0.7 F2100 ; Retract
G1 Z0.7 F7200 ; Z hop
G0 X195.9246 Y225.9682 F7200 ; Move
G1 Z0.6 F7200 ; Z hop return
G1 E0.7 F2100 ; Un-retract
G1 X195.9246 Y223.9682 E0.14927 F1800 ; Glyph: 5
G1 X197.9246 Y223.9682 E0.14927 F1800 ; Glyph: 5
G1 X197.9246 Y225.9682 E0.14927 F1800 ; Glyph: 5
G1 X199.9246 Y225.9682 E0.14927 F1800 ; Glyph: 5
G1 X199.9246 Y223.9682 E0.14927 F1800 ; Glyph: 5
G1 E-0.7 F2100 ; Retract
G1 Z0.7 F7200 ; Z hop
G0 X204.7287 Y216.9682 F7200 ; Move
G1 Z0.6 F7200 ; Z hop return
G1 E0.7 F2100 ; Un-retract
G1 X206.7287 Y216.9682 E0.14927 F1800 ; Glyph: 0
G1 X208.7287 Y216.9682 E0.14927 F1800 ; Glyph: 0
G1 X208.7287 Y218.9682 E0.14927 F1800 ; Glyph: 0
G1 X206.7287 Y218.9682 E0.14927 F1800 ; Glyph: 0
G1 X204.7287 Y218.9682 E0.14927 F1800 ; Glyph: 0
G1 X204.7287 Y216.9682 E0.14927 F1800 ; Glyph: 0
G1 E-0.7 F2100 ; Retract
G1 Z0.7 F7200 ; Z hop
G0 X208.7287 Y219.9682 F7200 ; Move
G1 Z0.6 F7200 ; Z hop return
G1 E0.7 F2100 ; Un-retract
G1 X207.9787 Y219.9682 E0.05598 F1800 ; Glyph: .
G1 E-0.7 F2100 ; Retract
G1 Z0.7 F7200 ; Z hop
G0 X204.7287 Y220.9682 F7200 ; Move
G1 Z0.6 F7200 ; Z hop return
G1 E0.7 F2100 ; Un-retract
G1 X206.7287 Y220.9682 E0.14927 F1800 ; Glyph: 0
G1 X208.7287 Y220.9682 E0.14927 F1800 ; Glyph: 0
G1 X208.7287 Y222.9682 E0.14927 F1800 ; Glyph: 0
G1 X206.7287 Y222.9682 E0.14927 F1800 ; Glyph: 0
G1 X204.7287 Y222.9682 E0.14927 F1800 ; Glyph: 0
G1 X204.7287 Y220.9682 E0.14927 F1800 ; Glyph: 0
G1 E-0.7 F2100 ; Retract
G1 Z0.7 F7200 ; Z hop
G0 X204.7287 Y225.9682 F7200 ; Move
G1 Z0.6 F7200 ; Z hop return
G1 E0.7 F2100 ; Un-retract
G1 X204.7287 Y223.9682 E0.14927 F1800 ; Glyph: 6
G1 X206.7287 Y223.9682 E0.14927 F1800 ; Glyph: 6
G1 X208.7287 Y223.9682 E0.14927 F1800 ; Glyph: 6
G1 X208.7287 Y225.9682 E0.14927 F1800 ; Glyph: 6
G1 X206.7287 Y225.9682 E0.14927 F1800 ; Glyph: 6
G1 X206.7287 Y223.9682 E0.14927 F1800 ; Glyph: 6
G1 E-0.7 F2100 ; Retract
G1 Z0.7 F7200 ; Z hop
G0 X213.5329 Y216.9682 F7200 ; Move
G1 Z0.6 F7200 ; Z hop return
G1 E0.7 F2100 ; Un-retract
G1 X215.5329 Y216.9682 E0.14927 F1800 ; Glyph: 0
G1 X217.5329 Y216.9682 E0.14927 F1800 ; Glyph: 0
G1 X217.5329 Y218.9682 E0.14927 F1800 ; Glyph: 0
G1 X215.5329 Y218.9682 E0.14927 F1800 ; Glyph: 0
G1 X213.5329 Y218.9682 E0.14927 F1800 ; Glyph: 0
G1 X213.5329 Y216.9682 E0.14927 F1800 ; Glyph: 0
G1 E-0.7 F2100 ; Retract
G1 Z0.7 F7200 ; Z hop
G0 X217.5329 Y219.9682 F7200 ; Move
G1 Z0.6 F7200 ; Z hop return
G1 E0.7 F2100 ; Un-retract
G1 X216.7829 Y219.9682 E0.05598 F1800 ; Glyph: .
G1 E-0.7 F2100 ; Retract
G1 Z0.7 F7200 ; Z hop
G0 X213.5329 Y220.9682 F7200 ; Move
G1 Z0.6 F7200 ; Z hop return
G1 E0.7 F2100 ; Un-retract
G1 X215.5329 Y220.9682 E0.14927 F1800 ; Glyph: 0
G1 X217.5329 Y220.9682 E0.14927 F1800 ; Glyph: 0
G1 X217.5329 Y222.9682 E0.14927 F1800 ; Glyph: 0
G1 X215.5329 Y222.9682 E0.14927 F1800 ; Glyph: 0
G1 X213.5329 Y222.9682 E0.14927 F1800 ; Glyph: 0
G1 X213.5329 Y220.9682 E0.14927 F1800 ; Glyph: 0
G1 E-0.7 F2100 ; Retract
G1 Z0.7 F7200 ; Z hop
G0 X213.5329 Y223.9682 F7200 ; Move
G1 Z0.6 F7200 ; Z hop return
G1 E0.7 F2100 ; Un-retract
G1 X213.5329 Y225.9682 E0.14927 F1800 ; Glyph: 7
G1 X215.5329 Y225.9682 E0.14927 F1800 ; Glyph: 7
G1 X217.5329 Y225.9682 E0.14927 F1800 ; Glyph: 7
G1 E-0.7 F2100 ; Retract
G1 Z0.7 F7200 ; Z hop
G0 X222.3371 Y216.9682 F7200 ; Move
G1 Z0.6 F7200 ; Z hop return
G1 E0.7 F2100 ; Un-retract
G1 X224.3371 Y216.9682 E0.14927 F1800 ; Glyph: 0
G1 X226.3371 Y216.9682 E0.14927 F1800 ; Glyph: 0
G1 X226.3371 Y218.9682 E0.14927 F1800 ; Glyph: 0
G1 X224.3371 Y218.9682 E0.14927 F1800 ; Glyph: 0
G1 X222.3371 Y218.9682 E0.14927 F1800 ; Glyph: 0
G1 X222.3371 Y216.9682 E0.14927 F1800 ; Glyph: 0
G1 E-0.7 F2100 ; Retract
G1 Z0.7 F7200 ; Z hop
G0 X226.3371 Y219.9682 F7200 ; Move
G1 Z0.6 F7200 ; Z hop return
G1 E0.7 F2100 ; Un-retract
G1 X225.5871 Y219.9682 E0.05598 F1800 ; Glyph: .
G1 E-0.7 F2100 ; Retract
G1 Z0.7 F7200 ; Z hop
G0 X222.3371 Y220.9682 F7200 ; Move
G1 Z0.6 F7200 ; Z hop return
G1 E0.7 F2100 ; Un-retract
G1 X224.3371 Y220.9682 E0.14927 F1800 ; Glyph: 0
G1 X226.3371 Y220.9682 E0.14927 F1800 ; Glyph: 0
G1 X226.3371 Y222.9682 E0.14927 F1800 ; Glyph: 0
G1 X224.3371 Y222.9682 E0.14927 F1800 ; Glyph: 0
G1 X222.3371 Y222.9682 E0.14927 F1800 ; Glyph: 0
G1 X222.3371 Y220.9682 E0.14927 F1800 ; Glyph: 0
G1 E-0.7 F2100 ; Retract
G1 Z0.7 F7200 ; Z hop
G0 X222.3371 Y223.9682 F7200 ; Move
G1 Z0.6 F7200 ; Z hop return
G1 E0.7 F2100 ; Un-retract
G1 X224.3371 Y223.9682 E0.14927 F1800 ; Glyph: 8
G1 X226.3371 Y223.9682 E0.14927 F1800 ; Glyph: 8
G1 X226.3371 Y225.9682 E0.14927 F1800 ; Glyph: 8
G1 X224.3371 Y225.9682 E0.14927 F1800 ; Glyph: 8
G1 X222.3371 Y225.9682 E0.14927 F1800 ; Glyph: 8
G1 X222.3371 Y223.9682 E0.14927 F1800 ; Glyph: 8
G0 X224.3371 Y223.9682 F7200 ; Move
G1 X224.3371 Y225.9682 E0.14927 F1800 ; Glyph: 8
G1 E-0.7 F2100 ; Retract
G1 Z0.7 F7200 ; Z hop
G0 X153.0401 Y172.8668 F7200 ; Move to pattern start

G1 Z0.6 F7200 ; Z hop return
G1 E0.7 F2100 ; Un-retract
SET_PRESSURE_ADVANCE ADVANCE=0 ; Set pressure advance
M117 PA 0
G1 X174.2533 Y194.08 E2.2391 F6000 ; Print pattern wall
G1 X153.0401 Y215.2932 E2.2391 F6000 ; Print pattern wall
G1 E-0.7 F2100 ; Retract
G1 Z0.7 F7200 ; Z hop
G0 X153.9036 Y172.8668 F7200 ; Move to start next pattern wall
G1 Z0.6 F7200 ; Z hop return
G1 E0.7 F2100 ; Un-retract
G1 X175.1168 Y194.08 E2.2391 F6000 ; Print pattern wall
G1 X153.9036 Y215.2932 E2.2391 F6000 ; Print pattern wall
G1 E-0.7 F2100 ; Retract
G1 Z0.7 F7200 ; Z hop
G0 X154.7672 Y172.8668 F7200 ; Move to start next pattern wall
G1 Z0.6 F7200 ; Z hop return
G1 E0.7 F2100 ; Un-retract
G1 X175.9804 Y194.08 E2.2391 F6000 ; Print pattern wall
G1 X154.7672 Y215.2932 E2.2391 F6000 ; Print pattern wall
G1 E-0.7 F2100 ; Retract
G1 Z0.7 F7200 ; Z hop
G0 X157.4422 Y172.8668 F7200 ; Move to next pattern
G1 Z0.6 F7200 ; Z hop return
G1 E0.7 F2100 ; Un-retract
SET_PRESSURE_ADVANCE ADVANCE=0.005 ; Set pressure advance
M117 PA 0.005
G1 X178.6554 Y194.08 E2.2391 F6000 ; Print pattern wall
G1 X157.4422 Y215.2932 E2.2391 F6000 ; Print pattern wall
G1 E-0.7 F2100 ; Retract
G1 Z0.7 F7200 ; Z hop
G0 X158.3057 Y172.8668 F7200 ; Move to start next pattern wall
G1 Z0.6 F7200 ; Z hop return
G1 E0.7 F2100 ; Un-retract
G1 X179.5189 Y194.08 E2.2391 F6000 ; Print pattern wall
G1 X158.3057 Y215.2932 E2.2391 F6000 ; Print pattern wall
G1 E-0.7 F2100 ; Retract
G1 Z0.7 F7200 ; Z hop
G0 X159.1693 Y172.8668 F7200 ; Move to start next pattern wall
G1 Z0.6 F7200 ; Z hop return
G1 E0.7 F2100 ; Un-retract
G1 X180.3825 Y194.08 E2.2391 F6000 ; Print pattern wall
G1 X159.1693 Y215.2932 E2.2391 F6000 ; Print pattern wall
G1 E-0.7 F2100 ; Retract
G1 Z0.7 F7200 ; Z hop
G0 X161.8443 Y172.8668 F7200 ; Move to next pattern
G1 Z0.6 F7200 ; Z hop return
G1 E0.7 F2100 ; Un-retract
SET_PRESSURE_ADVANCE ADVANCE=0.01 ; Set pressure advance
M117 PA 0.01
G1 X183.0575 Y194.08 E2.2391 F6000 ; Print pattern wall
G1 X161.8443 Y215.2932 E2.2391 F6000 ; Print pattern wall
G1 E-0.7 F2100 ; Retract
G1 Z0.7 F7200 ; Z hop
G0 X162.7078 Y172.8668 F7200 ; Move to start next pattern wall
G1 Z0.6 F7200 ; Z hop return
G1 E0.7 F2100 ; Un-retract
G1 X183.921 Y194.08 E2.2391 F6000 ; Print pattern wall
G1 X162.7078 Y215.2932 E2.2391 F6000 ; Print pattern wall
G1 E-0.7 F2100 ; Retract
G1 Z0.7 F7200 ; Z hop
G0 X163.5714 Y172.8668 F7200 ; Move to start next pattern wall
G1 Z0.6 F7200 ; Z hop return
G1 E0.7 F2100 ; Un-retract
G1 X184.7846 Y194.08 E2.2391 F6000 ; Print pattern wall
G1 X163.5714 Y215.2932 E2.2391 F6000 ; Print pattern wall
G1 E-0.7 F2100 ; Retract
G1 Z0.7 F7200 ; Z hop
G0 X166.2464 Y172.8668 F7200 ; Move to next pattern
G1 Z0.6 F7200 ; Z hop return
G1 E0.7 F2100 ; Un-retract
SET_PRESSURE_ADVANCE ADVANCE=0.015 ; Set pressure advance
M117 PA 0.015
G1 X187.4596 Y194.08 E2.2391 F6000 ; Print pattern wall
G1 X166.2464 Y215.2932 E2.2391 F6000 ; Print pattern wall
G1 E-0.7 F2100 ; Retract
G1 Z0.7 F7200 ; Z hop
G0 X167.1099 Y172.8668 F7200 ; Move to start next pattern wall
G1 Z0.6 F7200 ; Z hop return
G1 E0.7 F2100 ; Un-retract
G1 X188.3231 Y194.08 E2.2391 F6000 ; Print pattern wall
G1 X167.1099 Y215.2932 E2.2391 F6000 ; Print pattern wall
G1 E-0.7 F2100 ; Retract
G1 Z0.7 F7200 ; Z hop
G0 X167.9735 Y172.8668 F7200 ; Move to start next pattern wall
G1 Z0.6 F7200 ; Z hop return
G1 E0.7 F2100 ; Un-retract
G1 X189.1867 Y194.08 E2.2391 F6000 ; Print pattern wall
G1 X167.9735 Y215.2932 E2.2391 F6000 ; Print pattern wall
G1 E-0.7 F2100 ; Retract
G1 Z0.7 F7200 ; Z hop
G0 X170.6485 Y172.8668 F7200 ; Move to next pattern
G1 Z0.6 F7200 ; Z hop return
G1 E0.7 F2100 ; Un-retract
SET_PRESSURE_ADVANCE ADVANCE=0.02 ; Set pressure advance
M117 PA 0.02
G1 X191.8617 Y194.08 E2.2391 F6000 ; Print pattern wall
G1 X170.6485 Y215.2932 E2.2391 F6000 ; Print pattern wall
G1 E-0.7 F2100 ; Retract
G1 Z0.7 F7200 ; Z hop
G0 X171.512 Y172.8668 F7200 ; Move to start next pattern wall
G1 Z0.6 F7200 ; Z hop return
G1 E0.7 F2100 ; Un-retract
G1 X192.7252 Y194.08 E2.2391 F6000 ; Print pattern wall
G1 X171.512 Y215.2932 E2.2391 F6000 ; Print pattern wall
G1 E-0.7 F2100 ; Retract
G1 Z0.7 F7200 ; Z hop
G0 X172.3756 Y172.8668 F7200 ; Move to start next pattern wall
G1 Z0.6 F7200 ; Z hop return
G1 E0.7 F2100 ; Un-retract
G1 X193.5888 Y194.08 E2.2391 F6000 ; Print pattern wall
G1 X172.3756 Y215.2932 E2.2391 F6000 ; Print pattern wall
G1 E-0.7 F2100 ; Retract
G1 Z0.7 F7200 ; Z hop
G0 X175.0506 Y172.8668 F7200 ; Move to next pattern
G1 Z0.6 F7200 ; Z hop return
G1 E0.7 F2100 ; Un-retract
SET_PRESSURE_ADVANCE ADVANCE=0.025 ; Set pressure advance
M117 PA 0.025
G1 X196.2638 Y194.08 E2.2391 F6000 ; Print pattern wall
G1 X175.0506 Y215.2932 E2.2391 F6000 ; Print pattern wall
G1 E-0.7 F2100 ; Retract
G1 Z0.7 F7200 ; Z hop
G0 X175.9141 Y172.8668 F7200 ; Move to start next pattern wall
G1 Z0.6 F7200 ; Z hop return
G1 E0.7 F2100 ; Un-retract
G1 X197.1273 Y194.08 E2.2391 F6000 ; Print pattern wall
G1 X175.9141 Y215.2932 E2.2391 F6000 ; Print pattern wall
G1 E-0.7 F2100 ; Retract
G1 Z0.7 F7200 ; Z hop
G0 X176.7776 Y172.8668 F7200 ; Move to start next pattern wall
G1 Z0.6 F7200 ; Z hop return
G1 E0.7 F2100 ; Un-retract
G1 X197.9908 Y194.08 E2.2391 F6000 ; Print pattern wall
G1 X176.7776 Y215.2932 E2.2391 F6000 ; Print pattern wall
G1 E-0.7 F2100 ; Retract
G1 Z0.7 F7200 ; Z hop
G0 X179.4526 Y172.8668 F7200 ; Move to next pattern
G1 Z0.6 F7200 ; Z hop return
G1 E0.7 F2100 ; Un-retract
SET_PRESSURE_ADVANCE ADVANCE=0.03 ; Set pressure advance
M117 PA 0.03
G1 X200.6658 Y194.08 E2.2391 F6000 ; Print pattern wall
G1 X179.4526 Y215.2932 E2.2391 F6000 ; Print pattern wall
G1 E-0.7 F2100 ; Retract
G1 Z0.7 F7200 ; Z hop
G0 X180.3162 Y172.8668 F7200 ; Move to start next pattern wall
G1 Z0.6 F7200 ; Z hop return
G1 E0.7 F2100 ; Un-retract
G1 X201.5294 Y194.08 E2.2391 F6000 ; Print pattern wall
G1 X180.3162 Y215.2932 E2.2391 F6000 ; Print pattern wall
G1 E-0.7 F2100 ; Retract
G1 Z0.7 F7200 ; Z hop
G0 X181.1797 Y172.8668 F7200 ; Move to start next pattern wall
G1 Z0.6 F7200 ; Z hop return
G1 E0.7 F2100 ; Un-retract
G1 X202.3929 Y194.08 E2.2391 F6000 ; Print pattern wall
G1 X181.1797 Y215.2932 E2.2391 F6000 ; Print pattern wall
G1 E-0.7 F2100 ; Retract
G1 Z0.7 F7200 ; Z hop
G0 X183.8547 Y172.8668 F7200 ; Move to next pattern
G1 Z0.6 F7200 ; Z hop return
G1 E0.7 F2100 ; Un-retract
SET_PRESSURE_ADVANCE ADVANCE=0.035 ; Set pressure advance
M117 PA 0.035
G1 X205.0679 Y194.08 E2.2391 F6000 ; Print pattern wall
G1 X183.8547 Y215.2932 E2.2391 F6000 ; Print pattern wall
G1 E-0.7 F2100 ; Retract
G1 Z0.7 F7200 ; Z hop
G0 X184.7183 Y172.8668 F7200 ; Move to start next pattern wall
G1 Z0.6 F7200 ; Z hop return
G1 E0.7 F2100 ; Un-retract
G1 X205.9315 Y194.08 E2.2391 F6000 ; Print pattern wall
G1 X184.7183 Y215.2932 E2.2391 F6000 ; Print pattern wall
G1 E-0.7 F2100 ; Retract
G1 Z0.7 F7200 ; Z hop
G0 X185.5818 Y172.8668 F7200 ; Move to start next pattern wall
G1 Z0.6 F7200 ; Z hop return
G1 E0.7 F2100 ; Un-retract
G1 X206.795 Y194.08 E2.2391 F6000 ; Print pattern wall
G1 X185.5818 Y215.2932 E2.2391 F6000 ; Print pattern wall
G1 E-0.7 F2100 ; Retract
G1 Z0.7 F7200 ; Z hop
G0 X188.2568 Y172.8668 F7200 ; Move to next pattern
G1 Z0.6 F7200 ; Z hop return
G1 E0.7 F2100 ; Un-retract
SET_PRESSURE_ADVANCE ADVANCE=0.04 ; Set pressure advance
M117 PA 0.04
G1 X209.47 Y194.08 E2.2391 F6000 ; Print pattern wall
G1 X188.2568 Y215.2932 E2.2391 F6000 ; Print pattern wall
G1 E-0.7 F2100 ; Retract
G1 Z0.7 F7200 ; Z hop
G0 X189.1204 Y172.8668 F7200 ; Move to start next pattern wall
G1 Z0.6 F7200 ; Z hop return
G1 E0.7 F2100 ; Un-retract
G1 X210.3336 Y194.08 E2.2391 F6000 ; Print pattern wall
G1 X189.1204 Y215.2932 E2.2391 F6000 ; Print pattern wall
G1 E-0.7 F2100 ; Retract
G1 Z0.7 F7200 ; Z hop
G0 X189.9839 Y172.8668 F7200 ; Move to start next pattern wall
G1 Z0.6 F7200 ; Z hop return
G1 E0.7 F2100 ; Un-retract
G1 X211.1971 Y194.08 E2.2391 F6000 ; Print pattern wall
G1 X189.9839 Y215.2932 E2.2391 F6000 ; Print pattern wall
G1 E-0.7 F2100 ; Retract
G1 Z0.7 F7200 ; Z hop
G0 X192.6589 Y172.8668 F7200 ; Move to next pattern
G1 Z0.6 F7200 ; Z hop return
G1 E0.7 F2100 ; Un-retract
SET_PRESSURE_ADVANCE ADVANCE=0.045 ; Set pressure advance
M117 PA 0.045
G1 X213.8721 Y194.08 E2.2391 F6000 ; Print pattern wall
G1 X192.6589 Y215.2932 E2.2391 F6000 ; Print pattern wall
G1 E-0.7 F2100 ; Retract
G1 Z0.7 F7200 ; Z hop
G0 X193.5225 Y172.8668 F7200 ; Move to start next pattern wall
G1 Z0.6 F7200 ; Z hop return
G1 E0.7 F2100 ; Un-retract
G1 X214.7357 Y194.08 E2.2391 F6000 ; Print pattern wall
G1 X193.5225 Y215.2932 E2.2391 F6000 ; Print pattern wall
G1 E-0.7 F2100 ; Retract
G1 Z0.7 F7200 ; Z hop
G0 X194.386 Y172.8668 F7200 ; Move to start next pattern wall
G1 Z0.6 F7200 ; Z hop return
G1 E0.7 F2100 ; Un-retract
G1 X215.5992 Y194.08 E2.2391 F6000 ; Print pattern wall
G1 X194.386 Y215.2932 E2.2391 F6000 ; Print pattern wall
G1 E-0.7 F2100 ; Retract
G1 Z0.7 F7200 ; Z hop
G0 X197.061 Y172.8668 F7200 ; Move to next pattern
G1 Z0.6 F7200 ; Z hop return
G1 E0.7 F2100 ; Un-retract
SET_PRESSURE_ADVANCE ADVANCE=0.05 ; Set pressure advance
M117 PA 0.05
G1 X218.2742 Y194.08 E2.2391 F6000 ; Print pattern wall
G1 X197.061 Y215.2932 E2.2391 F6000 ; Print pattern wall
G1 E-0.7 F2100 ; Retract
G1 Z0.7 F7200 ; Z hop
G0 X197.9246 Y172.8668 F7200 ; Move to start next pattern wall
G1 Z0.6 F7200 ; Z hop return
G1 E0.7 F2100 ; Un-retract
G1 X219.1378 Y194.08 E2.2391 F6000 ; Print pattern wall
G1 X197.9246 Y215.2932 E2.2391 F6000 ; Print pattern wall
G1 E-0.7 F2100 ; Retract
G1 Z0.7 F7200 ; Z hop
G0 X198.7881 Y172.8668 F7200 ; Move to start next pattern wall
G1 Z0.6 F7200 ; Z hop return
G1 E0.7 F2100 ; Un-retract
G1 X220.0013 Y194.08 E2.2391 F6000 ; Print pattern wall
G1 X198.7881 Y215.2932 E2.2391 F6000 ; Print pattern wall
G1 E-0.7 F2100 ; Retract
G1 Z0.7 F7200 ; Z hop
G0 X201.4631 Y172.8668 F7200 ; Move to next pattern
G1 Z0.6 F7200 ; Z hop return
G1 E0.7 F2100 ; Un-retract
SET_PRESSURE_ADVANCE ADVANCE=0.055 ; Set pressure advance
M117 PA 0.055
G1 X222.6763 Y194.08 E2.2391 F6000 ; Print pattern wall
G1 X201.4631 Y215.2932 E2.2391 F6000 ; Print pattern wall
G1 E-0.7 F2100 ; Retract
G1 Z0.7 F7200 ; Z hop
G0 X202.3267 Y172.8668 F7200 ; Move to start next pattern wall
G1 Z0.6 F7200 ; Z hop return
G1 E0.7 F2100 ; Un-retract
G1 X223.5399 Y194.08 E2.2391 F6000 ; Print pattern wall
G1 X202.3267 Y215.2932 E2.2391 F6000 ; Print pattern wall
G1 E-0.7 F2100 ; Retract
G1 Z0.7 F7200 ; Z hop
G0 X203.1902 Y172.8668 F7200 ; Move to start next pattern wall
G1 Z0.6 F7200 ; Z hop return
G1 E0.7 F2100 ; Un-retract
G1 X224.4034 Y194.08 E2.2391 F6000 ; Print pattern wall
G1 X203.1902 Y215.2932 E2.2391 F6000 ; Print pattern wall
G1 E-0.7 F2100 ; Retract
G1 Z0.7 F7200 ; Z hop
G0 X205.8652 Y172.8668 F7200 ; Move to next pattern
G1 Z0.6 F7200 ; Z hop return
G1 E0.7 F2100 ; Un-retract
SET_PRESSURE_ADVANCE ADVANCE=0.06 ; Set pressure advance
M117 PA 0.06
G1 X227.0784 Y194.08 E2.2391 F6000 ; Print pattern wall
G1 X205.8652 Y215.2932 E2.2391 F6000 ; Print pattern wall
G1 E-0.7 F2100 ; Retract
G1 Z0.7 F7200 ; Z hop
G0 X206.7287 Y172.8668 F7200 ; Move to start next pattern wall
G1 Z0.6 F7200 ; Z hop return
G1 E0.7 F2100 ; Un-retract
G1 X227.9419 Y194.08 E2.2391 F6000 ; Print pattern wall
G1 X206.7287 Y215.2932 E2.2391 F6000 ; Print pattern wall
G1 E-0.7 F2100 ; Retract
G1 Z0.7 F7200 ; Z hop
G0 X207.5923 Y172.8668 F7200 ; Move to start next pattern wall
G1 Z0.6 F7200 ; Z hop return
G1 E0.7 F2100 ; Un-retract
G1 X228.8055 Y194.08 E2.2391 F6000 ; Print pattern wall
G1 X207.5923 Y215.2932 E2.2391 F6000 ; Print pattern wall
G1 E-0.7 F2100 ; Retract
G1 Z0.7 F7200 ; Z hop
G0 X210.2673 Y172.8668 F7200 ; Move to next pattern
G1 Z0.6 F7200 ; Z hop return
G1 E0.7 F2100 ; Un-retract
SET_PRESSURE_ADVANCE ADVANCE=0.065 ; Set pressure advance
M117 PA 0.065
G1 X231.4805 Y194.08 E2.2391 F6000 ; Print pattern wall
G1 X210.2673 Y215.2932 E2.2391 F6000 ; Print pattern wall
G1 E-0.7 F2100 ; Retract
G1 Z0.7 F7200 ; Z hop
G0 X211.1308 Y172.8668 F7200 ; Move to start next pattern wall
G1 Z0.6 F7200 ; Z hop return
G1 E0.7 F2100 ; Un-retract
G1 X232.344 Y194.08 E2.2391 F6000 ; Print pattern wall
G1 X211.1308 Y215.2932 E2.2391 F6000 ; Print pattern wall
G1 E-0.7 F2100 ; Retract
G1 Z0.7 F7200 ; Z hop
G0 X211.9944 Y172.8668 F7200 ; Move to start next pattern wall
G1 Z0.6 F7200 ; Z hop return
G1 E0.7 F2100 ; Un-retract
G1 X233.2076 Y194.08 E2.2391 F6000 ; Print pattern wall
G1 X211.9944 Y215.2932 E2.2391 F6000 ; Print pattern wall
G1 E-0.7 F2100 ; Retract
G1 Z0.7 F7200 ; Z hop
G0 X214.6694 Y172.8668 F7200 ; Move to next pattern
G1 Z0.6 F7200 ; Z hop return
G1 E0.7 F2100 ; Un-retract
SET_PRESSURE_ADVANCE ADVANCE=0.07 ; Set pressure advance
M117 PA 0.07
G1 X235.8826 Y194.08 E2.2391 F6000 ; Print pattern wall
G1 X214.6694 Y215.2932 E2.2391 F6000 ; Print pattern wall
G1 E-0.7 F2100 ; Retract
G1 Z0.7 F7200 ; Z hop
G0 X215.5329 Y172.8668 F7200 ; Move to start next pattern wall
G1 Z0.6 F7200 ; Z hop return
G1 E0.7 F2100 ; Un-retract
G1 X236.7461 Y194.08 E2.2391 F6000 ; Print pattern wall
G1 X215.5329 Y215.2932 E2.2391 F6000 ; Print pattern wall
G1 E-0.7 F2100 ; Retract
G1 Z0.7 F7200 ; Z hop
G0 X216.3965 Y172.8668 F7200 ; Move to start next pattern wall
G1 Z0.6 F7200 ; Z hop return
G1 E0.7 F2100 ; Un-retract
G1 X237.6097 Y194.08 E2.2391 F6000 ; Print pattern wall
G1 X216.3965 Y215.2932 E2.2391 F6000 ; Print pattern wall
G1 E-0.7 F2100 ; Retract
G1 Z0.7 F7200 ; Z hop
G0 X219.0715 Y172.8668 F7200 ; Move to next pattern
G1 Z0.6 F7200 ; Z hop return
G1 E0.7 F2100 ; Un-retract
SET_PRESSURE_ADVANCE ADVANCE=0.075 ; Set pressure advance
M117 PA 0.075
G1 X240.2847 Y194.08 E2.2391 F6000 ; Print pattern wall
G1 X219.0715 Y215.2932 E2.2391 F6000 ; Print pattern wall
G1 E-0.7 F2100 ; Retract
G1 Z0.7 F7200 ; Z hop
G0 X219.935 Y172.8668 F7200 ; Move to start next pattern wall
G1 Z0.6 F7200 ; Z hop return
G1 E0.7 F2100 ; Un-retract
G1 X241.1482 Y194.08 E2.2391 F6000 ; Print pattern wall
G1 X219.935 Y215.2932 E2.2391 F6000 ; Print pattern wall
G1 E-0.7 F2100 ; Retract
G1 Z0.7 F7200 ; Z hop
G0 X220.7986 Y172.8668 F7200 ; Move to start next pattern wall
G1 Z0.6 F7200 ; Z hop return
G1 E0.7 F2100 ; Un-retract
G1 X242.0118 Y194.08 E2.2391 F6000 ; Print pattern wall
G1 X220.7986 Y215.2932 E2.2391 F6000 ; Print pattern wall
G1 E-0.7 F2100 ; Retract
G1 Z0.7 F7200 ; Z hop
G0 X223.4736 Y172.8668 F7200 ; Move to next pattern
G1 Z0.6 F7200 ; Z hop return
G1 E0.7 F2100 ; Un-retract
SET_PRESSURE_ADVANCE ADVANCE=0.08 ; Set pressure advance
M117 PA 0.08
G1 X244.6868 Y194.08 E2.2391 F6000 ; Print pattern wall
G1 X223.4736 Y215.2932 E2.2391 F6000 ; Print pattern wall
G1 E-0.7 F2100 ; Retract
G1 Z0.7 F7200 ; Z hop
G0 X224.3371 Y172.8668 F7200 ; Move to start next pattern wall
G1 Z0.6 F7200 ; Z hop return
G1 E0.7 F2100 ; Un-retract
G1 X245.5503 Y194.08 E2.2391 F6000 ; Print pattern wall
G1 X224.3371 Y215.2932 E2.2391 F6000 ; Print pattern wall
G1 E-0.7 F2100 ; Retract
G1 Z0.7 F7200 ; Z hop
G0 X225.2007 Y172.8668 F7200 ; Move to start next pattern wall
G1 Z0.6 F7200 ; Z hop return
G1 E0.7 F2100 ; Un-retract
G1 X246.4139 Y194.08 E2.2391 F6000 ; Print pattern wall
G1 X225.2007 Y215.2932 E2.2391 F6000 ; Print pattern wall
G1 E-0.7 F2100 ; Retract
G1 Z0.7 F7200 ; Z hop
G0 X153.0401 Y172.8668 F7200 ; Move back to start position
G1 Z0.6 F7200 ; Z hop return
G1 E0.7 F2100 ; Un-retract
G0 Z0.9 F7200 ; Move to layer height
SET_PRESSURE_ADVANCE ADVANCE=0 ; Set pressure advance
M117 PA 0
G1 X174.2533 Y194.08 E2.2391 F6000 ; Print pattern wall
G1 X153.0401 Y215.2932 E2.2391 F6000 ; Print pattern wall
G1 E-0.7 F2100 ; Retract
G1 Z1 F7200 ; Z hop
G0 X153.9036 Y172.8668 F7200 ; Move to start next pattern wall
G1 Z0.9 F7200 ; Z hop return
G1 E0.7 F2100 ; Un-retract
G1 X175.1168 Y194.08 E2.2391 F6000 ; Print pattern wall
G1 X153.9036 Y215.2932 E2.2391 F6000 ; Print pattern wall
G1 E-0.7 F2100 ; Retract
G1 Z1 F7200 ; Z hop
G0 X154.7672 Y172.8668 F7200 ; Move to start next pattern wall
G1 Z0.9 F7200 ; Z hop return
G1 E0.7 F2100 ; Un-retract
G1 X175.9804 Y194.08 E2.2391 F6000 ; Print pattern wall
G1 X154.7672 Y215.2932 E2.2391 F6000 ; Print pattern wall
G1 E-0.7 F2100 ; Retract
G1 Z1 F7200 ; Z hop
G0 X157.4422 Y172.8668 F7200 ; Move to next pattern
G1 Z0.9 F7200 ; Z hop return
G1 E0.7 F2100 ; Un-retract
SET_PRESSURE_ADVANCE ADVANCE=0.005 ; Set pressure advance
M117 PA 0.005
G1 X178.6554 Y194.08 E2.2391 F6000 ; Print pattern wall
G1 X157.4422 Y215.2932 E2.2391 F6000 ; Print pattern wall
G1 E-0.7 F2100 ; Retract
G1 Z1 F7200 ; Z hop
G0 X158.3057 Y172.8668 F7200 ; Move to start next pattern wall
G1 Z0.9 F7200 ; Z hop return
G1 E0.7 F2100 ; Un-retract
G1 X179.5189 Y194.08 E2.2391 F6000 ; Print pattern wall
G1 X158.3057 Y215.2932 E2.2391 F6000 ; Print pattern wall
G1 E-0.7 F2100 ; Retract
G1 Z1 F7200 ; Z hop
G0 X159.1693 Y172.8668 F7200 ; Move to start next pattern wall
G1 Z0.9 F7200 ; Z hop return
G1 E0.7 F2100 ; Un-retract
G1 X180.3825 Y194.08 E2.2391 F6000 ; Print pattern wall
G1 X159.1693 Y215.2932 E2.2391 F6000 ; Print pattern wall
G1 E-0.7 F2100 ; Retract
G1 Z1 F7200 ; Z hop
G0 X161.8443 Y172.8668 F7200 ; Move to next pattern
G1 Z0.9 F7200 ; Z hop return
G1 E0.7 F2100 ; Un-retract
SET_PRESSURE_ADVANCE ADVANCE=0.01 ; Set pressure advance
M117 PA 0.01
G1 X183.0575 Y194.08 E2.2391 F6000 ; Print pattern wall
G1 X161.8443 Y215.2932 E2.2391 F6000 ; Print pattern wall
G1 E-0.7 F2100 ; Retract
G1 Z1 F7200 ; Z hop
G0 X162.7078 Y172.8668 F7200 ; Move to start next pattern wall
G1 Z0.9 F7200 ; Z hop return
G1 E0.7 F2100 ; Un-retract
G1 X183.921 Y194.08 E2.2391 F6000 ; Print pattern wall
G1 X162.7078 Y215.2932 E2.2391 F6000 ; Print pattern wall
G1 E-0.7 F2100 ; Retract
G1 Z1 F7200 ; Z hop
G0 X163.5714 Y172.8668 F7200 ; Move to start next pattern wall
G1 Z0.9 F7200 ; Z hop return
G1 E0.7 F2100 ; Un-retract
G1 X184.7846 Y194.08 E2.2391 F6000 ; Print pattern wall
G1 X163.5714 Y215.2932 E2.2391 F6000 ; Print pattern wall
G1 E-0.7 F2100 ; Retract
G1 Z1 F7200 ; Z hop
G0 X166.2464 Y172.8668 F7200 ; Move to next pattern
G1 Z0.9 F7200 ; Z hop return
G1 E0.7 F2100 ; Un-retract
SET_PRESSURE_ADVANCE ADVANCE=0.015 ; Set pressure advance
M117 PA 0.015
G1 X187.4596 Y194.08 E2.2391 F6000 ; Print pattern wall
G1 X166.2464 Y215.2932 E2.2391 F6000 ; Print pattern wall
G1 E-0.7 F2100 ; Retract
G1 Z1 F7200 ; Z hop
G0 X167.1099 Y172.8668 F7200 ; Move to start next pattern wall
G1 Z0.9 F7200 ; Z hop return
G1 E0.7 F2100 ; Un-retract
G1 X188.3231 Y194.08 E2.2391 F6000 ; Print pattern wall
G1 X167.1099 Y215.2932 E2.2391 F6000 ; Print pattern wall
G1 E-0.7 F2100 ; Retract
G1 Z1 F7200 ; Z hop
G0 X167.9735 Y172.8668 F7200 ; Move to start next pattern wall
G1 Z0.9 F7200 ; Z hop return
G1 E0.7 F2100 ; Un-retract
G1 X189.1867 Y194.08 E2.2391 F6000 ; Print pattern wall
G1 X167.9735 Y215.2932 E2.2391 F6000 ; Print pattern wall
G1 E-0.7 F2100 ; Retract
G1 Z1 F7200 ; Z hop
G0 X170.6485 Y172.8668 F7200 ; Move to next pattern
G1 Z0.9 F7200 ; Z hop return
G1 E0.7 F2100 ; Un-retract
SET_PRESSURE_ADVANCE ADVANCE=0.02 ; Set pressure advance
M117 PA 0.02
G1 X191.8617 Y194.08 E2.2391 F6000 ; Print pattern wall
G1 X170.6485 Y215.2932 E2.2391 F6000 ; Print pattern wall
G1 E-0.7 F2100 ; Retract
G1 Z1 F7200 ; Z hop
G0 X171.512 Y172.8668 F7200 ; Move to start next pattern wall
G1 Z0.9 F7200 ; Z hop return
G1 E0.7 F2100 ; Un-retract
G1 X192.7252 Y194.08 E2.2391 F6000 ; Print pattern wall
G1 X171.512 Y215.2932 E2.2391 F6000 ; Print pattern wall
G1 E-0.7 F2100 ; Retract
G1 Z1 F7200 ; Z hop
G0 X172.3756 Y172.8668 F7200 ; Move to start next pattern wall
G1 Z0.9 F7200 ; Z hop return
G1 E0.7 F2100 ; Un-retract
G1 X193.5888 Y194.08 E2.2391 F6000 ; Print pattern wall
G1 X172.3756 Y215.2932 E2.2391 F6000 ; Print pattern wall
G1 E-0.7 F2100 ; Retract
G1 Z1 F7200 ; Z hop
G0 X175.0506 Y172.8668 F7200 ; Move to next pattern
G1 Z0.9 F7200 ; Z hop return
G1 E0.7 F2100 ; Un-retract
SET_PRESSURE_ADVANCE ADVANCE=0.025 ; Set pressure advance
M117 PA 0.025
G1 X196.2638 Y194.08 E2.2391 F6000 ; Print pattern wall
G1 X175.0506 Y215.2932 E2.2391 F6000 ; Print pattern wall
G1 E-0.7 F2100 ; Retract
G1 Z1 F7200 ; Z hop
G0 X175.9141 Y172.8668 F7200 ; Move to start next pattern wall
G1 Z0.9 F7200 ; Z hop return
G1 E0.7 F2100 ; Un-retract
G1 X197.1273 Y194.08 E2.2391 F6000 ; Print pattern wall
G1 X175.9141 Y215.2932 E2.2391 F6000 ; Print pattern wall
G1 E-0.7 F2100 ; Retract
G1 Z1 F7200 ; Z hop
G0 X176.7776 Y172.8668 F7200 ; Move to start next pattern wall
G1 Z0.9 F7200 ; Z hop return
G1 E0.7 F2100 ; Un-retract
G1 X197.9908 Y194.08 E2.2391 F6000 ; Print pattern wall
G1 X176.7776 Y215.2932 E2.2391 F6000 ; Print pattern wall
G1 E-0.7 F2100 ; Retract
G1 Z1 F7200 ; Z hop
G0 X179.4526 Y172.8668 F7200 ; Move to next pattern
G1 Z0.9 F7200 ; Z hop return
G1 E0.7 F2100 ; Un-retract
SET_PRESSURE_ADVANCE ADVANCE=0.03 ; Set pressure advance
M117 PA 0.03
G1 X200.6658 Y194.08 E2.2391 F6000 ; Print pattern wall
G1 X179.4526 Y215.2932 E2.2391 F6000 ; Print pattern wall
G1 E-0.7 F2100 ; Retract
G1 Z1 F7200 ; Z hop
G0 X180.3162 Y172.8668 F7200 ; Move to start next pattern wall
G1 Z0.9 F7200 ; Z hop return
G1 E0.7 F2100 ; Un-retract
G1 X201.5294 Y194.08 E2.2391 F6000 ; Print pattern wall
G1 X180.3162 Y215.2932 E2.2391 F6000 ; Print pattern wall
G1 E-0.7 F2100 ; Retract
G1 Z1 F7200 ; Z hop
G0 X181.1797 Y172.8668 F7200 ; Move to start next pattern wall
G1 Z0.9 F7200 ; Z hop return
G1 E0.7 F2100 ; Un-retract
G1 X202.3929 Y194.08 E2.2391 F6000 ; Print pattern wall
G1 X181.1797 Y215.2932 E2.2391 F6000 ; Print pattern wall
G1 E-0.7 F2100 ; Retract
G1 Z1 F7200 ; Z hop
G0 X183.8547 Y172.8668 F7200 ; Move to next pattern
G1 Z0.9 F7200 ; Z hop return
G1 E0.7 F2100 ; Un-retract
SET_PRESSURE_ADVANCE ADVANCE=0.035 ; Set pressure advance
M117 PA 0.035
G1 X205.0679 Y194.08 E2.2391 F6000 ; Print pattern wall
G1 X183.8547 Y215.2932 E2.2391 F6000 ; Print pattern wall
G1 E-0.7 F2100 ; Retract
G1 Z1 F7200 ; Z hop
G0 X184.7183 Y172.8668 F7200 ; Move to start next pattern wall
G1 Z0.9 F7200 ; Z hop return
G1 E0.7 F2100 ; Un-retract
G1 X205.9315 Y194.08 E2.2391 F6000 ; Print pattern wall
G1 X184.7183 Y215.2932 E2.2391 F6000 ; Print pattern wall
G1 E-0.7 F2100 ; Retract
G1 Z1 F7200 ; Z hop
G0 X185.5818 Y172.8668 F7200 ; Move to start next pattern wall
G1 Z0.9 F7200 ; Z hop return
G1 E0.7 F2100 ; Un-retract
G1 X206.795 Y194.08 E2.2391 F6000 ; Print pattern wall
G1 X185.5818 Y215.2932 E2.2391 F6000 ; Print pattern wall
G1 E-0.7 F2100 ; Retract
G1 Z1 F7200 ; Z hop
G0 X188.2568 Y172.8668 F7200 ; Move to next pattern
G1 Z0.9 F7200 ; Z hop return
G1 E0.7 F2100 ; Un-retract
SET_PRESSURE_ADVANCE ADVANCE=0.04 ; Set pressure advance
M117 PA 0.04
G1 X209.47 Y194.08 E2.2391 F6000 ; Print pattern wall
G1 X188.2568 Y215.2932 E2.2391 F6000 ; Print pattern wall
G1 E-0.7 F2100 ; Retract
G1 Z1 F7200 ; Z hop
G0 X189.1204 Y172.8668 F7200 ; Move to start next pattern wall
G1 Z0.9 F7200 ; Z hop return
G1 E0.7 F2100 ; Un-retract
G1 X210.3336 Y194.08 E2.2391 F6000 ; Print pattern wall
G1 X189.1204 Y215.2932 E2.2391 F6000 ; Print pattern wall
G1 E-0.7 F2100 ; Retract
G1 Z1 F7200 ; Z hop
G0 X189.9839 Y172.8668 F7200 ; Move to start next pattern wall
G1 Z0.9 F7200 ; Z hop return
G1 E0.7 F2100 ; Un-retract
G1 X211.1971 Y194.08 E2.2391 F6000 ; Print pattern wall
G1 X189.9839 Y215.2932 E2.2391 F6000 ; Print pattern wall
G1 E-0.7 F2100 ; Retract
G1 Z1 F7200 ; Z hop
G0 X192.6589 Y172.8668 F7200 ; Move to next pattern
G1 Z0.9 F7200 ; Z hop return
G1 E0.7 F2100 ; Un-retract
SET_PRESSURE_ADVANCE ADVANCE=0.045 ; Set pressure advance
M117 PA 0.045
G1 X213.8721 Y194.08 E2.2391 F6000 ; Print pattern wall
G1 X192.6589 Y215.2932 E2.2391 F6000 ; Print pattern wall
G1 E-0.7 F2100 ; Retract
G1 Z1 F7200 ; Z hop
G0 X193.5225 Y172.8668 F7200 ; Move to start next pattern wall
G1 Z0.9 F7200 ; Z hop return
G1 E0.7 F2100 ; Un-retract
G1 X214.7357 Y194.08 E2.2391 F6000 ; Print pattern wall
G1 X193.5225 Y215.2932 E2.2391 F6000 ; Print pattern wall
G1 E-0.7 F2100 ; Retract
G1 Z1 F7200 ; Z hop
G0 X194.386 Y172.8668 F7200 ; Move to start next pattern wall
G1 Z0.9 F7200 ; Z hop return
G1 E0.7 F2100 ; Un-retract
G1 X215.5992 Y194.08 E2.2391 F6000 ; Print pattern wall
G1 X194.386 Y215.2932 E2.2391 F6000 ; Print pattern wall
G1 E-0.7 F2100 ; Retract
G1 Z1 F7200 ; Z hop
G0 X197.061 Y172.8668 F7200 ; Move to next pattern
G1 Z0.9 F7200 ; Z hop return
G1 E0.7 F2100 ; Un-retract
SET_PRESSURE_ADVANCE ADVANCE=0.05 ; Set pressure advance
M117 PA 0.05
G1 X218.2742 Y194.08 E2.2391 F6000 ; Print pattern wall
G1 X197.061 Y215.2932 E2.2391 F6000 ; Print pattern wall
G1 E-0.7 F2100 ; Retract
G1 Z1 F7200 ; Z hop
G0 X197.9246 Y172.8668 F7200 ; Move to start next pattern wall
G1 Z0.9 F7200 ; Z hop return
G1 E0.7 F2100 ; Un-retract
G1 X219.1378 Y194.08 E2.2391 F6000 ; Print pattern wall
G1 X197.9246 Y215.2932 E2.2391 F6000 ; Print pattern wall
G1 E-0.7 F2100 ; Retract
G1 Z1 F7200 ; Z hop
G0 X198.7881 Y172.8668 F7200 ; Move to start next pattern wall
G1 Z0.9 F7200 ; Z hop return
G1 E0.7 F2100 ; Un-retract
G1 X220.0013 Y194.08 E2.2391 F6000 ; Print pattern wall
G1 X198.7881 Y215.2932 E2.2391 F6000 ; Print pattern wall
G1 E-0.7 F2100 ; Retract
G1 Z1 F7200 ; Z hop
G0 X201.4631 Y172.8668 F7200 ; Move to next pattern
G1 Z0.9 F7200 ; Z hop return
G1 E0.7 F2100 ; Un-retract
SET_PRESSURE_ADVANCE ADVANCE=0.055 ; Set pressure advance
M117 PA 0.055
G1 X222.6763 Y194.08 E2.2391 F6000 ; Print pattern wall
G1 X201.4631 Y215.2932 E2.2391 F6000 ; Print pattern wall
G1 E-0.7 F2100 ; Retract
G1 Z1 F7200 ; Z hop
G0 X202.3267 Y172.8668 F7200 ; Move to start next pattern wall
G1 Z0.9 F7200 ; Z hop return
G1 E0.7 F2100 ; Un-retract
G1 X223.5399 Y194.08 E2.2391 F6000 ; Print pattern wall
G1 X202.3267 Y215.2932 E2.2391 F6000 ; Print pattern wall
G1 E-0.7 F2100 ; Retract
G1 Z1 F7200 ; Z hop
G0 X203.1902 Y172.8668 F7200 ; Move to start next pattern wall
G1 Z0.9 F7200 ; Z hop return
G1 E0.7 F2100 ; Un-retract
G1 X224.4034 Y194.08 E2.2391 F6000 ; Print pattern wall
G1 X203.1902 Y215.2932 E2.2391 F6000 ; Print pattern wall
G1 E-0.7 F2100 ; Retract
G1 Z1 F7200 ; Z hop
G0 X205.8652 Y172.8668 F7200 ; Move to next pattern
G1 Z0.9 F7200 ; Z hop return
G1 E0.7 F2100 ; Un-retract
SET_PRESSURE_ADVANCE ADVANCE=0.06 ; Set pressure advance
M117 PA 0.06
G1 X227.0784 Y194.08 E2.2391 F6000 ; Print pattern wall
G1 X205.8652 Y215.2932 E2.2391 F6000 ; Print pattern wall
G1 E-0.7 F2100 ; Retract
G1 Z1 F7200 ; Z hop
G0 X206.7287 Y172.8668 F7200 ; Move to start next pattern wall
G1 Z0.9 F7200 ; Z hop return
G1 E0.7 F2100 ; Un-retract
G1 X227.9419 Y194.08 E2.2391 F6000 ; Print pattern wall
G1 X206.7287 Y215.2932 E2.2391 F6000 ; Print pattern wall
G1 E-0.7 F2100 ; Retract
G1 Z1 F7200 ; Z hop
G0 X207.5923 Y172.8668 F7200 ; Move to start next pattern wall
G1 Z0.9 F7200 ; Z hop return
G1 E0.7 F2100 ; Un-retract
G1 X228.8055 Y194.08 E2.2391 F6000 ; Print pattern wall
G1 X207.5923 Y215.2932 E2.2391 F6000 ; Print pattern wall
G1 E-0.7 F2100 ; Retract
G1 Z1 F7200 ; Z hop
G0 X210.2673 Y172.8668 F7200 ; Move to next pattern
G1 Z0.9 F7200 ; Z hop return
G1 E0.7 F2100 ; Un-retract
SET_PRESSURE_ADVANCE ADVANCE=0.065 ; Set pressure advance
M117 PA 0.065
G1 X231.4805 Y194.08 E2.2391 F6000 ; Print pattern wall
G1 X210.2673 Y215.2932 E2.2391 F6000 ; Print pattern wall
G1 E-0.7 F2100 ; Retract
G1 Z1 F7200 ; Z hop
G0 X211.1308 Y172.8668 F7200 ; Move to start next pattern wall
G1 Z0.9 F7200 ; Z hop return
G1 E0.7 F2100 ; Un-retract
G1 X232.344 Y194.08 E2.2391 F6000 ; Print pattern wall
G1 X211.1308 Y215.2932 E2.2391 F6000 ; Print pattern wall
G1 E-0.7 F2100 ; Retract
G1 Z1 F7200 ; Z hop
G0 X211.9944 Y172.8668 F7200 ; Move to start next pattern wall
G1 Z0.9 F7200 ; Z hop return
G1 E0.7 F2100 ; Un-retract
G1 X233.2076 Y194.08 E2.2391 F6000 ; Print pattern wall
G1 X211.9944 Y215.2932 E2.2391 F6000 ; Print pattern wall
G1 E-0.7 F2100 ; Retract
G1 Z1 F7200 ; Z hop
G0 X214.6694 Y172.8668 F7200 ; Move to next pattern
G1 Z0.9 F7200 ; Z hop return
G1 E0.7 F2100 ; Un-retract
SET_PRESSURE_ADVANCE ADVANCE=0.07 ; Set pressure advance
M117 PA 0.07
G1 X235.8826 Y194.08 E2.2391 F6000 ; Print pattern wall
G1 X214.6694 Y215.2932 E2.2391 F6000 ; Print pattern wall
G1 E-0.7 F2100 ; Retract
G1 Z1 F7200 ; Z hop
G0 X215.5329 Y172.8668 F7200 ; Move to start next pattern wall
G1 Z0.9 F7200 ; Z hop return
G1 E0.7 F2100 ; Un-retract
G1 X236.7461 Y194.08 E2.2391 F6000 ; Print pattern wall
G1 X215.5329 Y215.2932 E2.2391 F6000 ; Print pattern wall
G1 E-0.7 F2100 ; Retract
G1 Z1 F7200 ; Z hop
G0 X216.3965 Y172.8668 F7200 ; Move to start next pattern wall
G1 Z0.9 F7200 ; Z hop return
G1 E0.7 F2100 ; Un-retract
G1 X237.6097 Y194.08 E2.2391 F6000 ; Print pattern wall
G1 X216.3965 Y215.2932 E2.2391 F6000 ; Print pattern wall
G1 E-0.7 F2100 ; Retract
G1 Z1 F7200 ; Z hop
G0 X219.0715 Y172.8668 F7200 ; Move to next pattern
G1 Z0.9 F7200 ; Z hop return
G1 E0.7 F2100 ; Un-retract
SET_PRESSURE_ADVANCE ADVANCE=0.075 ; Set pressure advance
M117 PA 0.075
G1 X240.2847 Y194.08 E2.2391 F6000 ; Print pattern wall
G1 X219.0715 Y215.2932 E2.2391 F6000 ; Print pattern wall
G1 E-0.7 F2100 ; Retract
G1 Z1 F7200 ; Z hop
G0 X219.935 Y172.8668 F7200 ; Move to start next pattern wall
G1 Z0.9 F7200 ; Z hop return
G1 E0.7 F2100 ; Un-retract
G1 X241.1482 Y194.08 E2.2391 F6000 ; Print pattern wall
G1 X219.935 Y215.2932 E2.2391 F6000 ; Print pattern wall
G1 E-0.7 F2100 ; Retract
G1 Z1 F7200 ; Z hop
G0 X220.7986 Y172.8668 F7200 ; Move to start next pattern wall
G1 Z0.9 F7200 ; Z hop return
G1 E0.7 F2100 ; Un-retract
G1 X242.0118 Y194.08 E2.2391 F6000 ; Print pattern wall
G1 X220.7986 Y215.2932 E2.2391 F6000 ; Print pattern wall
G1 E-0.7 F2100 ; Retract
G1 Z1 F7200 ; Z hop
G0 X223.4736 Y172.8668 F7200 ; Move to next pattern
G1 Z0.9 F7200 ; Z hop return
G1 E0.7 F2100 ; Un-retract
SET_PRESSURE_ADVANCE ADVANCE=0.08 ; Set pressure advance
M117 PA 0.08
G1 X244.6868 Y194.08 E2.2391 F6000 ; Print pattern wall
G1 X223.4736 Y215.2932 E2.2391 F6000 ; Print pattern wall
G1 E-0.7 F2100 ; Retract
G1 Z1 F7200 ; Z hop
G0 X224.3371 Y172.8668 F7200 ; Move to start next pattern wall
G1 Z0.9 F7200 ; Z hop return
G1 E0.7 F2100 ; Un-retract
G1 X245.5503 Y194.08 E2.2391 F6000 ; Print pattern wall
G1 X224.3371 Y215.2932 E2.2391 F6000 ; Print pattern wall
G1 E-0.7 F2100 ; Retract
G1 Z1 F7200 ; Z hop
G0 X225.2007 Y172.8668 F7200 ; Move to start next pattern wall
G1 Z0.9 F7200 ; Z hop return
G1 E0.7 F2100 ; Un-retract
G1 X246.4139 Y194.08 E2.2391 F6000 ; Print pattern wall
G1 X225.2007 Y215.2932 E2.2391 F6000 ; Print pattern wall
G1 E-0.7 F2100 ; Retract
G1 Z1 F7200 ; Z hop
G0 X153.0401 Y172.8668 F7200 ; Move back to start position
G1 Z0.9 F7200 ; Z hop return
G1 E0.7 F2100 ; Un-retract
G0 Z1.2 F7200 ; Move to layer height
SET_PRESSURE_ADVANCE ADVANCE=0 ; Set pressure advance
M117 PA 0
G1 X174.2533 Y194.08 E2.2391 F6000 ; Print pattern wall
G1 X153.0401 Y215.2932 E2.2391 F6000 ; Print pattern wall
G1 E-0.7 F2100 ; Retract
G1 Z1.3 F7200 ; Z hop
G0 X153.9036 Y172.8668 F7200 ; Move to start next pattern wall
G1 Z1.2 F7200 ; Z hop return
G1 E0.7 F2100 ; Un-retract
G1 X175.1168 Y194.08 E2.2391 F6000 ; Print pattern wall
G1 X153.9036 Y215.2932 E2.2391 F6000 ; Print pattern wall
G1 E-0.7 F2100 ; Retract
G1 Z1.3 F7200 ; Z hop
G0 X154.7672 Y172.8668 F7200 ; Move to start next pattern wall
G1 Z1.2 F7200 ; Z hop return
G1 E0.7 F2100 ; Un-retract
G1 X175.9804 Y194.08 E2.2391 F6000 ; Print pattern wall
G1 X154.7672 Y215.2932 E2.2391 F6000 ; Print pattern wall
G1 E-0.7 F2100 ; Retract
G1 Z1.3 F7200 ; Z hop
G0 X157.4422 Y172.8668 F7200 ; Move to next pattern
G1 Z1.2 F7200 ; Z hop return
G1 E0.7 F2100 ; Un-retract
SET_PRESSURE_ADVANCE ADVANCE=0.005 ; Set pressure advance
M117 PA 0.005
G1 X178.6554 Y194.08 E2.2391 F6000 ; Print pattern wall
G1 X157.4422 Y215.2932 E2.2391 F6000 ; Print pattern wall
G1 E-0.7 F2100 ; Retract
G1 Z1.3 F7200 ; Z hop
G0 X158.3057 Y172.8668 F7200 ; Move to start next pattern wall
G1 Z1.2 F7200 ; Z hop return
G1 E0.7 F2100 ; Un-retract
G1 X179.5189 Y194.08 E2.2391 F6000 ; Print pattern wall
G1 X158.3057 Y215.2932 E2.2391 F6000 ; Print pattern wall
G1 E-0.7 F2100 ; Retract
G1 Z1.3 F7200 ; Z hop
G0 X159.1693 Y172.8668 F7200 ; Move to start next pattern wall
G1 Z1.2 F7200 ; Z hop return
G1 E0.7 F2100 ; Un-retract
G1 X180.3825 Y194.08 E2.2391 F6000 ; Print pattern wall
G1 X159.1693 Y215.2932 E2.2391 F6000 ; Print pattern wall
G1 E-0.7 F2100 ; Retract
G1 Z1.3 F7200 ; Z hop
G0 X161.8443 Y172.8668 F7200 ; Move to next pattern
G1 Z1.2 F7200 ; Z hop return
G1 E0.7 F2100 ; Un-retract
SET_PRESSURE_ADVANCE ADVANCE=0.01 ; Set pressure advance
M117 PA 0.01
G1 X183.0575 Y194.08 E2.2391 F6000 ; Print pattern wall
G1 X161.8443 Y215.2932 E2.2391 F6000 ; Print pattern wall
G1 E-0.7 F2100 ; Retract
G1 Z1.3 F7200 ; Z hop
G0 X162.7078 Y172.8668 F7200 ; Move to start next pattern wall
G1 Z1.2 F7200 ; Z hop return
G1 E0.7 F2100 ; Un-retract
G1 X183.921 Y194.08 E2.2391 F6000 ; Print pattern wall
G1 X162.7078 Y215.2932 E2.2391 F6000 ; Print pattern wall
G1 E-0.7 F2100 ; Retract
G1 Z1.3 F7200 ; Z hop
G0 X163.5714 Y172.8668 F7200 ; Move to start next pattern wall
G1 Z1.2 F7200 ; Z hop return
G1 E0.7 F2100 ; Un-retract
G1 X184.7846 Y194.08 E2.2391 F6000 ; Print pattern wall
G1 X163.5714 Y215.2932 E2.2391 F6000 ; Print pattern wall
G1 E-0.7 F2100 ; Retract
G1 Z1.3 F7200 ; Z hop
G0 X166.2464 Y172.8668 F7200 ; Move to next pattern
G1 Z1.2 F7200 ; Z hop return
G1 E0.7 F2100 ; Un-retract
SET_PRESSURE_ADVANCE ADVANCE=0.015 ; Set pressure advance
M117 PA 0.015
G1 X187.4596 Y194.08 E2.2391 F6000 ; Print pattern wall
G1 X166.2464 Y215.2932 E2.2391 F6000 ; Print pattern wall
G1 E-0.7 F2100 ; Retract
G1 Z1.3 F7200 ; Z hop
G0 X167.1099 Y172.8668 F7200 ; Move to start next pattern wall
G1 Z1.2 F7200 ; Z hop return
G1 E0.7 F2100 ; Un-retract
G1 X188.3231 Y194.08 E2.2391 F6000 ; Print pattern wall
G1 X167.1099 Y215.2932 E2.2391 F6000 ; Print pattern wall
G1 E-0.7 F2100 ; Retract
G1 Z1.3 F7200 ; Z hop
G0 X167.9735 Y172.8668 F7200 ; Move to start next pattern wall
G1 Z1.2 F7200 ; Z hop return
G1 E0.7 F2100 ; Un-retract
G1 X189.1867 Y194.08 E2.2391 F6000 ; Print pattern wall
G1 X167.9735 Y215.2932 E2.2391 F6000 ; Print pattern wall
G1 E-0.7 F2100 ; Retract
G1 Z1.3 F7200 ; Z hop
G0 X170.6485 Y172.8668 F7200 ; Move to next pattern
G1 Z1.2 F7200 ; Z hop return
G1 E0.7 F2100 ; Un-retract
SET_PRESSURE_ADVANCE ADVANCE=0.02 ; Set pressure advance
M117 PA 0.02
G1 X191.8617 Y194.08 E2.2391 F6000 ; Print pattern wall
G1 X170.6485 Y215.2932 E2.2391 F6000 ; Print pattern wall
G1 E-0.7 F2100 ; Retract
G1 Z1.3 F7200 ; Z hop
G0 X171.512 Y172.8668 F7200 ; Move to start next pattern wall
G1 Z1.2 F7200 ; Z hop return
G1 E0.7 F2100 ; Un-retract
G1 X192.7252 Y194.08 E2.2391 F6000 ; Print pattern wall
G1 X171.512 Y215.2932 E2.2391 F6000 ; Print pattern wall
G1 E-0.7 F2100 ; Retract
G1 Z1.3 F7200 ; Z hop
G0 X172.3756 Y172.8668 F7200 ; Move to start next pattern wall
G1 Z1.2 F7200 ; Z hop return
G1 E0.7 F2100 ; Un-retract
G1 X193.5888 Y194.08 E2.2391 F6000 ; Print pattern wall
G1 X172.3756 Y215.2932 E2.2391 F6000 ; Print pattern wall
G1 E-0.7 F2100 ; Retract
G1 Z1.3 F7200 ; Z hop
G0 X175.0506 Y172.8668 F7200 ; Move to next pattern
G1 Z1.2 F7200 ; Z hop return
G1 E0.7 F2100 ; Un-retract
SET_PRESSURE_ADVANCE ADVANCE=0.025 ; Set pressure advance
M117 PA 0.025
G1 X196.2638 Y194.08 E2.2391 F6000 ; Print pattern wall
G1 X175.0506 Y215.2932 E2.2391 F6000 ; Print pattern wall
G1 E-0.7 F2100 ; Retract
G1 Z1.3 F7200 ; Z hop
G0 X175.9141 Y172.8668 F7200 ; Move to start next pattern wall
G1 Z1.2 F7200 ; Z hop return
G1 E0.7 F2100 ; Un-retract
G1 X197.1273 Y194.08 E2.2391 F6000 ; Print pattern wall
G1 X175.9141 Y215.2932 E2.2391 F6000 ; Print pattern wall
G1 E-0.7 F2100 ; Retract
G1 Z1.3 F7200 ; Z hop
G0 X176.7776 Y172.8668 F7200 ; Move to start next pattern wall
G1 Z1.2 F7200 ; Z hop return
G1 E0.7 F2100 ; Un-retract
G1 X197.9908 Y194.08 E2.2391 F6000 ; Print pattern wall
G1 X176.7776 Y215.2932 E2.2391 F6000 ; Print pattern wall
G1 E-0.7 F2100 ; Retract
G1 Z1.3 F7200 ; Z hop
G0 X179.4526 Y172.8668 F7200 ; Move to next pattern
G1 Z1.2 F7200 ; Z hop return
G1 E0.7 F2100 ; Un-retract
SET_PRESSURE_ADVANCE ADVANCE=0.03 ; Set pressure advance
M117 PA 0.03
G1 X200.6658 Y194.08 E2.2391 F6000 ; Print pattern wall
G1 X179.4526 Y215.2932 E2.2391 F6000 ; Print pattern wall
G1 E-0.7 F2100 ; Retract
G1 Z1.3 F7200 ; Z hop
G0 X180.3162 Y172.8668 F7200 ; Move to start next pattern wall
G1 Z1.2 F7200 ; Z hop return
G1 E0.7 F2100 ; Un-retract
G1 X201.5294 Y194.08 E2.2391 F6000 ; Print pattern wall
G1 X180.3162 Y215.2932 E2.2391 F6000 ; Print pattern wall
G1 E-0.7 F2100 ; Retract
G1 Z1.3 F7200 ; Z hop
G0 X181.1797 Y172.8668 F7200 ; Move to start next pattern wall
G1 Z1.2 F7200 ; Z hop return
G1 E0.7 F2100 ; Un-retract
G1 X202.3929 Y194.08 E2.2391 F6000 ; Print pattern wall
G1 X181.1797 Y215.2932 E2.2391 F6000 ; Print pattern wall
G1 E-0.7 F2100 ; Retract
G1 Z1.3 F7200 ; Z hop
G0 X183.8547 Y172.8668 F7200 ; Move to next pattern
G1 Z1.2 F7200 ; Z hop return
G1 E0.7 F2100 ; Un-retract
SET_PRESSURE_ADVANCE ADVANCE=0.035 ; Set pressure advance
M117 PA 0.035
G1 X205.0679 Y194.08 E2.2391 F6000 ; Print pattern wall
G1 X183.8547 Y215.2932 E2.2391 F6000 ; Print pattern wall
G1 E-0.7 F2100 ; Retract
G1 Z1.3 F7200 ; Z hop
G0 X184.7183 Y172.8668 F7200 ; Move to start next pattern wall
G1 Z1.2 F7200 ; Z hop return
G1 E0.7 F2100 ; Un-retract
G1 X205.9315 Y194.08 E2.2391 F6000 ; Print pattern wall
G1 X184.7183 Y215.2932 E2.2391 F6000 ; Print pattern wall
G1 E-0.7 F2100 ; Retract
G1 Z1.3 F7200 ; Z hop
G0 X185.5818 Y172.8668 F7200 ; Move to start next pattern wall
G1 Z1.2 F7200 ; Z hop return
G1 E0.7 F2100 ; Un-retract
G1 X206.795 Y194.08 E2.2391 F6000 ; Print pattern wall
G1 X185.5818 Y215.2932 E2.2391 F6000 ; Print pattern wall
G1 E-0.7 F2100 ; Retract
G1 Z1.3 F7200 ; Z hop
G0 X188.2568 Y172.8668 F7200 ; Move to next pattern
G1 Z1.2 F7200 ; Z hop return
G1 E0.7 F2100 ; Un-retract
SET_PRESSURE_ADVANCE ADVANCE=0.04 ; Set pressure advance
M117 PA 0.04
G1 X209.47 Y194.08 E2.2391 F6000 ; Print pattern wall
G1 X188.2568 Y215.2932 E2.2391 F6000 ; Print pattern wall
G1 E-0.7 F2100 ; Retract
G1 Z1.3 F7200 ; Z hop
G0 X189.1204 Y172.8668 F7200 ; Move to start next pattern wall
G1 Z1.2 F7200 ; Z hop return
G1 E0.7 F2100 ; Un-retract
G1 X210.3336 Y194.08 E2.2391 F6000 ; Print pattern wall
G1 X189.1204 Y215.2932 E2.2391 F6000 ; Print pattern wall
G1 E-0.7 F2100 ; Retract
G1 Z1.3 F7200 ; Z hop
G0 X189.9839 Y172.8668 F7200 ; Move to start next pattern wall
G1 Z1.2 F7200 ; Z hop return
G1 E0.7 F2100 ; Un-retract
G1 X211.1971 Y194.08 E2.2391 F6000 ; Print pattern wall
G1 X189.9839 Y215.2932 E2.2391 F6000 ; Print pattern wall
G1 E-0.7 F2100 ; Retract
G1 Z1.3 F7200 ; Z hop
G0 X192.6589 Y172.8668 F7200 ; Move to next pattern
G1 Z1.2 F7200 ; Z hop return
G1 E0.7 F2100 ; Un-retract
SET_PRESSURE_ADVANCE ADVANCE=0.045 ; Set pressure advance
M117 PA 0.045
G1 X213.8721 Y194.08 E2.2391 F6000 ; Print pattern wall
G1 X192.6589 Y215.2932 E2.2391 F6000 ; Print pattern wall
G1 E-0.7 F2100 ; Retract
G1 Z1.3 F7200 ; Z hop
G0 X193.5225 Y172.8668 F7200 ; Move to start next pattern wall
G1 Z1.2 F7200 ; Z hop return
G1 E0.7 F2100 ; Un-retract
G1 X214.7357 Y194.08 E2.2391 F6000 ; Print pattern wall
G1 X193.5225 Y215.2932 E2.2391 F6000 ; Print pattern wall
G1 E-0.7 F2100 ; Retract
G1 Z1.3 F7200 ; Z hop
G0 X194.386 Y172.8668 F7200 ; Move to start next pattern wall
G1 Z1.2 F7200 ; Z hop return
G1 E0.7 F2100 ; Un-retract
G1 X215.5992 Y194.08 E2.2391 F6000 ; Print pattern wall
G1 X194.386 Y215.2932 E2.2391 F6000 ; Print pattern wall
G1 E-0.7 F2100 ; Retract
G1 Z1.3 F7200 ; Z hop
G0 X197.061 Y172.8668 F7200 ; Move to next pattern
G1 Z1.2 F7200 ; Z hop return
G1 E0.7 F2100 ; Un-retract
SET_PRESSURE_ADVANCE ADVANCE=0.05 ; Set pressure advance
M117 PA 0.05
G1 X218.2742 Y194.08 E2.2391 F6000 ; Print pattern wall
G1 X197.061 Y215.2932 E2.2391 F6000 ; Print pattern wall
G1 E-0.7 F2100 ; Retract
G1 Z1.3 F7200 ; Z hop
G0 X197.9246 Y172.8668 F7200 ; Move to start next pattern wall
G1 Z1.2 F7200 ; Z hop return
G1 E0.7 F2100 ; Un-retract
G1 X219.1378 Y194.08 E2.2391 F6000 ; Print pattern wall
G1 X197.9246 Y215.2932 E2.2391 F6000 ; Print pattern wall
G1 E-0.7 F2100 ; Retract
G1 Z1.3 F7200 ; Z hop
G0 X198.7881 Y172.8668 F7200 ; Move to start next pattern wall
G1 Z1.2 F7200 ; Z hop return
G1 E0.7 F2100 ; Un-retract
G1 X220.0013 Y194.08 E2.2391 F6000 ; Print pattern wall
G1 X198.7881 Y215.2932 E2.2391 F6000 ; Print pattern wall
G1 E-0.7 F2100 ; Retract
G1 Z1.3 F7200 ; Z hop
G0 X201.4631 Y172.8668 F7200 ; Move to next pattern
G1 Z1.2 F7200 ; Z hop return
G1 E0.7 F2100 ; Un-retract
SET_PRESSURE_ADVANCE ADVANCE=0.055 ; Set pressure advance
M117 PA 0.055
G1 X222.6763 Y194.08 E2.2391 F6000 ; Print pattern wall
G1 X201.4631 Y215.2932 E2.2391 F6000 ; Print pattern wall
G1 E-0.7 F2100 ; Retract
G1 Z1.3 F7200 ; Z hop
G0 X202.3267 Y172.8668 F7200 ; Move to start next pattern wall
G1 Z1.2 F7200 ; Z hop return
G1 E0.7 F2100 ; Un-retract
G1 X223.5399 Y194.08 E2.2391 F6000 ; Print pattern wall
G1 X202.3267 Y215.2932 E2.2391 F6000 ; Print pattern wall
G1 E-0.7 F2100 ; Retract
G1 Z1.3 F7200 ; Z hop
G0 X203.1902 Y172.8668 F7200 ; Move to start next pattern wall
G1 Z1.2 F7200 ; Z hop return
G1 E0.7 F2100 ; Un-retract
G1 X224.4034 Y194.08 E2.2391 F6000 ; Print pattern wall
G1 X203.1902 Y215.2932 E2.2391 F6000 ; Print pattern wall
G1 E-0.7 F2100 ; Retract
G1 Z1.3 F7200 ; Z hop
G0 X205.8652 Y172.8668 F7200 ; Move to next pattern
G1 Z1.2 F7200 ; Z hop return
G1 E0.7 F2100 ; Un-retract
SET_PRESSURE_ADVANCE ADVANCE=0.06 ; Set pressure advance
M117 PA 0.06
G1 X227.0784 Y194.08 E2.2391 F6000 ; Print pattern wall
G1 X205.8652 Y215.2932 E2.2391 F6000 ; Print pattern wall
G1 E-0.7 F2100 ; Retract
G1 Z1.3 F7200 ; Z hop
G0 X206.7287 Y172.8668 F7200 ; Move to start next pattern wall
G1 Z1.2 F7200 ; Z hop return
G1 E0.7 F2100 ; Un-retract
G1 X227.9419 Y194.08 E2.2391 F6000 ; Print pattern wall
G1 X206.7287 Y215.2932 E2.2391 F6000 ; Print pattern wall
G1 E-0.7 F2100 ; Retract
G1 Z1.3 F7200 ; Z hop
G0 X207.5923 Y172.8668 F7200 ; Move to start next pattern wall
G1 Z1.2 F7200 ; Z hop return
G1 E0.7 F2100 ; Un-retract
G1 X228.8055 Y194.08 E2.2391 F6000 ; Print pattern wall
G1 X207.5923 Y215.2932 E2.2391 F6000 ; Print pattern wall
G1 E-0.7 F2100 ; Retract
G1 Z1.3 F7200 ; Z hop
G0 X210.2673 Y172.8668 F7200 ; Move to next pattern
G1 Z1.2 F7200 ; Z hop return
G1 E0.7 F2100 ; Un-retract
SET_PRESSURE_ADVANCE ADVANCE=0.065 ; Set pressure advance
M117 PA 0.065
G1 X231.4805 Y194.08 E2.2391 F6000 ; Print pattern wall
G1 X210.2673 Y215.2932 E2.2391 F6000 ; Print pattern wall
G1 E-0.7 F2100 ; Retract
G1 Z1.3 F7200 ; Z hop
G0 X211.1308 Y172.8668 F7200 ; Move to start next pattern wall
G1 Z1.2 F7200 ; Z hop return
G1 E0.7 F2100 ; Un-retract
G1 X232.344 Y194.08 E2.2391 F6000 ; Print pattern wall
G1 X211.1308 Y215.2932 E2.2391 F6000 ; Print pattern wall
G1 E-0.7 F2100 ; Retract
G1 Z1.3 F7200 ; Z hop
G0 X211.9944 Y172.8668 F7200 ; Move to start next pattern wall
G1 Z1.2 F7200 ; Z hop return
G1 E0.7 F2100 ; Un-retract
G1 X233.2076 Y194.08 E2.2391 F6000 ; Print pattern wall
G1 X211.9944 Y215.2932 E2.2391 F6000 ; Print pattern wall
G1 E-0.7 F2100 ; Retract
G1 Z1.3 F7200 ; Z hop
G0 X214.6694 Y172.8668 F7200 ; Move to next pattern
G1 Z1.2 F7200 ; Z hop return
G1 E0.7 F2100 ; Un-retract
SET_PRESSURE_ADVANCE ADVANCE=0.07 ; Set pressure advance
M117 PA 0.07
G1 X235.8826 Y194.08 E2.2391 F6000 ; Print pattern wall
G1 X214.6694 Y215.2932 E2.2391 F6000 ; Print pattern wall
G1 E-0.7 F2100 ; Retract
G1 Z1.3 F7200 ; Z hop
G0 X215.5329 Y172.8668 F7200 ; Move to start next pattern wall
G1 Z1.2 F7200 ; Z hop return
G1 E0.7 F2100 ; Un-retract
G1 X236.7461 Y194.08 E2.2391 F6000 ; Print pattern wall
G1 X215.5329 Y215.2932 E2.2391 F6000 ; Print pattern wall
G1 E-0.7 F2100 ; Retract
G1 Z1.3 F7200 ; Z hop
G0 X216.3965 Y172.8668 F7200 ; Move to start next pattern wall
G1 Z1.2 F7200 ; Z hop return
G1 E0.7 F2100 ; Un-retract
G1 X237.6097 Y194.08 E2.2391 F6000 ; Print pattern wall
G1 X216.3965 Y215.2932 E2.2391 F6000 ; Print pattern wall
G1 E-0.7 F2100 ; Retract
G1 Z1.3 F7200 ; Z hop
G0 X219.0715 Y172.8668 F7200 ; Move to next pattern
G1 Z1.2 F7200 ; Z hop return
G1 E0.7 F2100 ; Un-retract
SET_PRESSURE_ADVANCE ADVANCE=0.075 ; Set pressure advance
M117 PA 0.075
G1 X240.2847 Y194.08 E2.2391 F6000 ; Print pattern wall
G1 X219.0715 Y215.2932 E2.2391 F6000 ; Print pattern wall
G1 E-0.7 F2100 ; Retract
G1 Z1.3 F7200 ; Z hop
G0 X219.935 Y172.8668 F7200 ; Move to start next pattern wall
G1 Z1.2 F7200 ; Z hop return
G1 E0.7 F2100 ; Un-retract
G1 X241.1482 Y194.08 E2.2391 F6000 ; Print pattern wall
G1 X219.935 Y215.2932 E2.2391 F6000 ; Print pattern wall
G1 E-0.7 F2100 ; Retract
G1 Z1.3 F7200 ; Z hop
G0 X220.7986 Y172.8668 F7200 ; Move to start next pattern wall
G1 Z1.2 F7200 ; Z hop return
G1 E0.7 F2100 ; Un-retract
G1 X242.0118 Y194.08 E2.2391 F6000 ; Print pattern wall
G1 X220.7986 Y215.2932 E2.2391 F6000 ; Print pattern wall
G1 E-0.7 F2100 ; Retract
G1 Z1.3 F7200 ; Z hop
G0 X223.4736 Y172.8668 F7200 ; Move to next pattern
G1 Z1.2 F7200 ; Z hop return
G1 E0.7 F2100 ; Un-retract
SET_PRESSURE_ADVANCE ADVANCE=0.08 ; Set pressure advance
M117 PA 0.08
G1 X244.6868 Y194.08 E2.2391 F6000 ; Print pattern wall
G1 X223.4736 Y215.2932 E2.2391 F6000 ; Print pattern wall
G1 E-0.7 F2100 ; Retract
G1 Z1.3 F7200 ; Z hop
G0 X224.3371 Y172.8668 F7200 ; Move to start next pattern wall
G1 Z1.2 F7200 ; Z hop return
G1 E0.7 F2100 ; Un-retract
G1 X245.5503 Y194.08 E2.2391 F6000 ; Print pattern wall
G1 X224.3371 Y215.2932 E2.2391 F6000 ; Print pattern wall
G1 E-0.7 F2100 ; Retract
G1 Z1.3 F7200 ; Z hop
G0 X225.2007 Y172.8668 F7200 ; Move to start next pattern wall
G1 Z1.2 F7200 ; Z hop return
G1 E0.7 F2100 ; Un-retract
G1 X246.4139 Y194.08 E2.2391 F6000 ; Print pattern wall
G1 X225.2007 Y215.2932 E2.2391 F6000 ; Print pattern wall
SET_PRESSURE_ADVANCE ADVANCE=0 ; Set pressure advance back to start value
M117 PA 0
G1 E-0.7 F2100 ; Retract
G1 Z1.3 F7200 ; Z hop
G0 Z6.2 F7200 ; Z raise
M104 S0 ; Turn off hotend
M140 S0 ; Turn off bed
M107    ; Turn off fan
;
; End G-code
;
END_PRINT
;
; FINISH
;
