
; ### Ellis' Pressure Advance / Linear Advance Calibration Tool ###
;
; Original Marlin linear advance calibration tool by Sineos [https://github.com/Sineos]
; Heavily modified/rewritten by Andrew Ellis [https://github.com/AndrewEllis93]
;
; -------------------------------------------
; Generated: Wed Sep 20 2023 06:00:53 GMT-0400 (Eastern Daylight Time)
; -------------------------------------------
;
; Advanced Mode: false
;
; Printer:
;  - Firmware: klipper
;  - Bed Shape: Rect
;  - Bed Size X: 350 mm
;  - Bed Size Y: 350 mm
;  - Origin Bed Center: false
;  - Travel Speed: 100 mm/s
;  - Nozzle Diameter: 0.4 mm
;  - Filament Diameter: 1.75 mm
;  - Extrusion Multiplier: 0.98
;
; Retraction / Z Hop:
;  - Retraction Distance: 0.7 mm
;  - Retract Speed: 35 mm/s
;  - Unretract Speed: 35 mm/s
;  - Z Hop Enable: true
;  - Z Hop Height: 0.1mm
;
; First Layer Settings:
;  - First Layer Height: 0.2 mm
;  - First Layer Printing Speed: 30 mm/s
;  - First Layer Fan Speed: 0%
;  - Anchor Option: anchor_frame
;
; Print Settings:
;  - Layer Height: 0.2 mm
;  - Print Speed: 100 mm/s
;  - Acceleration: Disabled
;  - Fan Speed: 50%
;
; Pressure Advance Stepping:
;  - PA Start Value: 0.02
;  - PA End Value: 0.08
;  - PA Increment: 0.005
;
; Start / End G-code:
;  - Hotend Temp: 260C
;  - Bed Temp: 108C
;  - Don't Add G28: true
;  - Don't Add Heating G-Codes: true
;
; Calculated Values:
;  - Print Size X: 70.35 mm
;  - Print Size Y: 53.99 mm
;  - Number of Patterns to Print: 13
;  - PA Values: 0.02, 0.025, 0.03, 0.035, 0.04, 0.045, 0.05, 0.055, 0.06, 0.065, 0.07, 0.075, 0.08
;
; Prepare printing
;
START_PRINT EXTRUDER_TEMP=260 BED_TEMP=108
G21 ; Millimeter units
G90 ; Absolute XYZ
M83 ; Relative E
G92 E0 ; Reset extruder distance
;
;  Begin printing
;
M106 S0 ; Set fan speed
G1 E-0.7 F2100 ; Retract
G0 Z5 F6000 ; Z raise
G0 X139.823 Y148.0068 F6000 ; Move to start position
G0 Z0.2 F6000 ; Move to start layer height
G1 E0.7 F2100 ; Un-retract
SET_PRESSURE_ADVANCE ADVANCE=0.02 ; Set pressure advance to start value
M117 PA 0.02
G1 X139.823 Y190.4332 E1.78766 F1800 ; Draw perimeter (up)
G1 X210.177 Y190.4332 E2.96439 F1800 ; Draw perimeter (right)
G1 X210.177 Y148.0068 E1.78766 F1800 ; Draw perimeter (down)
G1 X139.823 Y148.0068 E2.96439 F1800 ; Draw perimeter (left)
G0 X140.3401 Y148.5239 F6000 ; Step inwards to print next perimeter
G1 X140.3401 Y189.9161 E1.74408 F1800 ; Draw perimeter (up)
G1 X209.6599 Y189.9161 E2.92082 F1800 ; Draw perimeter (right)
G1 X209.6599 Y148.5239 E1.74408 F1800 ; Draw perimeter (down)
G1 X140.3401 Y148.5239 E2.92082 F1800 ; Draw perimeter (left)
G0 X140.8572 Y149.041 F6000 ; Step inwards to print next perimeter
G1 X140.8572 Y189.399 E1.70051 F1800 ; Draw perimeter (up)
G1 X209.1428 Y189.399 E2.87724 F1800 ; Draw perimeter (right)
G1 X209.1428 Y149.041 E1.70051 F1800 ; Draw perimeter (down)
G1 X140.8572 Y149.041 E2.87724 F1800 ; Draw perimeter (left)
G0 X141.3743 Y149.558 F6000 ; Step inwards to print next perimeter
G1 X141.3743 Y188.882 E1.65693 F1800 ; Draw perimeter (up)
G1 X208.6257 Y188.882 E2.83367 F1800 ; Draw perimeter (right)
G1 X208.6257 Y149.558 E1.65693 F1800 ; Draw perimeter (down)
G1 X141.3743 Y149.558 E2.83367 F1800 ; Draw perimeter (left)
G1 E-0.7 F2100 ; Retract
G1 Z0.3 F6000 ; Z hop
G0 X139.823 Y190.9503 F6000 ; Move to box start
G1 Z0.2 F6000 ; Z hop return
G1 E0.7 F2100 ; Un-retract
G1 X139.823 Y202.4674 E0.48528 F1800 ; Draw perimeter (up)
G1 X189.6719 Y202.4674 E2.1004 F1800 ; Draw perimeter (right)
G1 X189.6719 Y190.9503 E0.48528 F1800 ; Draw perimeter (down)
G1 X139.823 Y190.9503 E2.1004 F1800 ; Draw perimeter (left)
G0 X140.3401 Y191.4674 F6000 ; Step inwards to print next perimeter
G1 X140.3401 Y201.9503 E0.4417 F1800 ; Draw perimeter (up)
G1 X189.1549 Y201.9503 E2.05683 F1800 ; Draw perimeter (right)
G1 X189.1549 Y191.4674 E0.4417 F1800 ; Draw perimeter (down)
G1 X140.3401 Y191.4674 E2.05683 F1800 ; Draw perimeter (left)
G0 X140.8572 Y191.9844 F6000 ; Step inwards to print next perimeter
G1 X140.8572 Y201.4332 E0.39813 F1800 ; Draw perimeter (up)
G1 X188.6378 Y201.4332 E2.01326 F1800 ; Draw perimeter (right)
G1 X188.6378 Y191.9844 E0.39813 F1800 ; Draw perimeter (down)
G1 X140.8572 Y191.9844 E2.01326 F1800 ; Draw perimeter (left)
G0 X141.3743 Y192.5015 F6000 ; Step inwards to print next perimeter
G1 X141.3743 Y200.9161 E0.35455 F1800 ; Draw perimeter (up)
G1 X188.1207 Y200.9161 E1.96968 F1800 ; Draw perimeter (right)
G1 X188.1207 Y192.5015 E0.35455 F1800 ; Draw perimeter (down)
G1 X141.3743 Y192.5015 E1.96968 F1800 ; Draw perimeter (left)
G0 X141.7476 Y192.8749 F6000 ; Move to fill start
G0 X142.4789 Y192.8749 F6000 ; Move
G1 X141.7476 Y193.6061 E0.04357 F1800 ; Fill
G0 X141.7476 Y194.3374 F6000 ; Move
G1 X143.2101 Y192.8749 E0.08715 F1800 ; Fill
G0 X143.9414 Y192.8749 F6000 ; Move
G1 X141.7476 Y195.0686 E0.13072 F1800 ; Fill
G0 X141.7476 Y195.7999 F6000 ; Move
G1 X144.6727 Y192.8749 E0.1743 F1800 ; Fill
G0 X145.4039 Y192.8749 F6000 ; Move
G1 X141.7476 Y196.5312 E0.21787 F1800 ; Fill
G0 X141.7476 Y197.2624 F6000 ; Move
G1 X146.1352 Y192.8749 E0.26145 F1800 ; Fill
G0 X146.8664 Y192.8749 F6000 ; Move
G1 X141.7476 Y197.9937 E0.30502 F1800 ; Fill
G0 X141.7476 Y198.7249 F6000 ; Move
G1 X147.5977 Y192.8749 E0.3486 F1800 ; Fill
G0 X148.329 Y192.8749 F6000 ; Move
G1 X141.7476 Y199.4562 E0.39217 F1800 ; Fill
G0 X141.7476 Y200.1875 F6000 ; Move
G1 X149.0602 Y192.8749 E0.43575 F1800 ; Fill
G0 X149.7915 Y192.8749 F6000 ; Move
G1 X142.1235 Y200.5428 E0.45692 F1800 ; Fill
G0 X142.8548 Y200.5428 F6000 ; Move
G1 X150.5227 Y192.8749 E0.45692 F1800 ; Fill
G0 X151.254 Y192.8749 F6000 ; Move
G1 X143.5861 Y200.5428 E0.45692 F1800 ; Fill
G0 X144.3173 Y200.5428 F6000 ; Move
G1 X151.9853 Y192.8749 E0.45692 F1800 ; Fill
G0 X152.7165 Y192.8749 F6000 ; Move
G1 X145.0486 Y200.5428 E0.45692 F1800 ; Fill
G0 X145.7799 Y200.5428 F6000 ; Move
G1 X153.4478 Y192.8749 E0.45692 F1800 ; Fill
G0 X154.179 Y192.8749 F6000 ; Move
G1 X146.5111 Y200.5428 E0.45692 F1800 ; Fill
G0 X147.2424 Y200.5428 F6000 ; Move
G1 X154.9103 Y192.8749 E0.45692 F1800 ; Fill
G0 X155.6416 Y192.8749 F6000 ; Move
G1 X147.9736 Y200.5428 E0.45692 F1800 ; Fill
G0 X148.7049 Y200.5428 F6000 ; Move
G1 X156.3728 Y192.8749 E0.45692 F1800 ; Fill
G0 X157.1041 Y192.8749 F6000 ; Move
G1 X149.4362 Y200.5428 E0.45692 F1800 ; Fill
G0 X150.1674 Y200.5428 F6000 ; Move
G1 X157.8354 Y192.8749 E0.45692 F1800 ; Fill
G0 X158.5666 Y192.8749 F6000 ; Move
G1 X150.8987 Y200.5428 E0.45692 F1800 ; Fill
G0 X151.6299 Y200.5428 F6000 ; Move
G1 X159.2979 Y192.8749 E0.45692 F1800 ; Fill
G0 X160.0291 Y192.8749 F6000 ; Move
G1 X152.3612 Y200.5428 E0.45692 F1800 ; Fill
G0 X153.0925 Y200.5428 F6000 ; Move
G1 X160.7604 Y192.8749 E0.45692 F1800 ; Fill
G0 X161.4917 Y192.8749 F6000 ; Move
G1 X153.8237 Y200.5428 E0.45692 F1800 ; Fill
G0 X154.555 Y200.5428 F6000 ; Move
G1 X162.2229 Y192.8749 E0.45692 F1800 ; Fill
G0 X162.9542 Y192.8749 F6000 ; Move
G1 X155.2862 Y200.5428 E0.45692 F1800 ; Fill
G0 X156.0175 Y200.5428 F6000 ; Move
G1 X163.6854 Y192.8749 E0.45692 F1800 ; Fill
G0 X164.4167 Y192.8749 F6000 ; Move
G1 X156.7488 Y200.5428 E0.45692 F1800 ; Fill
G0 X157.48 Y200.5428 F6000 ; Move
G1 X165.148 Y192.8749 E0.45692 F1800 ; Fill
G0 X165.8792 Y192.8749 F6000 ; Move
G1 X158.2113 Y200.5428 E0.45692 F1800 ; Fill
G0 X158.9426 Y200.5428 F6000 ; Move
G1 X166.6105 Y192.8749 E0.45692 F1800 ; Fill
G0 X167.3417 Y192.8749 F6000 ; Move
G1 X159.6738 Y200.5428 E0.45692 F1800 ; Fill
G0 X160.4051 Y200.5428 F6000 ; Move
G1 X168.073 Y192.8749 E0.45692 F1800 ; Fill
G0 X168.8043 Y192.8749 F6000 ; Move
G1 X161.1363 Y200.5428 E0.45692 F1800 ; Fill
G0 X161.8676 Y200.5428 F6000 ; Move
G1 X169.5355 Y192.8749 E0.45692 F1800 ; Fill
G0 X170.2668 Y192.8749 F6000 ; Move
G1 X162.5989 Y200.5428 E0.45692 F1800 ; Fill
G0 X163.3301 Y200.5428 F6000 ; Move
G1 X170.9981 Y192.8749 E0.45692 F1800 ; Fill
G0 X171.7293 Y192.8749 F6000 ; Move
G1 X164.0614 Y200.5428 E0.45692 F1800 ; Fill
G0 X164.7926 Y200.5428 F6000 ; Move
G1 X172.4606 Y192.8749 E0.45692 F1800 ; Fill
G0 X173.1918 Y192.8749 F6000 ; Move
G1 X165.5239 Y200.5428 E0.45692 F1800 ; Fill
G0 X166.2552 Y200.5428 F6000 ; Move
G1 X173.9231 Y192.8749 E0.45692 F1800 ; Fill
G0 X174.6544 Y192.8749 F6000 ; Move
G1 X166.9864 Y200.5428 E0.45692 F1800 ; Fill
G0 X167.7177 Y200.5428 F6000 ; Move
G1 X175.3856 Y192.8749 E0.45692 F1800 ; Fill
G0 X176.1169 Y192.8749 F6000 ; Move
G1 X168.4489 Y200.5428 E0.45692 F1800 ; Fill
G0 X169.1802 Y200.5428 F6000 ; Move
G1 X176.8481 Y192.8749 E0.45692 F1800 ; Fill
G0 X177.5794 Y192.8749 F6000 ; Move
G1 X169.9115 Y200.5428 E0.45692 F1800 ; Fill
G0 X170.6427 Y200.5428 F6000 ; Move
G1 X178.3107 Y192.8749 E0.45692 F1800 ; Fill
G0 X179.0419 Y192.8749 F6000 ; Move
G1 X171.374 Y200.5428 E0.45692 F1800 ; Fill
G0 X172.1053 Y200.5428 F6000 ; Move
G1 X179.7732 Y192.8749 E0.45692 F1800 ; Fill
G0 X180.5044 Y192.8749 F6000 ; Move
G1 X172.8365 Y200.5428 E0.45692 F1800 ; Fill
G0 X173.5678 Y200.5428 F6000 ; Move
G1 X181.2357 Y192.8749 E0.45692 F1800 ; Fill
G0 X181.967 Y192.8749 F6000 ; Move
G1 X174.299 Y200.5428 E0.45692 F1800 ; Fill
G0 X175.0303 Y200.5428 F6000 ; Move
G1 X182.6982 Y192.8749 E0.45692 F1800 ; Fill
G0 X183.4295 Y192.8749 F6000 ; Move
G1 X175.7616 Y200.5428 E0.45692 F1800 ; Fill
G0 X176.4928 Y200.5428 F6000 ; Move
G1 X184.1608 Y192.8749 E0.45692 F1800 ; Fill
G0 X184.892 Y192.8749 F6000 ; Move
G1 X177.2241 Y200.5428 E0.45692 F1800 ; Fill
G0 X177.9553 Y200.5428 F6000 ; Move
G1 X185.6233 Y192.8749 E0.45692 F1800 ; Fill
G0 X186.3545 Y192.8749 F6000 ; Move
G1 X178.6866 Y200.5428 E0.45692 F1800 ; Fill
G0 X179.4179 Y200.5428 F6000 ; Move
G1 X187.0858 Y192.8749 E0.45692 F1800 ; Fill
G0 X187.7474 Y192.9446 F6000 ; Move
G1 X180.1491 Y200.5428 E0.45277 F1800 ; Fill
G0 X180.8804 Y200.5428 F6000 ; Move
G1 X187.7474 Y193.6758 E0.40919 F1800 ; Fill
G0 X187.7474 Y194.4071 F6000 ; Move
G1 X181.6116 Y200.5428 E0.36562 F1800 ; Fill
G0 X182.3429 Y200.5428 F6000 ; Move
G1 X187.7474 Y195.1383 E0.32204 F1800 ; Fill
G0 X187.7474 Y195.8696 F6000 ; Move
G1 X183.0742 Y200.5428 E0.27847 F1800 ; Fill
G0 X183.8054 Y200.5428 F6000 ; Move
G1 X187.7474 Y196.6009 E0.23489 F1800 ; Fill
G0 X187.7474 Y197.3321 F6000 ; Move
G1 X184.5367 Y200.5428 E0.19132 F1800 ; Fill
G0 X185.2679 Y200.5428 F6000 ; Move
G1 X187.7474 Y198.0634 E0.14774 F1800 ; Fill
G0 X187.7474 Y198.7946 F6000 ; Move
G1 X185.9992 Y200.5428 E0.10417 F1800 ; Fill
G0 X186.7305 Y200.5428 F6000 ; Move
G1 X187.7474 Y199.5259 E0.06059 F1800 ; Fill
G0 X187.7474 Y200.2572 F6000 ; Move
G1 X187.4617 Y200.5428 E0.01702 F1800 ; Fill
G0 Z0.2 F6000 ; Move to layer height
G1 E-0.7 F2100 ; Retract
G1 Z0.3 F6000 ; Z hop
G0 X144.4519 Y149.9314 F6000 ; Move to pattern start

G1 Z0.2 F6000 ; Z hop return
G1 E0.7 F2100 ; Un-retract
SET_PRESSURE_ADVANCE ADVANCE=0.02 ; Set pressure advance
M117 PA 0.02
G1 X163.7405 Y169.22 E0.90487 F1800 ; Print pattern wall
G1 X144.4519 Y188.5086 E0.90487 F1800 ; Print pattern wall
G1 E-0.7 F2100 ; Retract
G1 Z0.3 F6000 ; Z hop
G0 X145.0276 Y149.9314 F6000 ; Move to start next pattern wall
G1 Z0.2 F6000 ; Z hop return
G1 E0.7 F2100 ; Un-retract
G1 X164.3162 Y169.22 E0.90487 F1800 ; Print pattern wall
G1 X145.0276 Y188.5086 E0.90487 F1800 ; Print pattern wall
G1 E-0.7 F2100 ; Retract
G1 Z0.3 F6000 ; Z hop
G0 X145.6033 Y149.9314 F6000 ; Move to start next pattern wall
G1 Z0.2 F6000 ; Z hop return
G1 E0.7 F2100 ; Un-retract
G1 X164.8919 Y169.22 E0.90487 F1800 ; Print pattern wall
G1 X145.6033 Y188.5086 E0.90487 F1800 ; Print pattern wall
G1 E-0.7 F2100 ; Retract
G1 Z0.3 F6000 ; Z hop
G0 X148.0533 Y149.9314 F6000 ; Move to next pattern
G1 Z0.2 F6000 ; Z hop return
G1 E0.7 F2100 ; Un-retract
SET_PRESSURE_ADVANCE ADVANCE=0.025 ; Set pressure advance
M117 PA 0.025
G1 X167.3419 Y169.22 E0.90487 F1800 ; Print pattern wall
G1 X148.0533 Y188.5086 E0.90487 F1800 ; Print pattern wall
G1 E-0.7 F2100 ; Retract
G1 Z0.3 F6000 ; Z hop
G0 X148.629 Y149.9314 F6000 ; Move to start next pattern wall
G1 Z0.2 F6000 ; Z hop return
G1 E0.7 F2100 ; Un-retract
G1 X167.9176 Y169.22 E0.90487 F1800 ; Print pattern wall
G1 X148.629 Y188.5086 E0.90487 F1800 ; Print pattern wall
G1 E-0.7 F2100 ; Retract
G1 Z0.3 F6000 ; Z hop
G0 X149.2047 Y149.9314 F6000 ; Move to start next pattern wall
G1 Z0.2 F6000 ; Z hop return
G1 E0.7 F2100 ; Un-retract
G1 X168.4933 Y169.22 E0.90487 F1800 ; Print pattern wall
G1 X149.2047 Y188.5086 E0.90487 F1800 ; Print pattern wall
G1 E-0.7 F2100 ; Retract
G1 Z0.3 F6000 ; Z hop
G0 X151.6547 Y149.9314 F6000 ; Move to next pattern
G1 Z0.2 F6000 ; Z hop return
G1 E0.7 F2100 ; Un-retract
SET_PRESSURE_ADVANCE ADVANCE=0.03 ; Set pressure advance
M117 PA 0.03
G1 X170.9433 Y169.22 E0.90487 F1800 ; Print pattern wall
G1 X151.6547 Y188.5086 E0.90487 F1800 ; Print pattern wall
G1 E-0.7 F2100 ; Retract
G1 Z0.3 F6000 ; Z hop
G0 X152.2304 Y149.9314 F6000 ; Move to start next pattern wall
G1 Z0.2 F6000 ; Z hop return
G1 E0.7 F2100 ; Un-retract
G1 X171.519 Y169.22 E0.90487 F1800 ; Print pattern wall
G1 X152.2304 Y188.5086 E0.90487 F1800 ; Print pattern wall
G1 E-0.7 F2100 ; Retract
G1 Z0.3 F6000 ; Z hop
G0 X152.8061 Y149.9314 F6000 ; Move to start next pattern wall
G1 Z0.2 F6000 ; Z hop return
G1 E0.7 F2100 ; Un-retract
G1 X172.0947 Y169.22 E0.90487 F1800 ; Print pattern wall
G1 X152.8061 Y188.5086 E0.90487 F1800 ; Print pattern wall
G1 E-0.7 F2100 ; Retract
G1 Z0.3 F6000 ; Z hop
G0 X155.2561 Y149.9314 F6000 ; Move to next pattern
G1 Z0.2 F6000 ; Z hop return
G1 E0.7 F2100 ; Un-retract
SET_PRESSURE_ADVANCE ADVANCE=0.035 ; Set pressure advance
M117 PA 0.035
G1 X174.5447 Y169.22 E0.90487 F1800 ; Print pattern wall
G1 X155.2561 Y188.5086 E0.90487 F1800 ; Print pattern wall
G1 E-0.7 F2100 ; Retract
G1 Z0.3 F6000 ; Z hop
G0 X155.8318 Y149.9314 F6000 ; Move to start next pattern wall
G1 Z0.2 F6000 ; Z hop return
G1 E0.7 F2100 ; Un-retract
G1 X175.1204 Y169.22 E0.90487 F1800 ; Print pattern wall
G1 X155.8318 Y188.5086 E0.90487 F1800 ; Print pattern wall
G1 E-0.7 F2100 ; Retract
G1 Z0.3 F6000 ; Z hop
G0 X156.4075 Y149.9314 F6000 ; Move to start next pattern wall
G1 Z0.2 F6000 ; Z hop return
G1 E0.7 F2100 ; Un-retract
G1 X175.6961 Y169.22 E0.90487 F1800 ; Print pattern wall
G1 X156.4075 Y188.5086 E0.90487 F1800 ; Print pattern wall
G1 E-0.7 F2100 ; Retract
G1 Z0.3 F6000 ; Z hop
G0 X158.8575 Y149.9314 F6000 ; Move to next pattern
G1 Z0.2 F6000 ; Z hop return
G1 E0.7 F2100 ; Un-retract
SET_PRESSURE_ADVANCE ADVANCE=0.04 ; Set pressure advance
M117 PA 0.04
G1 X178.1461 Y169.22 E0.90487 F1800 ; Print pattern wall
G1 X158.8575 Y188.5086 E0.90487 F1800 ; Print pattern wall
G1 E-0.7 F2100 ; Retract
G1 Z0.3 F6000 ; Z hop
G0 X159.4332 Y149.9314 F6000 ; Move to start next pattern wall
G1 Z0.2 F6000 ; Z hop return
G1 E0.7 F2100 ; Un-retract
G1 X178.7218 Y169.22 E0.90487 F1800 ; Print pattern wall
G1 X159.4332 Y188.5086 E0.90487 F1800 ; Print pattern wall
G1 E-0.7 F2100 ; Retract
G1 Z0.3 F6000 ; Z hop
G0 X160.0089 Y149.9314 F6000 ; Move to start next pattern wall
G1 Z0.2 F6000 ; Z hop return
G1 E0.7 F2100 ; Un-retract
G1 X179.2975 Y169.22 E0.90487 F1800 ; Print pattern wall
G1 X160.0089 Y188.5086 E0.90487 F1800 ; Print pattern wall
G1 E-0.7 F2100 ; Retract
G1 Z0.3 F6000 ; Z hop
G0 X162.4589 Y149.9314 F6000 ; Move to next pattern
G1 Z0.2 F6000 ; Z hop return
G1 E0.7 F2100 ; Un-retract
SET_PRESSURE_ADVANCE ADVANCE=0.045 ; Set pressure advance
M117 PA 0.045
G1 X181.7475 Y169.22 E0.90487 F1800 ; Print pattern wall
G1 X162.4589 Y188.5086 E0.90487 F1800 ; Print pattern wall
G1 E-0.7 F2100 ; Retract
G1 Z0.3 F6000 ; Z hop
G0 X163.0346 Y149.9314 F6000 ; Move to start next pattern wall
G1 Z0.2 F6000 ; Z hop return
G1 E0.7 F2100 ; Un-retract
G1 X182.3232 Y169.22 E0.90487 F1800 ; Print pattern wall
G1 X163.0346 Y188.5086 E0.90487 F1800 ; Print pattern wall
G1 E-0.7 F2100 ; Retract
G1 Z0.3 F6000 ; Z hop
G0 X163.6103 Y149.9314 F6000 ; Move to start next pattern wall
G1 Z0.2 F6000 ; Z hop return
G1 E0.7 F2100 ; Un-retract
G1 X182.8989 Y169.22 E0.90487 F1800 ; Print pattern wall
G1 X163.6103 Y188.5086 E0.90487 F1800 ; Print pattern wall
G1 E-0.7 F2100 ; Retract
G1 Z0.3 F6000 ; Z hop
G0 X166.0603 Y149.9314 F6000 ; Move to next pattern
G1 Z0.2 F6000 ; Z hop return
G1 E0.7 F2100 ; Un-retract
SET_PRESSURE_ADVANCE ADVANCE=0.05 ; Set pressure advance
M117 PA 0.05
G1 X185.3489 Y169.22 E0.90487 F1800 ; Print pattern wall
G1 X166.0603 Y188.5086 E0.90487 F1800 ; Print pattern wall
G1 E-0.7 F2100 ; Retract
G1 Z0.3 F6000 ; Z hop
G0 X166.636 Y149.9314 F6000 ; Move to start next pattern wall
G1 Z0.2 F6000 ; Z hop return
G1 E0.7 F2100 ; Un-retract
G1 X185.9246 Y169.22 E0.90487 F1800 ; Print pattern wall
G1 X166.636 Y188.5086 E0.90487 F1800 ; Print pattern wall
G1 E-0.7 F2100 ; Retract
G1 Z0.3 F6000 ; Z hop
G0 X167.2117 Y149.9314 F6000 ; Move to start next pattern wall
G1 Z0.2 F6000 ; Z hop return
G1 E0.7 F2100 ; Un-retract
G1 X186.5003 Y169.22 E0.90487 F1800 ; Print pattern wall
G1 X167.2117 Y188.5086 E0.90487 F1800 ; Print pattern wall
G1 E-0.7 F2100 ; Retract
G1 Z0.3 F6000 ; Z hop
G0 X169.6617 Y149.9314 F6000 ; Move to next pattern
G1 Z0.2 F6000 ; Z hop return
G1 E0.7 F2100 ; Un-retract
SET_PRESSURE_ADVANCE ADVANCE=0.055 ; Set pressure advance
M117 PA 0.055
G1 X188.9503 Y169.22 E0.90487 F1800 ; Print pattern wall
G1 X169.6617 Y188.5086 E0.90487 F1800 ; Print pattern wall
G1 E-0.7 F2100 ; Retract
G1 Z0.3 F6000 ; Z hop
G0 X170.2374 Y149.9314 F6000 ; Move to start next pattern wall
G1 Z0.2 F6000 ; Z hop return
G1 E0.7 F2100 ; Un-retract
G1 X189.526 Y169.22 E0.90487 F1800 ; Print pattern wall
G1 X170.2374 Y188.5086 E0.90487 F1800 ; Print pattern wall
G1 E-0.7 F2100 ; Retract
G1 Z0.3 F6000 ; Z hop
G0 X170.8131 Y149.9314 F6000 ; Move to start next pattern wall
G1 Z0.2 F6000 ; Z hop return
G1 E0.7 F2100 ; Un-retract
G1 X190.1017 Y169.22 E0.90487 F1800 ; Print pattern wall
G1 X170.8131 Y188.5086 E0.90487 F1800 ; Print pattern wall
G1 E-0.7 F2100 ; Retract
G1 Z0.3 F6000 ; Z hop
G0 X173.2631 Y149.9314 F6000 ; Move to next pattern
G1 Z0.2 F6000 ; Z hop return
G1 E0.7 F2100 ; Un-retract
SET_PRESSURE_ADVANCE ADVANCE=0.06 ; Set pressure advance
M117 PA 0.06
G1 X192.5517 Y169.22 E0.90487 F1800 ; Print pattern wall
G1 X173.2631 Y188.5086 E0.90487 F1800 ; Print pattern wall
G1 E-0.7 F2100 ; Retract
G1 Z0.3 F6000 ; Z hop
G0 X173.8388 Y149.9314 F6000 ; Move to start next pattern wall
G1 Z0.2 F6000 ; Z hop return
G1 E0.7 F2100 ; Un-retract
G1 X193.1274 Y169.22 E0.90487 F1800 ; Print pattern wall
G1 X173.8388 Y188.5086 E0.90487 F1800 ; Print pattern wall
G1 E-0.7 F2100 ; Retract
G1 Z0.3 F6000 ; Z hop
G0 X174.4145 Y149.9314 F6000 ; Move to start next pattern wall
G1 Z0.2 F6000 ; Z hop return
G1 E0.7 F2100 ; Un-retract
G1 X193.7031 Y169.22 E0.90487 F1800 ; Print pattern wall
G1 X174.4145 Y188.5086 E0.90487 F1800 ; Print pattern wall
G1 E-0.7 F2100 ; Retract
G1 Z0.3 F6000 ; Z hop
G0 X176.8645 Y149.9314 F6000 ; Move to next pattern
G1 Z0.2 F6000 ; Z hop return
G1 E0.7 F2100 ; Un-retract
SET_PRESSURE_ADVANCE ADVANCE=0.065 ; Set pressure advance
M117 PA 0.065
G1 X196.1531 Y169.22 E0.90487 F1800 ; Print pattern wall
G1 X176.8645 Y188.5086 E0.90487 F1800 ; Print pattern wall
G1 E-0.7 F2100 ; Retract
G1 Z0.3 F6000 ; Z hop
G0 X177.4402 Y149.9314 F6000 ; Move to start next pattern wall
G1 Z0.2 F6000 ; Z hop return
G1 E0.7 F2100 ; Un-retract
G1 X196.7288 Y169.22 E0.90487 F1800 ; Print pattern wall
G1 X177.4402 Y188.5086 E0.90487 F1800 ; Print pattern wall
G1 E-0.7 F2100 ; Retract
G1 Z0.3 F6000 ; Z hop
G0 X178.0159 Y149.9314 F6000 ; Move to start next pattern wall
G1 Z0.2 F6000 ; Z hop return
G1 E0.7 F2100 ; Un-retract
G1 X197.3045 Y169.22 E0.90487 F1800 ; Print pattern wall
G1 X178.0159 Y188.5086 E0.90487 F1800 ; Print pattern wall
G1 E-0.7 F2100 ; Retract
G1 Z0.3 F6000 ; Z hop
G0 X180.4659 Y149.9314 F6000 ; Move to next pattern
G1 Z0.2 F6000 ; Z hop return
G1 E0.7 F2100 ; Un-retract
SET_PRESSURE_ADVANCE ADVANCE=0.07 ; Set pressure advance
M117 PA 0.07
G1 X199.7545 Y169.22 E0.90487 F1800 ; Print pattern wall
G1 X180.4659 Y188.5086 E0.90487 F1800 ; Print pattern wall
G1 E-0.7 F2100 ; Retract
G1 Z0.3 F6000 ; Z hop
G0 X181.0416 Y149.9314 F6000 ; Move to start next pattern wall
G1 Z0.2 F6000 ; Z hop return
G1 E0.7 F2100 ; Un-retract
G1 X200.3302 Y169.22 E0.90487 F1800 ; Print pattern wall
G1 X181.0416 Y188.5086 E0.90487 F1800 ; Print pattern wall
G1 E-0.7 F2100 ; Retract
G1 Z0.3 F6000 ; Z hop
G0 X181.6173 Y149.9314 F6000 ; Move to start next pattern wall
G1 Z0.2 F6000 ; Z hop return
G1 E0.7 F2100 ; Un-retract
G1 X200.9059 Y169.22 E0.90487 F1800 ; Print pattern wall
G1 X181.6173 Y188.5086 E0.90487 F1800 ; Print pattern wall
G1 E-0.7 F2100 ; Retract
G1 Z0.3 F6000 ; Z hop
G0 X184.0673 Y149.9314 F6000 ; Move to next pattern
G1 Z0.2 F6000 ; Z hop return
G1 E0.7 F2100 ; Un-retract
SET_PRESSURE_ADVANCE ADVANCE=0.075 ; Set pressure advance
M117 PA 0.075
G1 X203.3559 Y169.22 E0.90487 F1800 ; Print pattern wall
G1 X184.0673 Y188.5086 E0.90487 F1800 ; Print pattern wall
G1 E-0.7 F2100 ; Retract
G1 Z0.3 F6000 ; Z hop
G0 X184.643 Y149.9314 F6000 ; Move to start next pattern wall
G1 Z0.2 F6000 ; Z hop return
G1 E0.7 F2100 ; Un-retract
G1 X203.9316 Y169.22 E0.90487 F1800 ; Print pattern wall
G1 X184.643 Y188.5086 E0.90487 F1800 ; Print pattern wall
G1 E-0.7 F2100 ; Retract
G1 Z0.3 F6000 ; Z hop
G0 X185.2187 Y149.9314 F6000 ; Move to start next pattern wall
G1 Z0.2 F6000 ; Z hop return
G1 E0.7 F2100 ; Un-retract
G1 X204.5073 Y169.22 E0.90487 F1800 ; Print pattern wall
G1 X185.2187 Y188.5086 E0.90487 F1800 ; Print pattern wall
G1 E-0.7 F2100 ; Retract
G1 Z0.3 F6000 ; Z hop
G0 X187.6687 Y149.9314 F6000 ; Move to next pattern
G1 Z0.2 F6000 ; Z hop return
G1 E0.7 F2100 ; Un-retract
SET_PRESSURE_ADVANCE ADVANCE=0.08 ; Set pressure advance
M117 PA 0.08
G1 X206.9573 Y169.22 E0.90487 F1800 ; Print pattern wall
G1 X187.6687 Y188.5086 E0.90487 F1800 ; Print pattern wall
G1 E-0.7 F2100 ; Retract
G1 Z0.3 F6000 ; Z hop
G0 X188.2444 Y149.9314 F6000 ; Move to start next pattern wall
G1 Z0.2 F6000 ; Z hop return
G1 E0.7 F2100 ; Un-retract
G1 X207.533 Y169.22 E0.90487 F1800 ; Print pattern wall
G1 X188.2444 Y188.5086 E0.90487 F1800 ; Print pattern wall
G1 E-0.7 F2100 ; Retract
G1 Z0.3 F6000 ; Z hop
G0 X188.8201 Y149.9314 F6000 ; Move to start next pattern wall
G1 Z0.2 F6000 ; Z hop return
G1 E0.7 F2100 ; Un-retract
G1 X208.1087 Y169.22 E0.90487 F1800 ; Print pattern wall
G1 X188.8201 Y188.5086 E0.90487 F1800 ; Print pattern wall
G1 E-0.7 F2100 ; Retract
G1 Z0.3 F6000 ; Z hop
G0 X144.4519 Y149.9314 F6000 ; Move back to start position
G1 Z0.2 F6000 ; Z hop return
G1 E0.7 F2100 ; Un-retract
M106 S127 ; Set fan speed
G0 Z0.4 F6000 ; Move to layer height
SET_PRESSURE_ADVANCE ADVANCE=0.02 ; Set pressure advance to start value for numbering
M117 PA 0.02
G1 E-0.7 F2100 ; Retract
G1 Z0.5 F6000 ; Z hop
G0 X141.103 Y191.8832 F6000 ; Move
G1 Z0.4 F6000 ; Z hop return
G1 E0.7 F2100 ; Un-retract
G1 X143.103 Y191.8832 E0.06634 F1800 ; Glyph: 0
G1 X145.103 Y191.8832 E0.06634 F1800 ; Glyph: 0
G1 X145.103 Y193.8832 E0.06634 F1800 ; Glyph: 0
G1 X143.103 Y193.8832 E0.06634 F1800 ; Glyph: 0
G1 X141.103 Y193.8832 E0.06634 F1800 ; Glyph: 0
G1 X141.103 Y191.8832 E0.06634 F1800 ; Glyph: 0
G1 E-0.7 F2100 ; Retract
G1 Z0.5 F6000 ; Z hop
G0 X145.103 Y194.8832 F6000 ; Move
G1 Z0.4 F6000 ; Z hop return
G1 E0.7 F2100 ; Un-retract
G1 X144.353 Y194.8832 E0.02488 F1800 ; Glyph: .
G1 E-0.7 F2100 ; Retract
G1 Z0.5 F6000 ; Z hop
G0 X141.103 Y195.8832 F6000 ; Move
G1 Z0.4 F6000 ; Z hop return
G1 E0.7 F2100 ; Un-retract
G1 X143.103 Y195.8832 E0.06634 F1800 ; Glyph: 0
G1 X145.103 Y195.8832 E0.06634 F1800 ; Glyph: 0
G1 X145.103 Y197.8832 E0.06634 F1800 ; Glyph: 0
G1 X143.103 Y197.8832 E0.06634 F1800 ; Glyph: 0
G1 X141.103 Y197.8832 E0.06634 F1800 ; Glyph: 0
G1 X141.103 Y195.8832 E0.06634 F1800 ; Glyph: 0
G1 E-0.7 F2100 ; Retract
G1 Z0.5 F6000 ; Z hop
G0 X141.103 Y198.8832 F6000 ; Move
G1 Z0.4 F6000 ; Z hop return
G1 E0.7 F2100 ; Un-retract
G1 X141.103 Y200.8832 E0.06634 F1800 ; Glyph: 2
G1 X143.103 Y200.8832 E0.06634 F1800 ; Glyph: 2
G1 X143.103 Y198.8832 E0.06634 F1800 ; Glyph: 2
G1 X145.103 Y198.8832 E0.06634 F1800 ; Glyph: 2
G1 X145.103 Y200.8832 E0.06634 F1800 ; Glyph: 2
G1 E-0.7 F2100 ; Retract
G1 Z0.5 F6000 ; Z hop
G0 X148.3058 Y191.8832 F6000 ; Move
G1 Z0.4 F6000 ; Z hop return
G1 E0.7 F2100 ; Un-retract
G1 X150.3058 Y191.8832 E0.06634 F1800 ; Glyph: 0
G1 X152.3058 Y191.8832 E0.06634 F1800 ; Glyph: 0
G1 X152.3058 Y193.8832 E0.06634 F1800 ; Glyph: 0
G1 X150.3058 Y193.8832 E0.06634 F1800 ; Glyph: 0
G1 X148.3058 Y193.8832 E0.06634 F1800 ; Glyph: 0
G1 X148.3058 Y191.8832 E0.06634 F1800 ; Glyph: 0
G1 E-0.7 F2100 ; Retract
G1 Z0.5 F6000 ; Z hop
G0 X152.3058 Y194.8832 F6000 ; Move
G1 Z0.4 F6000 ; Z hop return
G1 E0.7 F2100 ; Un-retract
G1 X151.5558 Y194.8832 E0.02488 F1800 ; Glyph: .
G1 E-0.7 F2100 ; Retract
G1 Z0.5 F6000 ; Z hop
G0 X148.3058 Y195.8832 F6000 ; Move
G1 Z0.4 F6000 ; Z hop return
G1 E0.7 F2100 ; Un-retract
G1 X150.3058 Y195.8832 E0.06634 F1800 ; Glyph: 0
G1 X152.3058 Y195.8832 E0.06634 F1800 ; Glyph: 0
G1 X152.3058 Y197.8832 E0.06634 F1800 ; Glyph: 0
G1 X150.3058 Y197.8832 E0.06634 F1800 ; Glyph: 0
G1 X148.3058 Y197.8832 E0.06634 F1800 ; Glyph: 0
G1 X148.3058 Y195.8832 E0.06634 F1800 ; Glyph: 0
G1 E-0.7 F2100 ; Retract
G1 Z0.5 F6000 ; Z hop
G0 X148.3058 Y198.8832 F6000 ; Move
G1 Z0.4 F6000 ; Z hop return
G1 E0.7 F2100 ; Un-retract
G1 X148.3058 Y200.8832 E0.06634 F1800 ; Glyph: 3
G1 X150.3058 Y200.8832 E0.06634 F1800 ; Glyph: 3
G1 X150.3058 Y198.8832 E0.06634 F1800 ; Glyph: 3
G0 X150.3058 Y200.8832 F6000 ; Move
G1 X152.3058 Y200.8832 E0.06634 F1800 ; Glyph: 3
G1 X152.3058 Y198.8832 E0.06634 F1800 ; Glyph: 3
G1 E-0.7 F2100 ; Retract
G1 Z0.5 F6000 ; Z hop
G0 X155.5086 Y191.8832 F6000 ; Move
G1 Z0.4 F6000 ; Z hop return
G1 E0.7 F2100 ; Un-retract
G1 X157.5086 Y191.8832 E0.06634 F1800 ; Glyph: 0
G1 X159.5086 Y191.8832 E0.06634 F1800 ; Glyph: 0
G1 X159.5086 Y193.8832 E0.06634 F1800 ; Glyph: 0
G1 X157.5086 Y193.8832 E0.06634 F1800 ; Glyph: 0
G1 X155.5086 Y193.8832 E0.06634 F1800 ; Glyph: 0
G1 X155.5086 Y191.8832 E0.06634 F1800 ; Glyph: 0
G1 E-0.7 F2100 ; Retract
G1 Z0.5 F6000 ; Z hop
G0 X159.5086 Y194.8832 F6000 ; Move
G1 Z0.4 F6000 ; Z hop return
G1 E0.7 F2100 ; Un-retract
G1 X158.7586 Y194.8832 E0.02488 F1800 ; Glyph: .
G1 E-0.7 F2100 ; Retract
G1 Z0.5 F6000 ; Z hop
G0 X155.5086 Y195.8832 F6000 ; Move
G1 Z0.4 F6000 ; Z hop return
G1 E0.7 F2100 ; Un-retract
G1 X157.5086 Y195.8832 E0.06634 F1800 ; Glyph: 0
G1 X159.5086 Y195.8832 E0.06634 F1800 ; Glyph: 0
G1 X159.5086 Y197.8832 E0.06634 F1800 ; Glyph: 0
G1 X157.5086 Y197.8832 E0.06634 F1800 ; Glyph: 0
G1 X155.5086 Y197.8832 E0.06634 F1800 ; Glyph: 0
G1 X155.5086 Y195.8832 E0.06634 F1800 ; Glyph: 0
G1 E-0.7 F2100 ; Retract
G1 Z0.5 F6000 ; Z hop
G0 X155.5086 Y200.8832 F6000 ; Move
G1 Z0.4 F6000 ; Z hop return
G1 E0.7 F2100 ; Un-retract
G1 X157.5086 Y200.8832 E0.06634 F1800 ; Glyph: 4
G1 X159.5086 Y200.8832 E0.06634 F1800 ; Glyph: 4
G0 X157.5086 Y200.8832 F6000 ; Move
G1 X157.5086 Y198.8832 E0.06634 F1800 ; Glyph: 4
G1 X155.5086 Y198.8832 E0.06634 F1800 ; Glyph: 4
G1 E-0.7 F2100 ; Retract
G1 Z0.5 F6000 ; Z hop
G0 X162.7114 Y191.8832 F6000 ; Move
G1 Z0.4 F6000 ; Z hop return
G1 E0.7 F2100 ; Un-retract
G1 X164.7114 Y191.8832 E0.06634 F1800 ; Glyph: 0
G1 X166.7114 Y191.8832 E0.06634 F1800 ; Glyph: 0
G1 X166.7114 Y193.8832 E0.06634 F1800 ; Glyph: 0
G1 X164.7114 Y193.8832 E0.06634 F1800 ; Glyph: 0
G1 X162.7114 Y193.8832 E0.06634 F1800 ; Glyph: 0
G1 X162.7114 Y191.8832 E0.06634 F1800 ; Glyph: 0
G1 E-0.7 F2100 ; Retract
G1 Z0.5 F6000 ; Z hop
G0 X166.7114 Y194.8832 F6000 ; Move
G1 Z0.4 F6000 ; Z hop return
G1 E0.7 F2100 ; Un-retract
G1 X165.9614 Y194.8832 E0.02488 F1800 ; Glyph: .
G1 E-0.7 F2100 ; Retract
G1 Z0.5 F6000 ; Z hop
G0 X162.7114 Y195.8832 F6000 ; Move
G1 Z0.4 F6000 ; Z hop return
G1 E0.7 F2100 ; Un-retract
G1 X164.7114 Y195.8832 E0.06634 F1800 ; Glyph: 0
G1 X166.7114 Y195.8832 E0.06634 F1800 ; Glyph: 0
G1 X166.7114 Y197.8832 E0.06634 F1800 ; Glyph: 0
G1 X164.7114 Y197.8832 E0.06634 F1800 ; Glyph: 0
G1 X162.7114 Y197.8832 E0.06634 F1800 ; Glyph: 0
G1 X162.7114 Y195.8832 E0.06634 F1800 ; Glyph: 0
G1 E-0.7 F2100 ; Retract
G1 Z0.5 F6000 ; Z hop
G0 X162.7114 Y200.8832 F6000 ; Move
G1 Z0.4 F6000 ; Z hop return
G1 E0.7 F2100 ; Un-retract
G1 X162.7114 Y198.8832 E0.06634 F1800 ; Glyph: 5
G1 X164.7114 Y198.8832 E0.06634 F1800 ; Glyph: 5
G1 X164.7114 Y200.8832 E0.06634 F1800 ; Glyph: 5
G1 X166.7114 Y200.8832 E0.06634 F1800 ; Glyph: 5
G1 X166.7114 Y198.8832 E0.06634 F1800 ; Glyph: 5
G1 E-0.7 F2100 ; Retract
G1 Z0.5 F6000 ; Z hop
G0 X169.9142 Y191.8832 F6000 ; Move
G1 Z0.4 F6000 ; Z hop return
G1 E0.7 F2100 ; Un-retract
G1 X171.9142 Y191.8832 E0.06634 F1800 ; Glyph: 0
G1 X173.9142 Y191.8832 E0.06634 F1800 ; Glyph: 0
G1 X173.9142 Y193.8832 E0.06634 F1800 ; Glyph: 0
G1 X171.9142 Y193.8832 E0.06634 F1800 ; Glyph: 0
G1 X169.9142 Y193.8832 E0.06634 F1800 ; Glyph: 0
G1 X169.9142 Y191.8832 E0.06634 F1800 ; Glyph: 0
G1 E-0.7 F2100 ; Retract
G1 Z0.5 F6000 ; Z hop
G0 X173.9142 Y194.8832 F6000 ; Move
G1 Z0.4 F6000 ; Z hop return
G1 E0.7 F2100 ; Un-retract
G1 X173.1642 Y194.8832 E0.02488 F1800 ; Glyph: .
G1 E-0.7 F2100 ; Retract
G1 Z0.5 F6000 ; Z hop
G0 X169.9142 Y195.8832 F6000 ; Move
G1 Z0.4 F6000 ; Z hop return
G1 E0.7 F2100 ; Un-retract
G1 X171.9142 Y195.8832 E0.06634 F1800 ; Glyph: 0
G1 X173.9142 Y195.8832 E0.06634 F1800 ; Glyph: 0
G1 X173.9142 Y197.8832 E0.06634 F1800 ; Glyph: 0
G1 X171.9142 Y197.8832 E0.06634 F1800 ; Glyph: 0
G1 X169.9142 Y197.8832 E0.06634 F1800 ; Glyph: 0
G1 X169.9142 Y195.8832 E0.06634 F1800 ; Glyph: 0
G1 E-0.7 F2100 ; Retract
G1 Z0.5 F6000 ; Z hop
G0 X169.9142 Y200.8832 F6000 ; Move
G1 Z0.4 F6000 ; Z hop return
G1 E0.7 F2100 ; Un-retract
G1 X169.9142 Y198.8832 E0.06634 F1800 ; Glyph: 6
G1 X171.9142 Y198.8832 E0.06634 F1800 ; Glyph: 6
G1 X173.9142 Y198.8832 E0.06634 F1800 ; Glyph: 6
G1 X173.9142 Y200.8832 E0.06634 F1800 ; Glyph: 6
G1 X171.9142 Y200.8832 E0.06634 F1800 ; Glyph: 6
G1 X171.9142 Y198.8832 E0.06634 F1800 ; Glyph: 6
G1 E-0.7 F2100 ; Retract
G1 Z0.5 F6000 ; Z hop
G0 X177.117 Y191.8832 F6000 ; Move
G1 Z0.4 F6000 ; Z hop return
G1 E0.7 F2100 ; Un-retract
G1 X179.117 Y191.8832 E0.06634 F1800 ; Glyph: 0
G1 X181.117 Y191.8832 E0.06634 F1800 ; Glyph: 0
G1 X181.117 Y193.8832 E0.06634 F1800 ; Glyph: 0
G1 X179.117 Y193.8832 E0.06634 F1800 ; Glyph: 0
G1 X177.117 Y193.8832 E0.06634 F1800 ; Glyph: 0
G1 X177.117 Y191.8832 E0.06634 F1800 ; Glyph: 0
G1 E-0.7 F2100 ; Retract
G1 Z0.5 F6000 ; Z hop
G0 X181.117 Y194.8832 F6000 ; Move
G1 Z0.4 F6000 ; Z hop return
G1 E0.7 F2100 ; Un-retract
G1 X180.367 Y194.8832 E0.02488 F1800 ; Glyph: .
G1 E-0.7 F2100 ; Retract
G1 Z0.5 F6000 ; Z hop
G0 X177.117 Y195.8832 F6000 ; Move
G1 Z0.4 F6000 ; Z hop return
G1 E0.7 F2100 ; Un-retract
G1 X179.117 Y195.8832 E0.06634 F1800 ; Glyph: 0
G1 X181.117 Y195.8832 E0.06634 F1800 ; Glyph: 0
G1 X181.117 Y197.8832 E0.06634 F1800 ; Glyph: 0
G1 X179.117 Y197.8832 E0.06634 F1800 ; Glyph: 0
G1 X177.117 Y197.8832 E0.06634 F1800 ; Glyph: 0
G1 X177.117 Y195.8832 E0.06634 F1800 ; Glyph: 0
G1 E-0.7 F2100 ; Retract
G1 Z0.5 F6000 ; Z hop
G0 X177.117 Y198.8832 F6000 ; Move
G1 Z0.4 F6000 ; Z hop return
G1 E0.7 F2100 ; Un-retract
G1 X177.117 Y200.8832 E0.06634 F1800 ; Glyph: 7
G1 X179.117 Y200.8832 E0.06634 F1800 ; Glyph: 7
G1 X181.117 Y200.8832 E0.06634 F1800 ; Glyph: 7
G1 E-0.7 F2100 ; Retract
G1 Z0.5 F6000 ; Z hop
G0 X184.3198 Y191.8832 F6000 ; Move
G1 Z0.4 F6000 ; Z hop return
G1 E0.7 F2100 ; Un-retract
G1 X186.3198 Y191.8832 E0.06634 F1800 ; Glyph: 0
G1 X188.3198 Y191.8832 E0.06634 F1800 ; Glyph: 0
G1 X188.3198 Y193.8832 E0.06634 F1800 ; Glyph: 0
G1 X186.3198 Y193.8832 E0.06634 F1800 ; Glyph: 0
G1 X184.3198 Y193.8832 E0.06634 F1800 ; Glyph: 0
G1 X184.3198 Y191.8832 E0.06634 F1800 ; Glyph: 0
G1 E-0.7 F2100 ; Retract
G1 Z0.5 F6000 ; Z hop
G0 X188.3198 Y194.8832 F6000 ; Move
G1 Z0.4 F6000 ; Z hop return
G1 E0.7 F2100 ; Un-retract
G1 X187.5698 Y194.8832 E0.02488 F1800 ; Glyph: .
G1 E-0.7 F2100 ; Retract
G1 Z0.5 F6000 ; Z hop
G0 X184.3198 Y195.8832 F6000 ; Move
G1 Z0.4 F6000 ; Z hop return
G1 E0.7 F2100 ; Un-retract
G1 X186.3198 Y195.8832 E0.06634 F1800 ; Glyph: 0
G1 X188.3198 Y195.8832 E0.06634 F1800 ; Glyph: 0
G1 X188.3198 Y197.8832 E0.06634 F1800 ; Glyph: 0
G1 X186.3198 Y197.8832 E0.06634 F1800 ; Glyph: 0
G1 X184.3198 Y197.8832 E0.06634 F1800 ; Glyph: 0
G1 X184.3198 Y195.8832 E0.06634 F1800 ; Glyph: 0
G1 E-0.7 F2100 ; Retract
G1 Z0.5 F6000 ; Z hop
G0 X184.3198 Y198.8832 F6000 ; Move
G1 Z0.4 F6000 ; Z hop return
G1 E0.7 F2100 ; Un-retract
G1 X186.3198 Y198.8832 E0.06634 F1800 ; Glyph: 8
G1 X188.3198 Y198.8832 E0.06634 F1800 ; Glyph: 8
G1 X188.3198 Y200.8832 E0.06634 F1800 ; Glyph: 8
G1 X186.3198 Y200.8832 E0.06634 F1800 ; Glyph: 8
G1 X184.3198 Y200.8832 E0.06634 F1800 ; Glyph: 8
G1 X184.3198 Y198.8832 E0.06634 F1800 ; Glyph: 8
G0 X186.3198 Y198.8832 F6000 ; Move
G1 X186.3198 Y200.8832 E0.06634 F1800 ; Glyph: 8
G1 E-0.7 F2100 ; Retract
G1 Z0.5 F6000 ; Z hop
G0 X142.5273 Y148.0068 F6000 ; Move to pattern start

G1 Z0.4 F6000 ; Z hop return
G1 E0.7 F2100 ; Un-retract
SET_PRESSURE_ADVANCE ADVANCE=0.02 ; Set pressure advance
M117 PA 0.02
G1 X163.7405 Y169.22 E0.99515 F6000 ; Print pattern wall
G1 X142.5273 Y190.4332 E0.99515 F6000 ; Print pattern wall
G1 E-0.7 F2100 ; Retract
G1 Z0.5 F6000 ; Z hop
G0 X143.103 Y148.0068 F6000 ; Move to start next pattern wall
G1 Z0.4 F6000 ; Z hop return
G1 E0.7 F2100 ; Un-retract
G1 X164.3162 Y169.22 E0.99515 F6000 ; Print pattern wall
G1 X143.103 Y190.4332 E0.99515 F6000 ; Print pattern wall
G1 E-0.7 F2100 ; Retract
G1 Z0.5 F6000 ; Z hop
G0 X143.6787 Y148.0068 F6000 ; Move to start next pattern wall
G1 Z0.4 F6000 ; Z hop return
G1 E0.7 F2100 ; Un-retract
G1 X164.8919 Y169.22 E0.99515 F6000 ; Print pattern wall
G1 X143.6787 Y190.4332 E0.99515 F6000 ; Print pattern wall
G1 E-0.7 F2100 ; Retract
G1 Z0.5 F6000 ; Z hop
G0 X146.1287 Y148.0068 F6000 ; Move to next pattern
G1 Z0.4 F6000 ; Z hop return
G1 E0.7 F2100 ; Un-retract
SET_PRESSURE_ADVANCE ADVANCE=0.025 ; Set pressure advance
M117 PA 0.025
G1 X167.3419 Y169.22 E0.99515 F6000 ; Print pattern wall
G1 X146.1287 Y190.4332 E0.99515 F6000 ; Print pattern wall
G1 E-0.7 F2100 ; Retract
G1 Z0.5 F6000 ; Z hop
G0 X146.7044 Y148.0068 F6000 ; Move to start next pattern wall
G1 Z0.4 F6000 ; Z hop return
G1 E0.7 F2100 ; Un-retract
G1 X167.9176 Y169.22 E0.99515 F6000 ; Print pattern wall
G1 X146.7044 Y190.4332 E0.99515 F6000 ; Print pattern wall
G1 E-0.7 F2100 ; Retract
G1 Z0.5 F6000 ; Z hop
G0 X147.2801 Y148.0068 F6000 ; Move to start next pattern wall
G1 Z0.4 F6000 ; Z hop return
G1 E0.7 F2100 ; Un-retract
G1 X168.4933 Y169.22 E0.99515 F6000 ; Print pattern wall
G1 X147.2801 Y190.4332 E0.99515 F6000 ; Print pattern wall
G1 E-0.7 F2100 ; Retract
G1 Z0.5 F6000 ; Z hop
G0 X149.7301 Y148.0068 F6000 ; Move to next pattern
G1 Z0.4 F6000 ; Z hop return
G1 E0.7 F2100 ; Un-retract
SET_PRESSURE_ADVANCE ADVANCE=0.03 ; Set pressure advance
M117 PA 0.03
G1 X170.9433 Y169.22 E0.99515 F6000 ; Print pattern wall
G1 X149.7301 Y190.4332 E0.99515 F6000 ; Print pattern wall
G1 E-0.7 F2100 ; Retract
G1 Z0.5 F6000 ; Z hop
G0 X150.3058 Y148.0068 F6000 ; Move to start next pattern wall
G1 Z0.4 F6000 ; Z hop return
G1 E0.7 F2100 ; Un-retract
G1 X171.519 Y169.22 E0.99515 F6000 ; Print pattern wall
G1 X150.3058 Y190.4332 E0.99515 F6000 ; Print pattern wall
G1 E-0.7 F2100 ; Retract
G1 Z0.5 F6000 ; Z hop
G0 X150.8815 Y148.0068 F6000 ; Move to start next pattern wall
G1 Z0.4 F6000 ; Z hop return
G1 E0.7 F2100 ; Un-retract
G1 X172.0947 Y169.22 E0.99515 F6000 ; Print pattern wall
G1 X150.8815 Y190.4332 E0.99515 F6000 ; Print pattern wall
G1 E-0.7 F2100 ; Retract
G1 Z0.5 F6000 ; Z hop
G0 X153.3315 Y148.0068 F6000 ; Move to next pattern
G1 Z0.4 F6000 ; Z hop return
G1 E0.7 F2100 ; Un-retract
SET_PRESSURE_ADVANCE ADVANCE=0.035 ; Set pressure advance
M117 PA 0.035
G1 X174.5447 Y169.22 E0.99515 F6000 ; Print pattern wall
G1 X153.3315 Y190.4332 E0.99515 F6000 ; Print pattern wall
G1 E-0.7 F2100 ; Retract
G1 Z0.5 F6000 ; Z hop
G0 X153.9072 Y148.0068 F6000 ; Move to start next pattern wall
G1 Z0.4 F6000 ; Z hop return
G1 E0.7 F2100 ; Un-retract
G1 X175.1204 Y169.22 E0.99515 F6000 ; Print pattern wall
G1 X153.9072 Y190.4332 E0.99515 F6000 ; Print pattern wall
G1 E-0.7 F2100 ; Retract
G1 Z0.5 F6000 ; Z hop
G0 X154.4829 Y148.0068 F6000 ; Move to start next pattern wall
G1 Z0.4 F6000 ; Z hop return
G1 E0.7 F2100 ; Un-retract
G1 X175.6961 Y169.22 E0.99515 F6000 ; Print pattern wall
G1 X154.4829 Y190.4332 E0.99515 F6000 ; Print pattern wall
G1 E-0.7 F2100 ; Retract
G1 Z0.5 F6000 ; Z hop
G0 X156.9329 Y148.0068 F6000 ; Move to next pattern
G1 Z0.4 F6000 ; Z hop return
G1 E0.7 F2100 ; Un-retract
SET_PRESSURE_ADVANCE ADVANCE=0.04 ; Set pressure advance
M117 PA 0.04
G1 X178.1461 Y169.22 E0.99515 F6000 ; Print pattern wall
G1 X156.9329 Y190.4332 E0.99515 F6000 ; Print pattern wall
G1 E-0.7 F2100 ; Retract
G1 Z0.5 F6000 ; Z hop
G0 X157.5086 Y148.0068 F6000 ; Move to start next pattern wall
G1 Z0.4 F6000 ; Z hop return
G1 E0.7 F2100 ; Un-retract
G1 X178.7218 Y169.22 E0.99515 F6000 ; Print pattern wall
G1 X157.5086 Y190.4332 E0.99515 F6000 ; Print pattern wall
G1 E-0.7 F2100 ; Retract
G1 Z0.5 F6000 ; Z hop
G0 X158.0843 Y148.0068 F6000 ; Move to start next pattern wall
G1 Z0.4 F6000 ; Z hop return
G1 E0.7 F2100 ; Un-retract
G1 X179.2975 Y169.22 E0.99515 F6000 ; Print pattern wall
G1 X158.0843 Y190.4332 E0.99515 F6000 ; Print pattern wall
G1 E-0.7 F2100 ; Retract
G1 Z0.5 F6000 ; Z hop
G0 X160.5343 Y148.0068 F6000 ; Move to next pattern
G1 Z0.4 F6000 ; Z hop return
G1 E0.7 F2100 ; Un-retract
SET_PRESSURE_ADVANCE ADVANCE=0.045 ; Set pressure advance
M117 PA 0.045
G1 X181.7475 Y169.22 E0.99515 F6000 ; Print pattern wall
G1 X160.5343 Y190.4332 E0.99515 F6000 ; Print pattern wall
G1 E-0.7 F2100 ; Retract
G1 Z0.5 F6000 ; Z hop
G0 X161.11 Y148.0068 F6000 ; Move to start next pattern wall
G1 Z0.4 F6000 ; Z hop return
G1 E0.7 F2100 ; Un-retract
G1 X182.3232 Y169.22 E0.99515 F6000 ; Print pattern wall
G1 X161.11 Y190.4332 E0.99515 F6000 ; Print pattern wall
G1 E-0.7 F2100 ; Retract
G1 Z0.5 F6000 ; Z hop
G0 X161.6857 Y148.0068 F6000 ; Move to start next pattern wall
G1 Z0.4 F6000 ; Z hop return
G1 E0.7 F2100 ; Un-retract
G1 X182.8989 Y169.22 E0.99515 F6000 ; Print pattern wall
G1 X161.6857 Y190.4332 E0.99515 F6000 ; Print pattern wall
G1 E-0.7 F2100 ; Retract
G1 Z0.5 F6000 ; Z hop
G0 X164.1357 Y148.0068 F6000 ; Move to next pattern
G1 Z0.4 F6000 ; Z hop return
G1 E0.7 F2100 ; Un-retract
SET_PRESSURE_ADVANCE ADVANCE=0.05 ; Set pressure advance
M117 PA 0.05
G1 X185.3489 Y169.22 E0.99515 F6000 ; Print pattern wall
G1 X164.1357 Y190.4332 E0.99515 F6000 ; Print pattern wall
G1 E-0.7 F2100 ; Retract
G1 Z0.5 F6000 ; Z hop
G0 X164.7114 Y148.0068 F6000 ; Move to start next pattern wall
G1 Z0.4 F6000 ; Z hop return
G1 E0.7 F2100 ; Un-retract
G1 X185.9246 Y169.22 E0.99515 F6000 ; Print pattern wall
G1 X164.7114 Y190.4332 E0.99515 F6000 ; Print pattern wall
G1 E-0.7 F2100 ; Retract
G1 Z0.5 F6000 ; Z hop
G0 X165.2871 Y148.0068 F6000 ; Move to start next pattern wall
G1 Z0.4 F6000 ; Z hop return
G1 E0.7 F2100 ; Un-retract
G1 X186.5003 Y169.22 E0.99515 F6000 ; Print pattern wall
G1 X165.2871 Y190.4332 E0.99515 F6000 ; Print pattern wall
G1 E-0.7 F2100 ; Retract
G1 Z0.5 F6000 ; Z hop
G0 X167.7371 Y148.0068 F6000 ; Move to next pattern
G1 Z0.4 F6000 ; Z hop return
G1 E0.7 F2100 ; Un-retract
SET_PRESSURE_ADVANCE ADVANCE=0.055 ; Set pressure advance
M117 PA 0.055
G1 X188.9503 Y169.22 E0.99515 F6000 ; Print pattern wall
G1 X167.7371 Y190.4332 E0.99515 F6000 ; Print pattern wall
G1 E-0.7 F2100 ; Retract
G1 Z0.5 F6000 ; Z hop
G0 X168.3128 Y148.0068 F6000 ; Move to start next pattern wall
G1 Z0.4 F6000 ; Z hop return
G1 E0.7 F2100 ; Un-retract
G1 X189.526 Y169.22 E0.99515 F6000 ; Print pattern wall
G1 X168.3128 Y190.4332 E0.99515 F6000 ; Print pattern wall
G1 E-0.7 F2100 ; Retract
G1 Z0.5 F6000 ; Z hop
G0 X168.8885 Y148.0068 F6000 ; Move to start next pattern wall
G1 Z0.4 F6000 ; Z hop return
G1 E0.7 F2100 ; Un-retract
G1 X190.1017 Y169.22 E0.99515 F6000 ; Print pattern wall
G1 X168.8885 Y190.4332 E0.99515 F6000 ; Print pattern wall
G1 E-0.7 F2100 ; Retract
G1 Z0.5 F6000 ; Z hop
G0 X171.3385 Y148.0068 F6000 ; Move to next pattern
G1 Z0.4 F6000 ; Z hop return
G1 E0.7 F2100 ; Un-retract
SET_PRESSURE_ADVANCE ADVANCE=0.06 ; Set pressure advance
M117 PA 0.06
G1 X192.5517 Y169.22 E0.99515 F6000 ; Print pattern wall
G1 X171.3385 Y190.4332 E0.99515 F6000 ; Print pattern wall
G1 E-0.7 F2100 ; Retract
G1 Z0.5 F6000 ; Z hop
G0 X171.9142 Y148.0068 F6000 ; Move to start next pattern wall
G1 Z0.4 F6000 ; Z hop return
G1 E0.7 F2100 ; Un-retract
G1 X193.1274 Y169.22 E0.99515 F6000 ; Print pattern wall
G1 X171.9142 Y190.4332 E0.99515 F6000 ; Print pattern wall
G1 E-0.7 F2100 ; Retract
G1 Z0.5 F6000 ; Z hop
G0 X172.4899 Y148.0068 F6000 ; Move to start next pattern wall
G1 Z0.4 F6000 ; Z hop return
G1 E0.7 F2100 ; Un-retract
G1 X193.7031 Y169.22 E0.99515 F6000 ; Print pattern wall
G1 X172.4899 Y190.4332 E0.99515 F6000 ; Print pattern wall
G1 E-0.7 F2100 ; Retract
G1 Z0.5 F6000 ; Z hop
G0 X174.9399 Y148.0068 F6000 ; Move to next pattern
G1 Z0.4 F6000 ; Z hop return
G1 E0.7 F2100 ; Un-retract
SET_PRESSURE_ADVANCE ADVANCE=0.065 ; Set pressure advance
M117 PA 0.065
G1 X196.1531 Y169.22 E0.99515 F6000 ; Print pattern wall
G1 X174.9399 Y190.4332 E0.99515 F6000 ; Print pattern wall
G1 E-0.7 F2100 ; Retract
G1 Z0.5 F6000 ; Z hop
G0 X175.5156 Y148.0068 F6000 ; Move to start next pattern wall
G1 Z0.4 F6000 ; Z hop return
G1 E0.7 F2100 ; Un-retract
G1 X196.7288 Y169.22 E0.99515 F6000 ; Print pattern wall
G1 X175.5156 Y190.4332 E0.99515 F6000 ; Print pattern wall
G1 E-0.7 F2100 ; Retract
G1 Z0.5 F6000 ; Z hop
G0 X176.0913 Y148.0068 F6000 ; Move to start next pattern wall
G1 Z0.4 F6000 ; Z hop return
G1 E0.7 F2100 ; Un-retract
G1 X197.3045 Y169.22 E0.99515 F6000 ; Print pattern wall
G1 X176.0913 Y190.4332 E0.99515 F6000 ; Print pattern wall
G1 E-0.7 F2100 ; Retract
G1 Z0.5 F6000 ; Z hop
G0 X178.5413 Y148.0068 F6000 ; Move to next pattern
G1 Z0.4 F6000 ; Z hop return
G1 E0.7 F2100 ; Un-retract
SET_PRESSURE_ADVANCE ADVANCE=0.07 ; Set pressure advance
M117 PA 0.07
G1 X199.7545 Y169.22 E0.99515 F6000 ; Print pattern wall
G1 X178.5413 Y190.4332 E0.99515 F6000 ; Print pattern wall
G1 E-0.7 F2100 ; Retract
G1 Z0.5 F6000 ; Z hop
G0 X179.117 Y148.0068 F6000 ; Move to start next pattern wall
G1 Z0.4 F6000 ; Z hop return
G1 E0.7 F2100 ; Un-retract
G1 X200.3302 Y169.22 E0.99515 F6000 ; Print pattern wall
G1 X179.117 Y190.4332 E0.99515 F6000 ; Print pattern wall
G1 E-0.7 F2100 ; Retract
G1 Z0.5 F6000 ; Z hop
G0 X179.6927 Y148.0068 F6000 ; Move to start next pattern wall
G1 Z0.4 F6000 ; Z hop return
G1 E0.7 F2100 ; Un-retract
G1 X200.9059 Y169.22 E0.99515 F6000 ; Print pattern wall
G1 X179.6927 Y190.4332 E0.99515 F6000 ; Print pattern wall
G1 E-0.7 F2100 ; Retract
G1 Z0.5 F6000 ; Z hop
G0 X182.1427 Y148.0068 F6000 ; Move to next pattern
G1 Z0.4 F6000 ; Z hop return
G1 E0.7 F2100 ; Un-retract
SET_PRESSURE_ADVANCE ADVANCE=0.075 ; Set pressure advance
M117 PA 0.075
G1 X203.3559 Y169.22 E0.99515 F6000 ; Print pattern wall
G1 X182.1427 Y190.4332 E0.99515 F6000 ; Print pattern wall
G1 E-0.7 F2100 ; Retract
G1 Z0.5 F6000 ; Z hop
G0 X182.7184 Y148.0068 F6000 ; Move to start next pattern wall
G1 Z0.4 F6000 ; Z hop return
G1 E0.7 F2100 ; Un-retract
G1 X203.9316 Y169.22 E0.99515 F6000 ; Print pattern wall
G1 X182.7184 Y190.4332 E0.99515 F6000 ; Print pattern wall
G1 E-0.7 F2100 ; Retract
G1 Z0.5 F6000 ; Z hop
G0 X183.2941 Y148.0068 F6000 ; Move to start next pattern wall
G1 Z0.4 F6000 ; Z hop return
G1 E0.7 F2100 ; Un-retract
G1 X204.5073 Y169.22 E0.99515 F6000 ; Print pattern wall
G1 X183.2941 Y190.4332 E0.99515 F6000 ; Print pattern wall
G1 E-0.7 F2100 ; Retract
G1 Z0.5 F6000 ; Z hop
G0 X185.7441 Y148.0068 F6000 ; Move to next pattern
G1 Z0.4 F6000 ; Z hop return
G1 E0.7 F2100 ; Un-retract
SET_PRESSURE_ADVANCE ADVANCE=0.08 ; Set pressure advance
M117 PA 0.08
G1 X206.9573 Y169.22 E0.99515 F6000 ; Print pattern wall
G1 X185.7441 Y190.4332 E0.99515 F6000 ; Print pattern wall
G1 E-0.7 F2100 ; Retract
G1 Z0.5 F6000 ; Z hop
G0 X186.3198 Y148.0068 F6000 ; Move to start next pattern wall
G1 Z0.4 F6000 ; Z hop return
G1 E0.7 F2100 ; Un-retract
G1 X207.533 Y169.22 E0.99515 F6000 ; Print pattern wall
G1 X186.3198 Y190.4332 E0.99515 F6000 ; Print pattern wall
G1 E-0.7 F2100 ; Retract
G1 Z0.5 F6000 ; Z hop
G0 X186.8955 Y148.0068 F6000 ; Move to start next pattern wall
G1 Z0.4 F6000 ; Z hop return
G1 E0.7 F2100 ; Un-retract
G1 X208.1087 Y169.22 E0.99515 F6000 ; Print pattern wall
G1 X186.8955 Y190.4332 E0.99515 F6000 ; Print pattern wall
G1 E-0.7 F2100 ; Retract
G1 Z0.5 F6000 ; Z hop
G0 X142.5273 Y148.0068 F6000 ; Move back to start position
G1 Z0.4 F6000 ; Z hop return
G1 E0.7 F2100 ; Un-retract
G0 Z0.6 F6000 ; Move to layer height
SET_PRESSURE_ADVANCE ADVANCE=0.02 ; Set pressure advance
M117 PA 0.02
G1 X163.7405 Y169.22 E0.99515 F6000 ; Print pattern wall
G1 X142.5273 Y190.4332 E0.99515 F6000 ; Print pattern wall
G1 E-0.7 F2100 ; Retract
G1 Z0.7 F6000 ; Z hop
G0 X143.103 Y148.0068 F6000 ; Move to start next pattern wall
G1 Z0.6 F6000 ; Z hop return
G1 E0.7 F2100 ; Un-retract
G1 X164.3162 Y169.22 E0.99515 F6000 ; Print pattern wall
G1 X143.103 Y190.4332 E0.99515 F6000 ; Print pattern wall
G1 E-0.7 F2100 ; Retract
G1 Z0.7 F6000 ; Z hop
G0 X143.6787 Y148.0068 F6000 ; Move to start next pattern wall
G1 Z0.6 F6000 ; Z hop return
G1 E0.7 F2100 ; Un-retract
G1 X164.8919 Y169.22 E0.99515 F6000 ; Print pattern wall
G1 X143.6787 Y190.4332 E0.99515 F6000 ; Print pattern wall
G1 E-0.7 F2100 ; Retract
G1 Z0.7 F6000 ; Z hop
G0 X146.1287 Y148.0068 F6000 ; Move to next pattern
G1 Z0.6 F6000 ; Z hop return
G1 E0.7 F2100 ; Un-retract
SET_PRESSURE_ADVANCE ADVANCE=0.025 ; Set pressure advance
M117 PA 0.025
G1 X167.3419 Y169.22 E0.99515 F6000 ; Print pattern wall
G1 X146.1287 Y190.4332 E0.99515 F6000 ; Print pattern wall
G1 E-0.7 F2100 ; Retract
G1 Z0.7 F6000 ; Z hop
G0 X146.7044 Y148.0068 F6000 ; Move to start next pattern wall
G1 Z0.6 F6000 ; Z hop return
G1 E0.7 F2100 ; Un-retract
G1 X167.9176 Y169.22 E0.99515 F6000 ; Print pattern wall
G1 X146.7044 Y190.4332 E0.99515 F6000 ; Print pattern wall
G1 E-0.7 F2100 ; Retract
G1 Z0.7 F6000 ; Z hop
G0 X147.2801 Y148.0068 F6000 ; Move to start next pattern wall
G1 Z0.6 F6000 ; Z hop return
G1 E0.7 F2100 ; Un-retract
G1 X168.4933 Y169.22 E0.99515 F6000 ; Print pattern wall
G1 X147.2801 Y190.4332 E0.99515 F6000 ; Print pattern wall
G1 E-0.7 F2100 ; Retract
G1 Z0.7 F6000 ; Z hop
G0 X149.7301 Y148.0068 F6000 ; Move to next pattern
G1 Z0.6 F6000 ; Z hop return
G1 E0.7 F2100 ; Un-retract
SET_PRESSURE_ADVANCE ADVANCE=0.03 ; Set pressure advance
M117 PA 0.03
G1 X170.9433 Y169.22 E0.99515 F6000 ; Print pattern wall
G1 X149.7301 Y190.4332 E0.99515 F6000 ; Print pattern wall
G1 E-0.7 F2100 ; Retract
G1 Z0.7 F6000 ; Z hop
G0 X150.3058 Y148.0068 F6000 ; Move to start next pattern wall
G1 Z0.6 F6000 ; Z hop return
G1 E0.7 F2100 ; Un-retract
G1 X171.519 Y169.22 E0.99515 F6000 ; Print pattern wall
G1 X150.3058 Y190.4332 E0.99515 F6000 ; Print pattern wall
G1 E-0.7 F2100 ; Retract
G1 Z0.7 F6000 ; Z hop
G0 X150.8815 Y148.0068 F6000 ; Move to start next pattern wall
G1 Z0.6 F6000 ; Z hop return
G1 E0.7 F2100 ; Un-retract
G1 X172.0947 Y169.22 E0.99515 F6000 ; Print pattern wall
G1 X150.8815 Y190.4332 E0.99515 F6000 ; Print pattern wall
G1 E-0.7 F2100 ; Retract
G1 Z0.7 F6000 ; Z hop
G0 X153.3315 Y148.0068 F6000 ; Move to next pattern
G1 Z0.6 F6000 ; Z hop return
G1 E0.7 F2100 ; Un-retract
SET_PRESSURE_ADVANCE ADVANCE=0.035 ; Set pressure advance
M117 PA 0.035
G1 X174.5447 Y169.22 E0.99515 F6000 ; Print pattern wall
G1 X153.3315 Y190.4332 E0.99515 F6000 ; Print pattern wall
G1 E-0.7 F2100 ; Retract
G1 Z0.7 F6000 ; Z hop
G0 X153.9072 Y148.0068 F6000 ; Move to start next pattern wall
G1 Z0.6 F6000 ; Z hop return
G1 E0.7 F2100 ; Un-retract
G1 X175.1204 Y169.22 E0.99515 F6000 ; Print pattern wall
G1 X153.9072 Y190.4332 E0.99515 F6000 ; Print pattern wall
G1 E-0.7 F2100 ; Retract
G1 Z0.7 F6000 ; Z hop
G0 X154.4829 Y148.0068 F6000 ; Move to start next pattern wall
G1 Z0.6 F6000 ; Z hop return
G1 E0.7 F2100 ; Un-retract
G1 X175.6961 Y169.22 E0.99515 F6000 ; Print pattern wall
G1 X154.4829 Y190.4332 E0.99515 F6000 ; Print pattern wall
G1 E-0.7 F2100 ; Retract
G1 Z0.7 F6000 ; Z hop
G0 X156.9329 Y148.0068 F6000 ; Move to next pattern
G1 Z0.6 F6000 ; Z hop return
G1 E0.7 F2100 ; Un-retract
SET_PRESSURE_ADVANCE ADVANCE=0.04 ; Set pressure advance
M117 PA 0.04
G1 X178.1461 Y169.22 E0.99515 F6000 ; Print pattern wall
G1 X156.9329 Y190.4332 E0.99515 F6000 ; Print pattern wall
G1 E-0.7 F2100 ; Retract
G1 Z0.7 F6000 ; Z hop
G0 X157.5086 Y148.0068 F6000 ; Move to start next pattern wall
G1 Z0.6 F6000 ; Z hop return
G1 E0.7 F2100 ; Un-retract
G1 X178.7218 Y169.22 E0.99515 F6000 ; Print pattern wall
G1 X157.5086 Y190.4332 E0.99515 F6000 ; Print pattern wall
G1 E-0.7 F2100 ; Retract
G1 Z0.7 F6000 ; Z hop
G0 X158.0843 Y148.0068 F6000 ; Move to start next pattern wall
G1 Z0.6 F6000 ; Z hop return
G1 E0.7 F2100 ; Un-retract
G1 X179.2975 Y169.22 E0.99515 F6000 ; Print pattern wall
G1 X158.0843 Y190.4332 E0.99515 F6000 ; Print pattern wall
G1 E-0.7 F2100 ; Retract
G1 Z0.7 F6000 ; Z hop
G0 X160.5343 Y148.0068 F6000 ; Move to next pattern
G1 Z0.6 F6000 ; Z hop return
G1 E0.7 F2100 ; Un-retract
SET_PRESSURE_ADVANCE ADVANCE=0.045 ; Set pressure advance
M117 PA 0.045
G1 X181.7475 Y169.22 E0.99515 F6000 ; Print pattern wall
G1 X160.5343 Y190.4332 E0.99515 F6000 ; Print pattern wall
G1 E-0.7 F2100 ; Retract
G1 Z0.7 F6000 ; Z hop
G0 X161.11 Y148.0068 F6000 ; Move to start next pattern wall
G1 Z0.6 F6000 ; Z hop return
G1 E0.7 F2100 ; Un-retract
G1 X182.3232 Y169.22 E0.99515 F6000 ; Print pattern wall
G1 X161.11 Y190.4332 E0.99515 F6000 ; Print pattern wall
G1 E-0.7 F2100 ; Retract
G1 Z0.7 F6000 ; Z hop
G0 X161.6857 Y148.0068 F6000 ; Move to start next pattern wall
G1 Z0.6 F6000 ; Z hop return
G1 E0.7 F2100 ; Un-retract
G1 X182.8989 Y169.22 E0.99515 F6000 ; Print pattern wall
G1 X161.6857 Y190.4332 E0.99515 F6000 ; Print pattern wall
G1 E-0.7 F2100 ; Retract
G1 Z0.7 F6000 ; Z hop
G0 X164.1357 Y148.0068 F6000 ; Move to next pattern
G1 Z0.6 F6000 ; Z hop return
G1 E0.7 F2100 ; Un-retract
SET_PRESSURE_ADVANCE ADVANCE=0.05 ; Set pressure advance
M117 PA 0.05
G1 X185.3489 Y169.22 E0.99515 F6000 ; Print pattern wall
G1 X164.1357 Y190.4332 E0.99515 F6000 ; Print pattern wall
G1 E-0.7 F2100 ; Retract
G1 Z0.7 F6000 ; Z hop
G0 X164.7114 Y148.0068 F6000 ; Move to start next pattern wall
G1 Z0.6 F6000 ; Z hop return
G1 E0.7 F2100 ; Un-retract
G1 X185.9246 Y169.22 E0.99515 F6000 ; Print pattern wall
G1 X164.7114 Y190.4332 E0.99515 F6000 ; Print pattern wall
G1 E-0.7 F2100 ; Retract
G1 Z0.7 F6000 ; Z hop
G0 X165.2871 Y148.0068 F6000 ; Move to start next pattern wall
G1 Z0.6 F6000 ; Z hop return
G1 E0.7 F2100 ; Un-retract
G1 X186.5003 Y169.22 E0.99515 F6000 ; Print pattern wall
G1 X165.2871 Y190.4332 E0.99515 F6000 ; Print pattern wall
G1 E-0.7 F2100 ; Retract
G1 Z0.7 F6000 ; Z hop
G0 X167.7371 Y148.0068 F6000 ; Move to next pattern
G1 Z0.6 F6000 ; Z hop return
G1 E0.7 F2100 ; Un-retract
SET_PRESSURE_ADVANCE ADVANCE=0.055 ; Set pressure advance
M117 PA 0.055
G1 X188.9503 Y169.22 E0.99515 F6000 ; Print pattern wall
G1 X167.7371 Y190.4332 E0.99515 F6000 ; Print pattern wall
G1 E-0.7 F2100 ; Retract
G1 Z0.7 F6000 ; Z hop
G0 X168.3128 Y148.0068 F6000 ; Move to start next pattern wall
G1 Z0.6 F6000 ; Z hop return
G1 E0.7 F2100 ; Un-retract
G1 X189.526 Y169.22 E0.99515 F6000 ; Print pattern wall
G1 X168.3128 Y190.4332 E0.99515 F6000 ; Print pattern wall
G1 E-0.7 F2100 ; Retract
G1 Z0.7 F6000 ; Z hop
G0 X168.8885 Y148.0068 F6000 ; Move to start next pattern wall
G1 Z0.6 F6000 ; Z hop return
G1 E0.7 F2100 ; Un-retract
G1 X190.1017 Y169.22 E0.99515 F6000 ; Print pattern wall
G1 X168.8885 Y190.4332 E0.99515 F6000 ; Print pattern wall
G1 E-0.7 F2100 ; Retract
G1 Z0.7 F6000 ; Z hop
G0 X171.3385 Y148.0068 F6000 ; Move to next pattern
G1 Z0.6 F6000 ; Z hop return
G1 E0.7 F2100 ; Un-retract
SET_PRESSURE_ADVANCE ADVANCE=0.06 ; Set pressure advance
M117 PA 0.06
G1 X192.5517 Y169.22 E0.99515 F6000 ; Print pattern wall
G1 X171.3385 Y190.4332 E0.99515 F6000 ; Print pattern wall
G1 E-0.7 F2100 ; Retract
G1 Z0.7 F6000 ; Z hop
G0 X171.9142 Y148.0068 F6000 ; Move to start next pattern wall
G1 Z0.6 F6000 ; Z hop return
G1 E0.7 F2100 ; Un-retract
G1 X193.1274 Y169.22 E0.99515 F6000 ; Print pattern wall
G1 X171.9142 Y190.4332 E0.99515 F6000 ; Print pattern wall
G1 E-0.7 F2100 ; Retract
G1 Z0.7 F6000 ; Z hop
G0 X172.4899 Y148.0068 F6000 ; Move to start next pattern wall
G1 Z0.6 F6000 ; Z hop return
G1 E0.7 F2100 ; Un-retract
G1 X193.7031 Y169.22 E0.99515 F6000 ; Print pattern wall
G1 X172.4899 Y190.4332 E0.99515 F6000 ; Print pattern wall
G1 E-0.7 F2100 ; Retract
G1 Z0.7 F6000 ; Z hop
G0 X174.9399 Y148.0068 F6000 ; Move to next pattern
G1 Z0.6 F6000 ; Z hop return
G1 E0.7 F2100 ; Un-retract
SET_PRESSURE_ADVANCE ADVANCE=0.065 ; Set pressure advance
M117 PA 0.065
G1 X196.1531 Y169.22 E0.99515 F6000 ; Print pattern wall
G1 X174.9399 Y190.4332 E0.99515 F6000 ; Print pattern wall
G1 E-0.7 F2100 ; Retract
G1 Z0.7 F6000 ; Z hop
G0 X175.5156 Y148.0068 F6000 ; Move to start next pattern wall
G1 Z0.6 F6000 ; Z hop return
G1 E0.7 F2100 ; Un-retract
G1 X196.7288 Y169.22 E0.99515 F6000 ; Print pattern wall
G1 X175.5156 Y190.4332 E0.99515 F6000 ; Print pattern wall
G1 E-0.7 F2100 ; Retract
G1 Z0.7 F6000 ; Z hop
G0 X176.0913 Y148.0068 F6000 ; Move to start next pattern wall
G1 Z0.6 F6000 ; Z hop return
G1 E0.7 F2100 ; Un-retract
G1 X197.3045 Y169.22 E0.99515 F6000 ; Print pattern wall
G1 X176.0913 Y190.4332 E0.99515 F6000 ; Print pattern wall
G1 E-0.7 F2100 ; Retract
G1 Z0.7 F6000 ; Z hop
G0 X178.5413 Y148.0068 F6000 ; Move to next pattern
G1 Z0.6 F6000 ; Z hop return
G1 E0.7 F2100 ; Un-retract
SET_PRESSURE_ADVANCE ADVANCE=0.07 ; Set pressure advance
M117 PA 0.07
G1 X199.7545 Y169.22 E0.99515 F6000 ; Print pattern wall
G1 X178.5413 Y190.4332 E0.99515 F6000 ; Print pattern wall
G1 E-0.7 F2100 ; Retract
G1 Z0.7 F6000 ; Z hop
G0 X179.117 Y148.0068 F6000 ; Move to start next pattern wall
G1 Z0.6 F6000 ; Z hop return
G1 E0.7 F2100 ; Un-retract
G1 X200.3302 Y169.22 E0.99515 F6000 ; Print pattern wall
G1 X179.117 Y190.4332 E0.99515 F6000 ; Print pattern wall
G1 E-0.7 F2100 ; Retract
G1 Z0.7 F6000 ; Z hop
G0 X179.6927 Y148.0068 F6000 ; Move to start next pattern wall
G1 Z0.6 F6000 ; Z hop return
G1 E0.7 F2100 ; Un-retract
G1 X200.9059 Y169.22 E0.99515 F6000 ; Print pattern wall
G1 X179.6927 Y190.4332 E0.99515 F6000 ; Print pattern wall
G1 E-0.7 F2100 ; Retract
G1 Z0.7 F6000 ; Z hop
G0 X182.1427 Y148.0068 F6000 ; Move to next pattern
G1 Z0.6 F6000 ; Z hop return
G1 E0.7 F2100 ; Un-retract
SET_PRESSURE_ADVANCE ADVANCE=0.075 ; Set pressure advance
M117 PA 0.075
G1 X203.3559 Y169.22 E0.99515 F6000 ; Print pattern wall
G1 X182.1427 Y190.4332 E0.99515 F6000 ; Print pattern wall
G1 E-0.7 F2100 ; Retract
G1 Z0.7 F6000 ; Z hop
G0 X182.7184 Y148.0068 F6000 ; Move to start next pattern wall
G1 Z0.6 F6000 ; Z hop return
G1 E0.7 F2100 ; Un-retract
G1 X203.9316 Y169.22 E0.99515 F6000 ; Print pattern wall
G1 X182.7184 Y190.4332 E0.99515 F6000 ; Print pattern wall
G1 E-0.7 F2100 ; Retract
G1 Z0.7 F6000 ; Z hop
G0 X183.2941 Y148.0068 F6000 ; Move to start next pattern wall
G1 Z0.6 F6000 ; Z hop return
G1 E0.7 F2100 ; Un-retract
G1 X204.5073 Y169.22 E0.99515 F6000 ; Print pattern wall
G1 X183.2941 Y190.4332 E0.99515 F6000 ; Print pattern wall
G1 E-0.7 F2100 ; Retract
G1 Z0.7 F6000 ; Z hop
G0 X185.7441 Y148.0068 F6000 ; Move to next pattern
G1 Z0.6 F6000 ; Z hop return
G1 E0.7 F2100 ; Un-retract
SET_PRESSURE_ADVANCE ADVANCE=0.08 ; Set pressure advance
M117 PA 0.08
G1 X206.9573 Y169.22 E0.99515 F6000 ; Print pattern wall
G1 X185.7441 Y190.4332 E0.99515 F6000 ; Print pattern wall
G1 E-0.7 F2100 ; Retract
G1 Z0.7 F6000 ; Z hop
G0 X186.3198 Y148.0068 F6000 ; Move to start next pattern wall
G1 Z0.6 F6000 ; Z hop return
G1 E0.7 F2100 ; Un-retract
G1 X207.533 Y169.22 E0.99515 F6000 ; Print pattern wall
G1 X186.3198 Y190.4332 E0.99515 F6000 ; Print pattern wall
G1 E-0.7 F2100 ; Retract
G1 Z0.7 F6000 ; Z hop
G0 X186.8955 Y148.0068 F6000 ; Move to start next pattern wall
G1 Z0.6 F6000 ; Z hop return
G1 E0.7 F2100 ; Un-retract
G1 X208.1087 Y169.22 E0.99515 F6000 ; Print pattern wall
G1 X186.8955 Y190.4332 E0.99515 F6000 ; Print pattern wall
G1 E-0.7 F2100 ; Retract
G1 Z0.7 F6000 ; Z hop
G0 X142.5273 Y148.0068 F6000 ; Move back to start position
G1 Z0.6 F6000 ; Z hop return
G1 E0.7 F2100 ; Un-retract
G0 Z0.8 F6000 ; Move to layer height
SET_PRESSURE_ADVANCE ADVANCE=0.02 ; Set pressure advance
M117 PA 0.02
G1 X163.7405 Y169.22 E0.99515 F6000 ; Print pattern wall
G1 X142.5273 Y190.4332 E0.99515 F6000 ; Print pattern wall
G1 E-0.7 F2100 ; Retract
G1 Z0.9 F6000 ; Z hop
G0 X143.103 Y148.0068 F6000 ; Move to start next pattern wall
G1 Z0.8 F6000 ; Z hop return
G1 E0.7 F2100 ; Un-retract
G1 X164.3162 Y169.22 E0.99515 F6000 ; Print pattern wall
G1 X143.103 Y190.4332 E0.99515 F6000 ; Print pattern wall
G1 E-0.7 F2100 ; Retract
G1 Z0.9 F6000 ; Z hop
G0 X143.6787 Y148.0068 F6000 ; Move to start next pattern wall
G1 Z0.8 F6000 ; Z hop return
G1 E0.7 F2100 ; Un-retract
G1 X164.8919 Y169.22 E0.99515 F6000 ; Print pattern wall
G1 X143.6787 Y190.4332 E0.99515 F6000 ; Print pattern wall
G1 E-0.7 F2100 ; Retract
G1 Z0.9 F6000 ; Z hop
G0 X146.1287 Y148.0068 F6000 ; Move to next pattern
G1 Z0.8 F6000 ; Z hop return
G1 E0.7 F2100 ; Un-retract
SET_PRESSURE_ADVANCE ADVANCE=0.025 ; Set pressure advance
M117 PA 0.025
G1 X167.3419 Y169.22 E0.99515 F6000 ; Print pattern wall
G1 X146.1287 Y190.4332 E0.99515 F6000 ; Print pattern wall
G1 E-0.7 F2100 ; Retract
G1 Z0.9 F6000 ; Z hop
G0 X146.7044 Y148.0068 F6000 ; Move to start next pattern wall
G1 Z0.8 F6000 ; Z hop return
G1 E0.7 F2100 ; Un-retract
G1 X167.9176 Y169.22 E0.99515 F6000 ; Print pattern wall
G1 X146.7044 Y190.4332 E0.99515 F6000 ; Print pattern wall
G1 E-0.7 F2100 ; Retract
G1 Z0.9 F6000 ; Z hop
G0 X147.2801 Y148.0068 F6000 ; Move to start next pattern wall
G1 Z0.8 F6000 ; Z hop return
G1 E0.7 F2100 ; Un-retract
G1 X168.4933 Y169.22 E0.99515 F6000 ; Print pattern wall
G1 X147.2801 Y190.4332 E0.99515 F6000 ; Print pattern wall
G1 E-0.7 F2100 ; Retract
G1 Z0.9 F6000 ; Z hop
G0 X149.7301 Y148.0068 F6000 ; Move to next pattern
G1 Z0.8 F6000 ; Z hop return
G1 E0.7 F2100 ; Un-retract
SET_PRESSURE_ADVANCE ADVANCE=0.03 ; Set pressure advance
M117 PA 0.03
G1 X170.9433 Y169.22 E0.99515 F6000 ; Print pattern wall
G1 X149.7301 Y190.4332 E0.99515 F6000 ; Print pattern wall
G1 E-0.7 F2100 ; Retract
G1 Z0.9 F6000 ; Z hop
G0 X150.3058 Y148.0068 F6000 ; Move to start next pattern wall
G1 Z0.8 F6000 ; Z hop return
G1 E0.7 F2100 ; Un-retract
G1 X171.519 Y169.22 E0.99515 F6000 ; Print pattern wall
G1 X150.3058 Y190.4332 E0.99515 F6000 ; Print pattern wall
G1 E-0.7 F2100 ; Retract
G1 Z0.9 F6000 ; Z hop
G0 X150.8815 Y148.0068 F6000 ; Move to start next pattern wall
G1 Z0.8 F6000 ; Z hop return
G1 E0.7 F2100 ; Un-retract
G1 X172.0947 Y169.22 E0.99515 F6000 ; Print pattern wall
G1 X150.8815 Y190.4332 E0.99515 F6000 ; Print pattern wall
G1 E-0.7 F2100 ; Retract
G1 Z0.9 F6000 ; Z hop
G0 X153.3315 Y148.0068 F6000 ; Move to next pattern
G1 Z0.8 F6000 ; Z hop return
G1 E0.7 F2100 ; Un-retract
SET_PRESSURE_ADVANCE ADVANCE=0.035 ; Set pressure advance
M117 PA 0.035
G1 X174.5447 Y169.22 E0.99515 F6000 ; Print pattern wall
G1 X153.3315 Y190.4332 E0.99515 F6000 ; Print pattern wall
G1 E-0.7 F2100 ; Retract
G1 Z0.9 F6000 ; Z hop
G0 X153.9072 Y148.0068 F6000 ; Move to start next pattern wall
G1 Z0.8 F6000 ; Z hop return
G1 E0.7 F2100 ; Un-retract
G1 X175.1204 Y169.22 E0.99515 F6000 ; Print pattern wall
G1 X153.9072 Y190.4332 E0.99515 F6000 ; Print pattern wall
G1 E-0.7 F2100 ; Retract
G1 Z0.9 F6000 ; Z hop
G0 X154.4829 Y148.0068 F6000 ; Move to start next pattern wall
G1 Z0.8 F6000 ; Z hop return
G1 E0.7 F2100 ; Un-retract
G1 X175.6961 Y169.22 E0.99515 F6000 ; Print pattern wall
G1 X154.4829 Y190.4332 E0.99515 F6000 ; Print pattern wall
G1 E-0.7 F2100 ; Retract
G1 Z0.9 F6000 ; Z hop
G0 X156.9329 Y148.0068 F6000 ; Move to next pattern
G1 Z0.8 F6000 ; Z hop return
G1 E0.7 F2100 ; Un-retract
SET_PRESSURE_ADVANCE ADVANCE=0.04 ; Set pressure advance
M117 PA 0.04
G1 X178.1461 Y169.22 E0.99515 F6000 ; Print pattern wall
G1 X156.9329 Y190.4332 E0.99515 F6000 ; Print pattern wall
G1 E-0.7 F2100 ; Retract
G1 Z0.9 F6000 ; Z hop
G0 X157.5086 Y148.0068 F6000 ; Move to start next pattern wall
G1 Z0.8 F6000 ; Z hop return
G1 E0.7 F2100 ; Un-retract
G1 X178.7218 Y169.22 E0.99515 F6000 ; Print pattern wall
G1 X157.5086 Y190.4332 E0.99515 F6000 ; Print pattern wall
G1 E-0.7 F2100 ; Retract
G1 Z0.9 F6000 ; Z hop
G0 X158.0843 Y148.0068 F6000 ; Move to start next pattern wall
G1 Z0.8 F6000 ; Z hop return
G1 E0.7 F2100 ; Un-retract
G1 X179.2975 Y169.22 E0.99515 F6000 ; Print pattern wall
G1 X158.0843 Y190.4332 E0.99515 F6000 ; Print pattern wall
G1 E-0.7 F2100 ; Retract
G1 Z0.9 F6000 ; Z hop
G0 X160.5343 Y148.0068 F6000 ; Move to next pattern
G1 Z0.8 F6000 ; Z hop return
G1 E0.7 F2100 ; Un-retract
SET_PRESSURE_ADVANCE ADVANCE=0.045 ; Set pressure advance
M117 PA 0.045
G1 X181.7475 Y169.22 E0.99515 F6000 ; Print pattern wall
G1 X160.5343 Y190.4332 E0.99515 F6000 ; Print pattern wall
G1 E-0.7 F2100 ; Retract
G1 Z0.9 F6000 ; Z hop
G0 X161.11 Y148.0068 F6000 ; Move to start next pattern wall
G1 Z0.8 F6000 ; Z hop return
G1 E0.7 F2100 ; Un-retract
G1 X182.3232 Y169.22 E0.99515 F6000 ; Print pattern wall
G1 X161.11 Y190.4332 E0.99515 F6000 ; Print pattern wall
G1 E-0.7 F2100 ; Retract
G1 Z0.9 F6000 ; Z hop
G0 X161.6857 Y148.0068 F6000 ; Move to start next pattern wall
G1 Z0.8 F6000 ; Z hop return
G1 E0.7 F2100 ; Un-retract
G1 X182.8989 Y169.22 E0.99515 F6000 ; Print pattern wall
G1 X161.6857 Y190.4332 E0.99515 F6000 ; Print pattern wall
G1 E-0.7 F2100 ; Retract
G1 Z0.9 F6000 ; Z hop
G0 X164.1357 Y148.0068 F6000 ; Move to next pattern
G1 Z0.8 F6000 ; Z hop return
G1 E0.7 F2100 ; Un-retract
SET_PRESSURE_ADVANCE ADVANCE=0.05 ; Set pressure advance
M117 PA 0.05
G1 X185.3489 Y169.22 E0.99515 F6000 ; Print pattern wall
G1 X164.1357 Y190.4332 E0.99515 F6000 ; Print pattern wall
G1 E-0.7 F2100 ; Retract
G1 Z0.9 F6000 ; Z hop
G0 X164.7114 Y148.0068 F6000 ; Move to start next pattern wall
G1 Z0.8 F6000 ; Z hop return
G1 E0.7 F2100 ; Un-retract
G1 X185.9246 Y169.22 E0.99515 F6000 ; Print pattern wall
G1 X164.7114 Y190.4332 E0.99515 F6000 ; Print pattern wall
G1 E-0.7 F2100 ; Retract
G1 Z0.9 F6000 ; Z hop
G0 X165.2871 Y148.0068 F6000 ; Move to start next pattern wall
G1 Z0.8 F6000 ; Z hop return
G1 E0.7 F2100 ; Un-retract
G1 X186.5003 Y169.22 E0.99515 F6000 ; Print pattern wall
G1 X165.2871 Y190.4332 E0.99515 F6000 ; Print pattern wall
G1 E-0.7 F2100 ; Retract
G1 Z0.9 F6000 ; Z hop
G0 X167.7371 Y148.0068 F6000 ; Move to next pattern
G1 Z0.8 F6000 ; Z hop return
G1 E0.7 F2100 ; Un-retract
SET_PRESSURE_ADVANCE ADVANCE=0.055 ; Set pressure advance
M117 PA 0.055
G1 X188.9503 Y169.22 E0.99515 F6000 ; Print pattern wall
G1 X167.7371 Y190.4332 E0.99515 F6000 ; Print pattern wall
G1 E-0.7 F2100 ; Retract
G1 Z0.9 F6000 ; Z hop
G0 X168.3128 Y148.0068 F6000 ; Move to start next pattern wall
G1 Z0.8 F6000 ; Z hop return
G1 E0.7 F2100 ; Un-retract
G1 X189.526 Y169.22 E0.99515 F6000 ; Print pattern wall
G1 X168.3128 Y190.4332 E0.99515 F6000 ; Print pattern wall
G1 E-0.7 F2100 ; Retract
G1 Z0.9 F6000 ; Z hop
G0 X168.8885 Y148.0068 F6000 ; Move to start next pattern wall
G1 Z0.8 F6000 ; Z hop return
G1 E0.7 F2100 ; Un-retract
G1 X190.1017 Y169.22 E0.99515 F6000 ; Print pattern wall
G1 X168.8885 Y190.4332 E0.99515 F6000 ; Print pattern wall
G1 E-0.7 F2100 ; Retract
G1 Z0.9 F6000 ; Z hop
G0 X171.3385 Y148.0068 F6000 ; Move to next pattern
G1 Z0.8 F6000 ; Z hop return
G1 E0.7 F2100 ; Un-retract
SET_PRESSURE_ADVANCE ADVANCE=0.06 ; Set pressure advance
M117 PA 0.06
G1 X192.5517 Y169.22 E0.99515 F6000 ; Print pattern wall
G1 X171.3385 Y190.4332 E0.99515 F6000 ; Print pattern wall
G1 E-0.7 F2100 ; Retract
G1 Z0.9 F6000 ; Z hop
G0 X171.9142 Y148.0068 F6000 ; Move to start next pattern wall
G1 Z0.8 F6000 ; Z hop return
G1 E0.7 F2100 ; Un-retract
G1 X193.1274 Y169.22 E0.99515 F6000 ; Print pattern wall
G1 X171.9142 Y190.4332 E0.99515 F6000 ; Print pattern wall
G1 E-0.7 F2100 ; Retract
G1 Z0.9 F6000 ; Z hop
G0 X172.4899 Y148.0068 F6000 ; Move to start next pattern wall
G1 Z0.8 F6000 ; Z hop return
G1 E0.7 F2100 ; Un-retract
G1 X193.7031 Y169.22 E0.99515 F6000 ; Print pattern wall
G1 X172.4899 Y190.4332 E0.99515 F6000 ; Print pattern wall
G1 E-0.7 F2100 ; Retract
G1 Z0.9 F6000 ; Z hop
G0 X174.9399 Y148.0068 F6000 ; Move to next pattern
G1 Z0.8 F6000 ; Z hop return
G1 E0.7 F2100 ; Un-retract
SET_PRESSURE_ADVANCE ADVANCE=0.065 ; Set pressure advance
M117 PA 0.065
G1 X196.1531 Y169.22 E0.99515 F6000 ; Print pattern wall
G1 X174.9399 Y190.4332 E0.99515 F6000 ; Print pattern wall
G1 E-0.7 F2100 ; Retract
G1 Z0.9 F6000 ; Z hop
G0 X175.5156 Y148.0068 F6000 ; Move to start next pattern wall
G1 Z0.8 F6000 ; Z hop return
G1 E0.7 F2100 ; Un-retract
G1 X196.7288 Y169.22 E0.99515 F6000 ; Print pattern wall
G1 X175.5156 Y190.4332 E0.99515 F6000 ; Print pattern wall
G1 E-0.7 F2100 ; Retract
G1 Z0.9 F6000 ; Z hop
G0 X176.0913 Y148.0068 F6000 ; Move to start next pattern wall
G1 Z0.8 F6000 ; Z hop return
G1 E0.7 F2100 ; Un-retract
G1 X197.3045 Y169.22 E0.99515 F6000 ; Print pattern wall
G1 X176.0913 Y190.4332 E0.99515 F6000 ; Print pattern wall
G1 E-0.7 F2100 ; Retract
G1 Z0.9 F6000 ; Z hop
G0 X178.5413 Y148.0068 F6000 ; Move to next pattern
G1 Z0.8 F6000 ; Z hop return
G1 E0.7 F2100 ; Un-retract
SET_PRESSURE_ADVANCE ADVANCE=0.07 ; Set pressure advance
M117 PA 0.07
G1 X199.7545 Y169.22 E0.99515 F6000 ; Print pattern wall
G1 X178.5413 Y190.4332 E0.99515 F6000 ; Print pattern wall
G1 E-0.7 F2100 ; Retract
G1 Z0.9 F6000 ; Z hop
G0 X179.117 Y148.0068 F6000 ; Move to start next pattern wall
G1 Z0.8 F6000 ; Z hop return
G1 E0.7 F2100 ; Un-retract
G1 X200.3302 Y169.22 E0.99515 F6000 ; Print pattern wall
G1 X179.117 Y190.4332 E0.99515 F6000 ; Print pattern wall
G1 E-0.7 F2100 ; Retract
G1 Z0.9 F6000 ; Z hop
G0 X179.6927 Y148.0068 F6000 ; Move to start next pattern wall
G1 Z0.8 F6000 ; Z hop return
G1 E0.7 F2100 ; Un-retract
G1 X200.9059 Y169.22 E0.99515 F6000 ; Print pattern wall
G1 X179.6927 Y190.4332 E0.99515 F6000 ; Print pattern wall
G1 E-0.7 F2100 ; Retract
G1 Z0.9 F6000 ; Z hop
G0 X182.1427 Y148.0068 F6000 ; Move to next pattern
G1 Z0.8 F6000 ; Z hop return
G1 E0.7 F2100 ; Un-retract
SET_PRESSURE_ADVANCE ADVANCE=0.075 ; Set pressure advance
M117 PA 0.075
G1 X203.3559 Y169.22 E0.99515 F6000 ; Print pattern wall
G1 X182.1427 Y190.4332 E0.99515 F6000 ; Print pattern wall
G1 E-0.7 F2100 ; Retract
G1 Z0.9 F6000 ; Z hop
G0 X182.7184 Y148.0068 F6000 ; Move to start next pattern wall
G1 Z0.8 F6000 ; Z hop return
G1 E0.7 F2100 ; Un-retract
G1 X203.9316 Y169.22 E0.99515 F6000 ; Print pattern wall
G1 X182.7184 Y190.4332 E0.99515 F6000 ; Print pattern wall
G1 E-0.7 F2100 ; Retract
G1 Z0.9 F6000 ; Z hop
G0 X183.2941 Y148.0068 F6000 ; Move to start next pattern wall
G1 Z0.8 F6000 ; Z hop return
G1 E0.7 F2100 ; Un-retract
G1 X204.5073 Y169.22 E0.99515 F6000 ; Print pattern wall
G1 X183.2941 Y190.4332 E0.99515 F6000 ; Print pattern wall
G1 E-0.7 F2100 ; Retract
G1 Z0.9 F6000 ; Z hop
G0 X185.7441 Y148.0068 F6000 ; Move to next pattern
G1 Z0.8 F6000 ; Z hop return
G1 E0.7 F2100 ; Un-retract
SET_PRESSURE_ADVANCE ADVANCE=0.08 ; Set pressure advance
M117 PA 0.08
G1 X206.9573 Y169.22 E0.99515 F6000 ; Print pattern wall
G1 X185.7441 Y190.4332 E0.99515 F6000 ; Print pattern wall
G1 E-0.7 F2100 ; Retract
G1 Z0.9 F6000 ; Z hop
G0 X186.3198 Y148.0068 F6000 ; Move to start next pattern wall
G1 Z0.8 F6000 ; Z hop return
G1 E0.7 F2100 ; Un-retract
G1 X207.533 Y169.22 E0.99515 F6000 ; Print pattern wall
G1 X186.3198 Y190.4332 E0.99515 F6000 ; Print pattern wall
G1 E-0.7 F2100 ; Retract
G1 Z0.9 F6000 ; Z hop
G0 X186.8955 Y148.0068 F6000 ; Move to start next pattern wall
G1 Z0.8 F6000 ; Z hop return
G1 E0.7 F2100 ; Un-retract
G1 X208.1087 Y169.22 E0.99515 F6000 ; Print pattern wall
G1 X186.8955 Y190.4332 E0.99515 F6000 ; Print pattern wall
SET_PRESSURE_ADVANCE ADVANCE=0.02 ; Set pressure advance back to start value
M117 PA 0.02
G1 E-0.7 F2100 ; Retract
G1 Z0.9 F6000 ; Z hop
G0 Z5.8 F6000 ; Z raise
M104 S0 ; Turn off hotend
M140 S0 ; Turn off bed
M107    ; Turn off fan
;
; End G-code
;
END_PRINT
;
; FINISH
;
