
; ### Ellis' Pressure Advance / Linear Advance Calibration Tool ###
;
; Original Marlin linear advance calibration tool by Sineos [https://github.com/Sineos]
; Heavily modified/rewritten by Andrew Ellis [https://github.com/AndrewEllis93]
;
; -------------------------------------------
; Generated: Wed Sep 20 2023 06:13:36 GMT-0400 (Eastern Daylight Time)
; -------------------------------------------
;
; Advanced Mode: false
;
; Printer:
;  - Firmware: klipper
;  - Bed Shape: Rect
;  - Bed Size X: 350 mm
;  - Bed Size Y: 350 mm
;  - Origin Bed Center: false
;  - Travel Speed: 100 mm/s
;  - Nozzle Diameter: 0.4 mm
;  - Filament Diameter: 1.75 mm
;  - Extrusion Multiplier: 0.98
;
; Retraction / Z Hop:
;  - Retraction Distance: 0.7 mm
;  - Retract Speed: 35 mm/s
;  - Unretract Speed: 35 mm/s
;  - Z Hop Enable: true
;  - Z Hop Height: 0.1mm
;
; First Layer Settings:
;  - First Layer Height: 0.2 mm
;  - First Layer Printing Speed: 30 mm/s
;  - First Layer Fan Speed: 0%
;  - Anchor Option: anchor_frame
;
; Print Settings:
;  - Layer Height: 0.2 mm
;  - Print Speed: 100 mm/s
;  - Acceleration: Disabled
;  - Fan Speed: 50%
;
; Pressure Advance Stepping:
;  - PA Start Value: 0.02
;  - PA End Value: 0.04
;  - PA Increment: 0.002
;
; Start / End G-code:
;  - Hotend Temp: 260C
;  - Bed Temp: 108C
;  - Don't Add G28: true
;  - Don't Add Heating G-Codes: true
;
; Calculated Values:
;  - Print Size X: 63.15 mm
;  - Print Size Y: 56.99 mm
;  - Number of Patterns to Print: 11
;  - PA Values: 0.02, 0.022, 0.024, 0.026, 0.028, 0.03, 0.032, 0.034, 0.036, 0.038, 0.04
;
; Prepare printing
;
START_PRINT EXTRUDER_TEMP=260 BED_TEMP=108
G21 ; Millimeter units
G90 ; Absolute XYZ
M83 ; Relative E
G92 E0 ; Reset extruder distance
;
;  Begin printing
;
M106 S0 ; Set fan speed
G1 E-0.7 F2100 ; Retract
G0 Z5 F6000 ; Z raise
G0 X143.4244 Y146.5068 F6000 ; Move to start position
G0 Z0.2 F6000 ; Move to start layer height
G1 E0.7 F2100 ; Un-retract
SET_PRESSURE_ADVANCE ADVANCE=0.02 ; Set pressure advance to start value
M117 PA 0.02
G1 X143.4244 Y188.9332 E1.78766 F1800 ; Draw perimeter (up)
G1 X206.5756 Y188.9332 E2.6609 F1800 ; Draw perimeter (right)
G1 X206.5756 Y146.5068 E1.78766 F1800 ; Draw perimeter (down)
G1 X143.4244 Y146.5068 E2.6609 F1800 ; Draw perimeter (left)
G0 X143.9415 Y147.0239 F6000 ; Step inwards to print next perimeter
G1 X143.9415 Y188.4161 E1.74408 F1800 ; Draw perimeter (up)
G1 X206.0585 Y188.4161 E2.61733 F1800 ; Draw perimeter (right)
G1 X206.0585 Y147.0239 E1.74408 F1800 ; Draw perimeter (down)
G1 X143.9415 Y147.0239 E2.61733 F1800 ; Draw perimeter (left)
G0 X144.4586 Y147.541 F6000 ; Step inwards to print next perimeter
G1 X144.4586 Y187.899 E1.70051 F1800 ; Draw perimeter (up)
G1 X205.5414 Y187.899 E2.57375 F1800 ; Draw perimeter (right)
G1 X205.5414 Y147.541 E1.70051 F1800 ; Draw perimeter (down)
G1 X144.4586 Y147.541 E2.57375 F1800 ; Draw perimeter (left)
G0 X144.9757 Y148.058 F6000 ; Step inwards to print next perimeter
G1 X144.9757 Y187.382 E1.65693 F1800 ; Draw perimeter (up)
G1 X205.0243 Y187.382 E2.53018 F1800 ; Draw perimeter (right)
G1 X205.0243 Y148.058 E1.65693 F1800 ; Draw perimeter (down)
G1 X144.9757 Y148.058 E2.53018 F1800 ; Draw perimeter (left)
G1 E-0.7 F2100 ; Retract
G1 Z0.3 F6000 ; Z hop
G0 X143.4244 Y189.4503 F6000 ; Move to box start
G1 Z0.2 F6000 ; Z hop return
G1 E0.7 F2100 ; Un-retract
G1 X143.4244 Y203.9674 E0.61168 F1800 ; Draw perimeter (up)
G1 X186.0705 Y203.9674 E1.79691 F1800 ; Draw perimeter (right)
G1 X186.0705 Y189.4503 E0.61168 F1800 ; Draw perimeter (down)
G1 X143.4244 Y189.4503 E1.79691 F1800 ; Draw perimeter (left)
G0 X143.9415 Y189.9674 F6000 ; Step inwards to print next perimeter
G1 X143.9415 Y203.4503 E0.56811 F1800 ; Draw perimeter (up)
G1 X185.5535 Y203.4503 E1.75334 F1800 ; Draw perimeter (right)
G1 X185.5535 Y189.9674 E0.56811 F1800 ; Draw perimeter (down)
G1 X143.9415 Y189.9674 E1.75334 F1800 ; Draw perimeter (left)
G0 X144.4586 Y190.4844 F6000 ; Step inwards to print next perimeter
G1 X144.4586 Y202.9332 E0.52453 F1800 ; Draw perimeter (up)
G1 X185.0364 Y202.9332 E1.70976 F1800 ; Draw perimeter (right)
G1 X185.0364 Y190.4844 E0.52453 F1800 ; Draw perimeter (down)
G1 X144.4586 Y190.4844 E1.70976 F1800 ; Draw perimeter (left)
G0 X144.9757 Y191.0015 F6000 ; Step inwards to print next perimeter
G1 X144.9757 Y202.4161 E0.48096 F1800 ; Draw perimeter (up)
G1 X184.5193 Y202.4161 E1.66619 F1800 ; Draw perimeter (right)
G1 X184.5193 Y191.0015 E0.48096 F1800 ; Draw perimeter (down)
G1 X144.9757 Y191.0015 E1.66619 F1800 ; Draw perimeter (left)
G0 X145.349 Y191.3749 F6000 ; Move to fill start
G0 X146.0803 Y191.3749 F6000 ; Move
G1 X145.349 Y192.1061 E0.04357 F1800 ; Fill
G0 X145.349 Y192.8374 F6000 ; Move
G1 X146.8115 Y191.3749 E0.08715 F1800 ; Fill
G0 X147.5428 Y191.3749 F6000 ; Move
G1 X145.349 Y193.5686 E0.13072 F1800 ; Fill
G0 X145.349 Y194.2999 F6000 ; Move
G1 X148.2741 Y191.3749 E0.1743 F1800 ; Fill
G0 X149.0053 Y191.3749 F6000 ; Move
G1 X145.349 Y195.0312 E0.21787 F1800 ; Fill
G0 X145.349 Y195.7624 F6000 ; Move
G1 X149.7366 Y191.3749 E0.26145 F1800 ; Fill
G0 X150.4678 Y191.3749 F6000 ; Move
G1 X145.349 Y196.4937 E0.30502 F1800 ; Fill
G0 X145.349 Y197.2249 F6000 ; Move
G1 X151.1991 Y191.3749 E0.3486 F1800 ; Fill
G0 X151.9304 Y191.3749 F6000 ; Move
G1 X145.349 Y197.9562 E0.39217 F1800 ; Fill
G0 X145.349 Y198.6875 F6000 ; Move
G1 X152.6616 Y191.3749 E0.43575 F1800 ; Fill
G0 X153.3929 Y191.3749 F6000 ; Move
G1 X145.349 Y199.4187 E0.47932 F1800 ; Fill
G0 X145.349 Y200.15 F6000 ; Move
G1 X154.1241 Y191.3749 E0.5229 F1800 ; Fill
G0 X154.8554 Y191.3749 F6000 ; Move
G1 X145.349 Y200.8813 E0.56647 F1800 ; Fill
G0 X145.349 Y201.6125 F6000 ; Move
G1 X155.5867 Y191.3749 E0.61005 F1800 ; Fill
G0 X156.3179 Y191.3749 F6000 ; Move
G1 X145.65 Y202.0428 E0.63569 F1800 ; Fill
G0 X146.3813 Y202.0428 F6000 ; Move
G1 X157.0492 Y191.3749 E0.63569 F1800 ; Fill
G0 X157.7804 Y191.3749 F6000 ; Move
G1 X147.1125 Y202.0428 E0.63569 F1800 ; Fill
G0 X147.8438 Y202.0428 F6000 ; Move
G1 X158.5117 Y191.3749 E0.63569 F1800 ; Fill
G0 X159.243 Y191.3749 F6000 ; Move
G1 X148.575 Y202.0428 E0.63569 F1800 ; Fill
G0 X149.3063 Y202.0428 F6000 ; Move
G1 X159.9742 Y191.3749 E0.63569 F1800 ; Fill
G0 X160.7055 Y191.3749 F6000 ; Move
G1 X150.0376 Y202.0428 E0.63569 F1800 ; Fill
G0 X150.7688 Y202.0428 F6000 ; Move
G1 X161.4368 Y191.3749 E0.63569 F1800 ; Fill
G0 X162.168 Y191.3749 F6000 ; Move
G1 X151.5001 Y202.0428 E0.63569 F1800 ; Fill
G0 X152.2313 Y202.0428 F6000 ; Move
G1 X162.8993 Y191.3749 E0.63569 F1800 ; Fill
G0 X163.6305 Y191.3749 F6000 ; Move
G1 X152.9626 Y202.0428 E0.63569 F1800 ; Fill
G0 X153.6939 Y202.0428 F6000 ; Move
G1 X164.3618 Y191.3749 E0.63569 F1800 ; Fill
G0 X165.0931 Y191.3749 F6000 ; Move
G1 X154.4251 Y202.0428 E0.63569 F1800 ; Fill
G0 X155.1564 Y202.0428 F6000 ; Move
G1 X165.8243 Y191.3749 E0.63569 F1800 ; Fill
G0 X166.5556 Y191.3749 F6000 ; Move
G1 X155.8876 Y202.0428 E0.63569 F1800 ; Fill
G0 X156.6189 Y202.0428 F6000 ; Move
G1 X167.2868 Y191.3749 E0.63569 F1800 ; Fill
G0 X168.0181 Y191.3749 F6000 ; Move
G1 X157.3502 Y202.0428 E0.63569 F1800 ; Fill
G0 X158.0814 Y202.0428 F6000 ; Move
G1 X168.7494 Y191.3749 E0.63569 F1800 ; Fill
G0 X169.4806 Y191.3749 F6000 ; Move
G1 X158.8127 Y202.0428 E0.63569 F1800 ; Fill
G0 X159.544 Y202.0428 F6000 ; Move
G1 X170.2119 Y191.3749 E0.63569 F1800 ; Fill
G0 X170.9431 Y191.3749 F6000 ; Move
G1 X160.2752 Y202.0428 E0.63569 F1800 ; Fill
G0 X161.0065 Y202.0428 F6000 ; Move
G1 X171.6744 Y191.3749 E0.63569 F1800 ; Fill
G0 X172.4057 Y191.3749 F6000 ; Move
G1 X161.7377 Y202.0428 E0.63569 F1800 ; Fill
G0 X162.469 Y202.0428 F6000 ; Move
G1 X173.1369 Y191.3749 E0.63569 F1800 ; Fill
G0 X173.8682 Y191.3749 F6000 ; Move
G1 X163.2003 Y202.0428 E0.63569 F1800 ; Fill
G0 X163.9315 Y202.0428 F6000 ; Move
G1 X174.5995 Y191.3749 E0.63569 F1800 ; Fill
G0 X175.3307 Y191.3749 F6000 ; Move
G1 X164.6628 Y202.0428 E0.63569 F1800 ; Fill
G0 X165.394 Y202.0428 F6000 ; Move
G1 X176.062 Y191.3749 E0.63569 F1800 ; Fill
G0 X176.7932 Y191.3749 F6000 ; Move
G1 X166.1253 Y202.0428 E0.63569 F1800 ; Fill
G0 X166.8566 Y202.0428 F6000 ; Move
G1 X177.5245 Y191.3749 E0.63569 F1800 ; Fill
G0 X178.2558 Y191.3749 F6000 ; Move
G1 X167.5878 Y202.0428 E0.63569 F1800 ; Fill
G0 X168.3191 Y202.0428 F6000 ; Move
G1 X178.987 Y191.3749 E0.63569 F1800 ; Fill
G0 X179.7183 Y191.3749 F6000 ; Move
G1 X169.0503 Y202.0428 E0.63569 F1800 ; Fill
G0 X169.7816 Y202.0428 F6000 ; Move
G1 X180.4495 Y191.3749 E0.63569 F1800 ; Fill
G0 X181.1808 Y191.3749 F6000 ; Move
G1 X170.5129 Y202.0428 E0.63569 F1800 ; Fill
G0 X171.2441 Y202.0428 F6000 ; Move
G1 X181.9121 Y191.3749 E0.63569 F1800 ; Fill
G0 X182.6433 Y191.3749 F6000 ; Move
G1 X171.9754 Y202.0428 E0.63569 F1800 ; Fill
G0 X172.7067 Y202.0428 F6000 ; Move
G1 X183.3746 Y191.3749 E0.63569 F1800 ; Fill
G0 X184.1058 Y191.3749 F6000 ; Move
G1 X173.4379 Y202.0428 E0.63569 F1800 ; Fill
G0 X174.1692 Y202.0428 F6000 ; Move
G1 X184.146 Y192.066 E0.5945 F1800 ; Fill
G0 X184.146 Y192.7973 F6000 ; Move
G1 X174.9004 Y202.0428 E0.55093 F1800 ; Fill
G0 X175.6317 Y202.0428 F6000 ; Move
G1 X184.146 Y193.5285 E0.50735 F1800 ; Fill
G0 X184.146 Y194.2598 F6000 ; Move
G1 X176.363 Y202.0428 E0.46378 F1800 ; Fill
G0 X177.0942 Y202.0428 F6000 ; Move
G1 X184.146 Y194.991 E0.4202 F1800 ; Fill
G0 X184.146 Y195.7223 F6000 ; Move
G1 X177.8255 Y202.0428 E0.37663 F1800 ; Fill
G0 X178.5567 Y202.0428 F6000 ; Move
G1 X184.146 Y196.4536 E0.33305 F1800 ; Fill
G0 X184.146 Y197.1848 F6000 ; Move
G1 X179.288 Y202.0428 E0.28948 F1800 ; Fill
G0 X180.0193 Y202.0428 F6000 ; Move
G1 X184.146 Y197.9161 E0.2459 F1800 ; Fill
G0 X184.146 Y198.6473 F6000 ; Move
G1 X180.7505 Y202.0428 E0.20233 F1800 ; Fill
G0 X181.4818 Y202.0428 F6000 ; Move
G1 X184.146 Y199.3786 E0.15875 F1800 ; Fill
G0 X184.146 Y200.1099 F6000 ; Move
G1 X182.213 Y202.0428 E0.11518 F1800 ; Fill
G0 X182.9443 Y202.0428 F6000 ; Move
G1 X184.146 Y200.8411 E0.07161 F1800 ; Fill
G0 X184.146 Y201.5724 F6000 ; Move
G1 X183.6756 Y202.0428 E0.02803 F1800 ; Fill
G0 Z0.2 F6000 ; Move to layer height
G1 E-0.7 F2100 ; Retract
G1 Z0.3 F6000 ; Z hop
G0 X148.0533 Y148.4314 F6000 ; Move to pattern start

G1 Z0.2 F6000 ; Z hop return
G1 E0.7 F2100 ; Un-retract
SET_PRESSURE_ADVANCE ADVANCE=0.02 ; Set pressure advance
M117 PA 0.02
G1 X167.3419 Y167.72 E0.90487 F1800 ; Print pattern wall
G1 X148.0533 Y187.0086 E0.90487 F1800 ; Print pattern wall
G1 E-0.7 F2100 ; Retract
G1 Z0.3 F6000 ; Z hop
G0 X148.629 Y148.4314 F6000 ; Move to start next pattern wall
G1 Z0.2 F6000 ; Z hop return
G1 E0.7 F2100 ; Un-retract
G1 X167.9176 Y167.72 E0.90487 F1800 ; Print pattern wall
G1 X148.629 Y187.0086 E0.90487 F1800 ; Print pattern wall
G1 E-0.7 F2100 ; Retract
G1 Z0.3 F6000 ; Z hop
G0 X149.2047 Y148.4314 F6000 ; Move to start next pattern wall
G1 Z0.2 F6000 ; Z hop return
G1 E0.7 F2100 ; Un-retract
G1 X168.4933 Y167.72 E0.90487 F1800 ; Print pattern wall
G1 X149.2047 Y187.0086 E0.90487 F1800 ; Print pattern wall
G1 E-0.7 F2100 ; Retract
G1 Z0.3 F6000 ; Z hop
G0 X151.6547 Y148.4314 F6000 ; Move to next pattern
G1 Z0.2 F6000 ; Z hop return
G1 E0.7 F2100 ; Un-retract
SET_PRESSURE_ADVANCE ADVANCE=0.022 ; Set pressure advance
M117 PA 0.022
G1 X170.9433 Y167.72 E0.90487 F1800 ; Print pattern wall
G1 X151.6547 Y187.0086 E0.90487 F1800 ; Print pattern wall
G1 E-0.7 F2100 ; Retract
G1 Z0.3 F6000 ; Z hop
G0 X152.2304 Y148.4314 F6000 ; Move to start next pattern wall
G1 Z0.2 F6000 ; Z hop return
G1 E0.7 F2100 ; Un-retract
G1 X171.519 Y167.72 E0.90487 F1800 ; Print pattern wall
G1 X152.2304 Y187.0086 E0.90487 F1800 ; Print pattern wall
G1 E-0.7 F2100 ; Retract
G1 Z0.3 F6000 ; Z hop
G0 X152.8061 Y148.4314 F6000 ; Move to start next pattern wall
G1 Z0.2 F6000 ; Z hop return
G1 E0.7 F2100 ; Un-retract
G1 X172.0947 Y167.72 E0.90487 F1800 ; Print pattern wall
G1 X152.8061 Y187.0086 E0.90487 F1800 ; Print pattern wall
G1 E-0.7 F2100 ; Retract
G1 Z0.3 F6000 ; Z hop
G0 X155.2561 Y148.4314 F6000 ; Move to next pattern
G1 Z0.2 F6000 ; Z hop return
G1 E0.7 F2100 ; Un-retract
SET_PRESSURE_ADVANCE ADVANCE=0.024 ; Set pressure advance
M117 PA 0.024
G1 X174.5447 Y167.72 E0.90487 F1800 ; Print pattern wall
G1 X155.2561 Y187.0086 E0.90487 F1800 ; Print pattern wall
G1 E-0.7 F2100 ; Retract
G1 Z0.3 F6000 ; Z hop
G0 X155.8318 Y148.4314 F6000 ; Move to start next pattern wall
G1 Z0.2 F6000 ; Z hop return
G1 E0.7 F2100 ; Un-retract
G1 X175.1204 Y167.72 E0.90487 F1800 ; Print pattern wall
G1 X155.8318 Y187.0086 E0.90487 F1800 ; Print pattern wall
G1 E-0.7 F2100 ; Retract
G1 Z0.3 F6000 ; Z hop
G0 X156.4075 Y148.4314 F6000 ; Move to start next pattern wall
G1 Z0.2 F6000 ; Z hop return
G1 E0.7 F2100 ; Un-retract
G1 X175.6961 Y167.72 E0.90487 F1800 ; Print pattern wall
G1 X156.4075 Y187.0086 E0.90487 F1800 ; Print pattern wall
G1 E-0.7 F2100 ; Retract
G1 Z0.3 F6000 ; Z hop
G0 X158.8575 Y148.4314 F6000 ; Move to next pattern
G1 Z0.2 F6000 ; Z hop return
G1 E0.7 F2100 ; Un-retract
SET_PRESSURE_ADVANCE ADVANCE=0.026 ; Set pressure advance
M117 PA 0.026
G1 X178.1461 Y167.72 E0.90487 F1800 ; Print pattern wall
G1 X158.8575 Y187.0086 E0.90487 F1800 ; Print pattern wall
G1 E-0.7 F2100 ; Retract
G1 Z0.3 F6000 ; Z hop
G0 X159.4332 Y148.4314 F6000 ; Move to start next pattern wall
G1 Z0.2 F6000 ; Z hop return
G1 E0.7 F2100 ; Un-retract
G1 X178.7218 Y167.72 E0.90487 F1800 ; Print pattern wall
G1 X159.4332 Y187.0086 E0.90487 F1800 ; Print pattern wall
G1 E-0.7 F2100 ; Retract
G1 Z0.3 F6000 ; Z hop
G0 X160.0089 Y148.4314 F6000 ; Move to start next pattern wall
G1 Z0.2 F6000 ; Z hop return
G1 E0.7 F2100 ; Un-retract
G1 X179.2975 Y167.72 E0.90487 F1800 ; Print pattern wall
G1 X160.0089 Y187.0086 E0.90487 F1800 ; Print pattern wall
G1 E-0.7 F2100 ; Retract
G1 Z0.3 F6000 ; Z hop
G0 X162.4589 Y148.4314 F6000 ; Move to next pattern
G1 Z0.2 F6000 ; Z hop return
G1 E0.7 F2100 ; Un-retract
SET_PRESSURE_ADVANCE ADVANCE=0.028 ; Set pressure advance
M117 PA 0.028
G1 X181.7475 Y167.72 E0.90487 F1800 ; Print pattern wall
G1 X162.4589 Y187.0086 E0.90487 F1800 ; Print pattern wall
G1 E-0.7 F2100 ; Retract
G1 Z0.3 F6000 ; Z hop
G0 X163.0346 Y148.4314 F6000 ; Move to start next pattern wall
G1 Z0.2 F6000 ; Z hop return
G1 E0.7 F2100 ; Un-retract
G1 X182.3232 Y167.72 E0.90487 F1800 ; Print pattern wall
G1 X163.0346 Y187.0086 E0.90487 F1800 ; Print pattern wall
G1 E-0.7 F2100 ; Retract
G1 Z0.3 F6000 ; Z hop
G0 X163.6103 Y148.4314 F6000 ; Move to start next pattern wall
G1 Z0.2 F6000 ; Z hop return
G1 E0.7 F2100 ; Un-retract
G1 X182.8989 Y167.72 E0.90487 F1800 ; Print pattern wall
G1 X163.6103 Y187.0086 E0.90487 F1800 ; Print pattern wall
G1 E-0.7 F2100 ; Retract
G1 Z0.3 F6000 ; Z hop
G0 X166.0603 Y148.4314 F6000 ; Move to next pattern
G1 Z0.2 F6000 ; Z hop return
G1 E0.7 F2100 ; Un-retract
SET_PRESSURE_ADVANCE ADVANCE=0.03 ; Set pressure advance
M117 PA 0.03
G1 X185.3489 Y167.72 E0.90487 F1800 ; Print pattern wall
G1 X166.0603 Y187.0086 E0.90487 F1800 ; Print pattern wall
G1 E-0.7 F2100 ; Retract
G1 Z0.3 F6000 ; Z hop
G0 X166.636 Y148.4314 F6000 ; Move to start next pattern wall
G1 Z0.2 F6000 ; Z hop return
G1 E0.7 F2100 ; Un-retract
G1 X185.9246 Y167.72 E0.90487 F1800 ; Print pattern wall
G1 X166.636 Y187.0086 E0.90487 F1800 ; Print pattern wall
G1 E-0.7 F2100 ; Retract
G1 Z0.3 F6000 ; Z hop
G0 X167.2117 Y148.4314 F6000 ; Move to start next pattern wall
G1 Z0.2 F6000 ; Z hop return
G1 E0.7 F2100 ; Un-retract
G1 X186.5003 Y167.72 E0.90487 F1800 ; Print pattern wall
G1 X167.2117 Y187.0086 E0.90487 F1800 ; Print pattern wall
G1 E-0.7 F2100 ; Retract
G1 Z0.3 F6000 ; Z hop
G0 X169.6617 Y148.4314 F6000 ; Move to next pattern
G1 Z0.2 F6000 ; Z hop return
G1 E0.7 F2100 ; Un-retract
SET_PRESSURE_ADVANCE ADVANCE=0.032 ; Set pressure advance
M117 PA 0.032
G1 X188.9503 Y167.72 E0.90487 F1800 ; Print pattern wall
G1 X169.6617 Y187.0086 E0.90487 F1800 ; Print pattern wall
G1 E-0.7 F2100 ; Retract
G1 Z0.3 F6000 ; Z hop
G0 X170.2374 Y148.4314 F6000 ; Move to start next pattern wall
G1 Z0.2 F6000 ; Z hop return
G1 E0.7 F2100 ; Un-retract
G1 X189.526 Y167.72 E0.90487 F1800 ; Print pattern wall
G1 X170.2374 Y187.0086 E0.90487 F1800 ; Print pattern wall
G1 E-0.7 F2100 ; Retract
G1 Z0.3 F6000 ; Z hop
G0 X170.8131 Y148.4314 F6000 ; Move to start next pattern wall
G1 Z0.2 F6000 ; Z hop return
G1 E0.7 F2100 ; Un-retract
G1 X190.1017 Y167.72 E0.90487 F1800 ; Print pattern wall
G1 X170.8131 Y187.0086 E0.90487 F1800 ; Print pattern wall
G1 E-0.7 F2100 ; Retract
G1 Z0.3 F6000 ; Z hop
G0 X173.2631 Y148.4314 F6000 ; Move to next pattern
G1 Z0.2 F6000 ; Z hop return
G1 E0.7 F2100 ; Un-retract
SET_PRESSURE_ADVANCE ADVANCE=0.034 ; Set pressure advance
M117 PA 0.034
G1 X192.5517 Y167.72 E0.90487 F1800 ; Print pattern wall
G1 X173.2631 Y187.0086 E0.90487 F1800 ; Print pattern wall
G1 E-0.7 F2100 ; Retract
G1 Z0.3 F6000 ; Z hop
G0 X173.8388 Y148.4314 F6000 ; Move to start next pattern wall
G1 Z0.2 F6000 ; Z hop return
G1 E0.7 F2100 ; Un-retract
G1 X193.1274 Y167.72 E0.90487 F1800 ; Print pattern wall
G1 X173.8388 Y187.0086 E0.90487 F1800 ; Print pattern wall
G1 E-0.7 F2100 ; Retract
G1 Z0.3 F6000 ; Z hop
G0 X174.4145 Y148.4314 F6000 ; Move to start next pattern wall
G1 Z0.2 F6000 ; Z hop return
G1 E0.7 F2100 ; Un-retract
G1 X193.7031 Y167.72 E0.90487 F1800 ; Print pattern wall
G1 X174.4145 Y187.0086 E0.90487 F1800 ; Print pattern wall
G1 E-0.7 F2100 ; Retract
G1 Z0.3 F6000 ; Z hop
G0 X176.8645 Y148.4314 F6000 ; Move to next pattern
G1 Z0.2 F6000 ; Z hop return
G1 E0.7 F2100 ; Un-retract
SET_PRESSURE_ADVANCE ADVANCE=0.036 ; Set pressure advance
M117 PA 0.036
G1 X196.1531 Y167.72 E0.90487 F1800 ; Print pattern wall
G1 X176.8645 Y187.0086 E0.90487 F1800 ; Print pattern wall
G1 E-0.7 F2100 ; Retract
G1 Z0.3 F6000 ; Z hop
G0 X177.4402 Y148.4314 F6000 ; Move to start next pattern wall
G1 Z0.2 F6000 ; Z hop return
G1 E0.7 F2100 ; Un-retract
G1 X196.7288 Y167.72 E0.90487 F1800 ; Print pattern wall
G1 X177.4402 Y187.0086 E0.90487 F1800 ; Print pattern wall
G1 E-0.7 F2100 ; Retract
G1 Z0.3 F6000 ; Z hop
G0 X178.0159 Y148.4314 F6000 ; Move to start next pattern wall
G1 Z0.2 F6000 ; Z hop return
G1 E0.7 F2100 ; Un-retract
G1 X197.3045 Y167.72 E0.90487 F1800 ; Print pattern wall
G1 X178.0159 Y187.0086 E0.90487 F1800 ; Print pattern wall
G1 E-0.7 F2100 ; Retract
G1 Z0.3 F6000 ; Z hop
G0 X180.4659 Y148.4314 F6000 ; Move to next pattern
G1 Z0.2 F6000 ; Z hop return
G1 E0.7 F2100 ; Un-retract
SET_PRESSURE_ADVANCE ADVANCE=0.038 ; Set pressure advance
M117 PA 0.038
G1 X199.7545 Y167.72 E0.90487 F1800 ; Print pattern wall
G1 X180.4659 Y187.0086 E0.90487 F1800 ; Print pattern wall
G1 E-0.7 F2100 ; Retract
G1 Z0.3 F6000 ; Z hop
G0 X181.0416 Y148.4314 F6000 ; Move to start next pattern wall
G1 Z0.2 F6000 ; Z hop return
G1 E0.7 F2100 ; Un-retract
G1 X200.3302 Y167.72 E0.90487 F1800 ; Print pattern wall
G1 X181.0416 Y187.0086 E0.90487 F1800 ; Print pattern wall
G1 E-0.7 F2100 ; Retract
G1 Z0.3 F6000 ; Z hop
G0 X181.6173 Y148.4314 F6000 ; Move to start next pattern wall
G1 Z0.2 F6000 ; Z hop return
G1 E0.7 F2100 ; Un-retract
G1 X200.9059 Y167.72 E0.90487 F1800 ; Print pattern wall
G1 X181.6173 Y187.0086 E0.90487 F1800 ; Print pattern wall
G1 E-0.7 F2100 ; Retract
G1 Z0.3 F6000 ; Z hop
G0 X184.0673 Y148.4314 F6000 ; Move to next pattern
G1 Z0.2 F6000 ; Z hop return
G1 E0.7 F2100 ; Un-retract
SET_PRESSURE_ADVANCE ADVANCE=0.04 ; Set pressure advance
M117 PA 0.04
G1 X203.3559 Y167.72 E0.90487 F1800 ; Print pattern wall
G1 X184.0673 Y187.0086 E0.90487 F1800 ; Print pattern wall
G1 E-0.7 F2100 ; Retract
G1 Z0.3 F6000 ; Z hop
G0 X184.643 Y148.4314 F6000 ; Move to start next pattern wall
G1 Z0.2 F6000 ; Z hop return
G1 E0.7 F2100 ; Un-retract
G1 X203.9316 Y167.72 E0.90487 F1800 ; Print pattern wall
G1 X184.643 Y187.0086 E0.90487 F1800 ; Print pattern wall
G1 E-0.7 F2100 ; Retract
G1 Z0.3 F6000 ; Z hop
G0 X185.2187 Y148.4314 F6000 ; Move to start next pattern wall
G1 Z0.2 F6000 ; Z hop return
G1 E0.7 F2100 ; Un-retract
G1 X204.5073 Y167.72 E0.90487 F1800 ; Print pattern wall
G1 X185.2187 Y187.0086 E0.90487 F1800 ; Print pattern wall
G1 E-0.7 F2100 ; Retract
G1 Z0.3 F6000 ; Z hop
G0 X148.0533 Y148.4314 F6000 ; Move back to start position
G1 Z0.2 F6000 ; Z hop return
G1 E0.7 F2100 ; Un-retract
M106 S127 ; Set fan speed
G0 Z0.4 F6000 ; Move to layer height
SET_PRESSURE_ADVANCE ADVANCE=0.02 ; Set pressure advance to start value for numbering
M117 PA 0.02
G1 E-0.7 F2100 ; Retract
G1 Z0.5 F6000 ; Z hop
G0 X144.7044 Y190.3832 F6000 ; Move
G1 Z0.4 F6000 ; Z hop return
G1 E0.7 F2100 ; Un-retract
G1 X146.7044 Y190.3832 E0.06634 F1800 ; Glyph: 0
G1 X148.7044 Y190.3832 E0.06634 F1800 ; Glyph: 0
G1 X148.7044 Y192.3832 E0.06634 F1800 ; Glyph: 0
G1 X146.7044 Y192.3832 E0.06634 F1800 ; Glyph: 0
G1 X144.7044 Y192.3832 E0.06634 F1800 ; Glyph: 0
G1 X144.7044 Y190.3832 E0.06634 F1800 ; Glyph: 0
G1 E-0.7 F2100 ; Retract
G1 Z0.5 F6000 ; Z hop
G0 X148.7044 Y193.3832 F6000 ; Move
G1 Z0.4 F6000 ; Z hop return
G1 E0.7 F2100 ; Un-retract
G1 X147.9544 Y193.3832 E0.02488 F1800 ; Glyph: .
G1 E-0.7 F2100 ; Retract
G1 Z0.5 F6000 ; Z hop
G0 X144.7044 Y194.3832 F6000 ; Move
G1 Z0.4 F6000 ; Z hop return
G1 E0.7 F2100 ; Un-retract
G1 X146.7044 Y194.3832 E0.06634 F1800 ; Glyph: 0
G1 X148.7044 Y194.3832 E0.06634 F1800 ; Glyph: 0
G1 X148.7044 Y196.3832 E0.06634 F1800 ; Glyph: 0
G1 X146.7044 Y196.3832 E0.06634 F1800 ; Glyph: 0
G1 X144.7044 Y196.3832 E0.06634 F1800 ; Glyph: 0
G1 X144.7044 Y194.3832 E0.06634 F1800 ; Glyph: 0
G1 E-0.7 F2100 ; Retract
G1 Z0.5 F6000 ; Z hop
G0 X144.7044 Y197.3832 F6000 ; Move
G1 Z0.4 F6000 ; Z hop return
G1 E0.7 F2100 ; Un-retract
G1 X144.7044 Y199.3832 E0.06634 F1800 ; Glyph: 2
G1 X146.7044 Y199.3832 E0.06634 F1800 ; Glyph: 2
G1 X146.7044 Y197.3832 E0.06634 F1800 ; Glyph: 2
G1 X148.7044 Y197.3832 E0.06634 F1800 ; Glyph: 2
G1 X148.7044 Y199.3832 E0.06634 F1800 ; Glyph: 2
G1 E-0.7 F2100 ; Retract
G1 Z0.5 F6000 ; Z hop
G0 X151.9072 Y190.3832 F6000 ; Move
G1 Z0.4 F6000 ; Z hop return
G1 E0.7 F2100 ; Un-retract
G1 X153.9072 Y190.3832 E0.06634 F1800 ; Glyph: 0
G1 X155.9072 Y190.3832 E0.06634 F1800 ; Glyph: 0
G1 X155.9072 Y192.3832 E0.06634 F1800 ; Glyph: 0
G1 X153.9072 Y192.3832 E0.06634 F1800 ; Glyph: 0
G1 X151.9072 Y192.3832 E0.06634 F1800 ; Glyph: 0
G1 X151.9072 Y190.3832 E0.06634 F1800 ; Glyph: 0
G1 E-0.7 F2100 ; Retract
G1 Z0.5 F6000 ; Z hop
G0 X155.9072 Y193.3832 F6000 ; Move
G1 Z0.4 F6000 ; Z hop return
G1 E0.7 F2100 ; Un-retract
G1 X155.1572 Y193.3832 E0.02488 F1800 ; Glyph: .
G1 E-0.7 F2100 ; Retract
G1 Z0.5 F6000 ; Z hop
G0 X151.9072 Y194.3832 F6000 ; Move
G1 Z0.4 F6000 ; Z hop return
G1 E0.7 F2100 ; Un-retract
G1 X153.9072 Y194.3832 E0.06634 F1800 ; Glyph: 0
G1 X155.9072 Y194.3832 E0.06634 F1800 ; Glyph: 0
G1 X155.9072 Y196.3832 E0.06634 F1800 ; Glyph: 0
G1 X153.9072 Y196.3832 E0.06634 F1800 ; Glyph: 0
G1 X151.9072 Y196.3832 E0.06634 F1800 ; Glyph: 0
G1 X151.9072 Y194.3832 E0.06634 F1800 ; Glyph: 0
G1 E-0.7 F2100 ; Retract
G1 Z0.5 F6000 ; Z hop
G0 X151.9072 Y197.3832 F6000 ; Move
G1 Z0.4 F6000 ; Z hop return
G1 E0.7 F2100 ; Un-retract
G1 X151.9072 Y199.3832 E0.06634 F1800 ; Glyph: 2
G1 X153.9072 Y199.3832 E0.06634 F1800 ; Glyph: 2
G1 X153.9072 Y197.3832 E0.06634 F1800 ; Glyph: 2
G1 X155.9072 Y197.3832 E0.06634 F1800 ; Glyph: 2
G1 X155.9072 Y199.3832 E0.06634 F1800 ; Glyph: 2
G1 E-0.7 F2100 ; Retract
G1 Z0.5 F6000 ; Z hop
G0 X151.9072 Y202.3832 F6000 ; Move
G1 Z0.4 F6000 ; Z hop return
G1 E0.7 F2100 ; Un-retract
G1 X153.9072 Y202.3832 E0.06634 F1800 ; Glyph: 4
G1 X155.9072 Y202.3832 E0.06634 F1800 ; Glyph: 4
G0 X153.9072 Y202.3832 F6000 ; Move
G1 X153.9072 Y200.3832 E0.06634 F1800 ; Glyph: 4
G1 X151.9072 Y200.3832 E0.06634 F1800 ; Glyph: 4
G1 E-0.7 F2100 ; Retract
G1 Z0.5 F6000 ; Z hop
G0 X159.11 Y190.3832 F6000 ; Move
G1 Z0.4 F6000 ; Z hop return
G1 E0.7 F2100 ; Un-retract
G1 X161.11 Y190.3832 E0.06634 F1800 ; Glyph: 0
G1 X163.11 Y190.3832 E0.06634 F1800 ; Glyph: 0
G1 X163.11 Y192.3832 E0.06634 F1800 ; Glyph: 0
G1 X161.11 Y192.3832 E0.06634 F1800 ; Glyph: 0
G1 X159.11 Y192.3832 E0.06634 F1800 ; Glyph: 0
G1 X159.11 Y190.3832 E0.06634 F1800 ; Glyph: 0
G1 E-0.7 F2100 ; Retract
G1 Z0.5 F6000 ; Z hop
G0 X163.11 Y193.3832 F6000 ; Move
G1 Z0.4 F6000 ; Z hop return
G1 E0.7 F2100 ; Un-retract
G1 X162.36 Y193.3832 E0.02488 F1800 ; Glyph: .
G1 E-0.7 F2100 ; Retract
G1 Z0.5 F6000 ; Z hop
G0 X159.11 Y194.3832 F6000 ; Move
G1 Z0.4 F6000 ; Z hop return
G1 E0.7 F2100 ; Un-retract
G1 X161.11 Y194.3832 E0.06634 F1800 ; Glyph: 0
G1 X163.11 Y194.3832 E0.06634 F1800 ; Glyph: 0
G1 X163.11 Y196.3832 E0.06634 F1800 ; Glyph: 0
G1 X161.11 Y196.3832 E0.06634 F1800 ; Glyph: 0
G1 X159.11 Y196.3832 E0.06634 F1800 ; Glyph: 0
G1 X159.11 Y194.3832 E0.06634 F1800 ; Glyph: 0
G1 E-0.7 F2100 ; Retract
G1 Z0.5 F6000 ; Z hop
G0 X159.11 Y197.3832 F6000 ; Move
G1 Z0.4 F6000 ; Z hop return
G1 E0.7 F2100 ; Un-retract
G1 X159.11 Y199.3832 E0.06634 F1800 ; Glyph: 2
G1 X161.11 Y199.3832 E0.06634 F1800 ; Glyph: 2
G1 X161.11 Y197.3832 E0.06634 F1800 ; Glyph: 2
G1 X163.11 Y197.3832 E0.06634 F1800 ; Glyph: 2
G1 X163.11 Y199.3832 E0.06634 F1800 ; Glyph: 2
G1 E-0.7 F2100 ; Retract
G1 Z0.5 F6000 ; Z hop
G0 X159.11 Y200.3832 F6000 ; Move
G1 Z0.4 F6000 ; Z hop return
G1 E0.7 F2100 ; Un-retract
G1 X161.11 Y200.3832 E0.06634 F1800 ; Glyph: 8
G1 X163.11 Y200.3832 E0.06634 F1800 ; Glyph: 8
G1 X163.11 Y202.3832 E0.06634 F1800 ; Glyph: 8
G1 X161.11 Y202.3832 E0.06634 F1800 ; Glyph: 8
G1 X159.11 Y202.3832 E0.06634 F1800 ; Glyph: 8
G1 X159.11 Y200.3832 E0.06634 F1800 ; Glyph: 8
G0 X161.11 Y200.3832 F6000 ; Move
G1 X161.11 Y202.3832 E0.06634 F1800 ; Glyph: 8
G1 E-0.7 F2100 ; Retract
G1 Z0.5 F6000 ; Z hop
G0 X166.3128 Y190.3832 F6000 ; Move
G1 Z0.4 F6000 ; Z hop return
G1 E0.7 F2100 ; Un-retract
G1 X168.3128 Y190.3832 E0.06634 F1800 ; Glyph: 0
G1 X170.3128 Y190.3832 E0.06634 F1800 ; Glyph: 0
G1 X170.3128 Y192.3832 E0.06634 F1800 ; Glyph: 0
G1 X168.3128 Y192.3832 E0.06634 F1800 ; Glyph: 0
G1 X166.3128 Y192.3832 E0.06634 F1800 ; Glyph: 0
G1 X166.3128 Y190.3832 E0.06634 F1800 ; Glyph: 0
G1 E-0.7 F2100 ; Retract
G1 Z0.5 F6000 ; Z hop
G0 X170.3128 Y193.3832 F6000 ; Move
G1 Z0.4 F6000 ; Z hop return
G1 E0.7 F2100 ; Un-retract
G1 X169.5628 Y193.3832 E0.02488 F1800 ; Glyph: .
G1 E-0.7 F2100 ; Retract
G1 Z0.5 F6000 ; Z hop
G0 X166.3128 Y194.3832 F6000 ; Move
G1 Z0.4 F6000 ; Z hop return
G1 E0.7 F2100 ; Un-retract
G1 X168.3128 Y194.3832 E0.06634 F1800 ; Glyph: 0
G1 X170.3128 Y194.3832 E0.06634 F1800 ; Glyph: 0
G1 X170.3128 Y196.3832 E0.06634 F1800 ; Glyph: 0
G1 X168.3128 Y196.3832 E0.06634 F1800 ; Glyph: 0
G1 X166.3128 Y196.3832 E0.06634 F1800 ; Glyph: 0
G1 X166.3128 Y194.3832 E0.06634 F1800 ; Glyph: 0
G1 E-0.7 F2100 ; Retract
G1 Z0.5 F6000 ; Z hop
G0 X166.3128 Y197.3832 F6000 ; Move
G1 Z0.4 F6000 ; Z hop return
G1 E0.7 F2100 ; Un-retract
G1 X166.3128 Y199.3832 E0.06634 F1800 ; Glyph: 3
G1 X168.3128 Y199.3832 E0.06634 F1800 ; Glyph: 3
G1 X168.3128 Y197.3832 E0.06634 F1800 ; Glyph: 3
G0 X168.3128 Y199.3832 F6000 ; Move
G1 X170.3128 Y199.3832 E0.06634 F1800 ; Glyph: 3
G1 X170.3128 Y197.3832 E0.06634 F1800 ; Glyph: 3
G1 E-0.7 F2100 ; Retract
G1 Z0.5 F6000 ; Z hop
G0 X166.3128 Y200.3832 F6000 ; Move
G1 Z0.4 F6000 ; Z hop return
G1 E0.7 F2100 ; Un-retract
G1 X166.3128 Y202.3832 E0.06634 F1800 ; Glyph: 2
G1 X168.3128 Y202.3832 E0.06634 F1800 ; Glyph: 2
G1 X168.3128 Y200.3832 E0.06634 F1800 ; Glyph: 2
G1 X170.3128 Y200.3832 E0.06634 F1800 ; Glyph: 2
G1 X170.3128 Y202.3832 E0.06634 F1800 ; Glyph: 2
G1 E-0.7 F2100 ; Retract
G1 Z0.5 F6000 ; Z hop
G0 X173.5156 Y190.3832 F6000 ; Move
G1 Z0.4 F6000 ; Z hop return
G1 E0.7 F2100 ; Un-retract
G1 X175.5156 Y190.3832 E0.06634 F1800 ; Glyph: 0
G1 X177.5156 Y190.3832 E0.06634 F1800 ; Glyph: 0
G1 X177.5156 Y192.3832 E0.06634 F1800 ; Glyph: 0
G1 X175.5156 Y192.3832 E0.06634 F1800 ; Glyph: 0
G1 X173.5156 Y192.3832 E0.06634 F1800 ; Glyph: 0
G1 X173.5156 Y190.3832 E0.06634 F1800 ; Glyph: 0
G1 E-0.7 F2100 ; Retract
G1 Z0.5 F6000 ; Z hop
G0 X177.5156 Y193.3832 F6000 ; Move
G1 Z0.4 F6000 ; Z hop return
G1 E0.7 F2100 ; Un-retract
G1 X176.7656 Y193.3832 E0.02488 F1800 ; Glyph: .
G1 E-0.7 F2100 ; Retract
G1 Z0.5 F6000 ; Z hop
G0 X173.5156 Y194.3832 F6000 ; Move
G1 Z0.4 F6000 ; Z hop return
G1 E0.7 F2100 ; Un-retract
G1 X175.5156 Y194.3832 E0.06634 F1800 ; Glyph: 0
G1 X177.5156 Y194.3832 E0.06634 F1800 ; Glyph: 0
G1 X177.5156 Y196.3832 E0.06634 F1800 ; Glyph: 0
G1 X175.5156 Y196.3832 E0.06634 F1800 ; Glyph: 0
G1 X173.5156 Y196.3832 E0.06634 F1800 ; Glyph: 0
G1 X173.5156 Y194.3832 E0.06634 F1800 ; Glyph: 0
G1 E-0.7 F2100 ; Retract
G1 Z0.5 F6000 ; Z hop
G0 X173.5156 Y197.3832 F6000 ; Move
G1 Z0.4 F6000 ; Z hop return
G1 E0.7 F2100 ; Un-retract
G1 X173.5156 Y199.3832 E0.06634 F1800 ; Glyph: 3
G1 X175.5156 Y199.3832 E0.06634 F1800 ; Glyph: 3
G1 X175.5156 Y197.3832 E0.06634 F1800 ; Glyph: 3
G0 X175.5156 Y199.3832 F6000 ; Move
G1 X177.5156 Y199.3832 E0.06634 F1800 ; Glyph: 3
G1 X177.5156 Y197.3832 E0.06634 F1800 ; Glyph: 3
G1 E-0.7 F2100 ; Retract
G1 Z0.5 F6000 ; Z hop
G0 X173.5156 Y202.3832 F6000 ; Move
G1 Z0.4 F6000 ; Z hop return
G1 E0.7 F2100 ; Un-retract
G1 X173.5156 Y200.3832 E0.06634 F1800 ; Glyph: 6
G1 X175.5156 Y200.3832 E0.06634 F1800 ; Glyph: 6
G1 X177.5156 Y200.3832 E0.06634 F1800 ; Glyph: 6
G1 X177.5156 Y202.3832 E0.06634 F1800 ; Glyph: 6
G1 X175.5156 Y202.3832 E0.06634 F1800 ; Glyph: 6
G1 X175.5156 Y200.3832 E0.06634 F1800 ; Glyph: 6
G1 E-0.7 F2100 ; Retract
G1 Z0.5 F6000 ; Z hop
G0 X180.7184 Y190.3832 F6000 ; Move
G1 Z0.4 F6000 ; Z hop return
G1 E0.7 F2100 ; Un-retract
G1 X182.7184 Y190.3832 E0.06634 F1800 ; Glyph: 0
G1 X184.7184 Y190.3832 E0.06634 F1800 ; Glyph: 0
G1 X184.7184 Y192.3832 E0.06634 F1800 ; Glyph: 0
G1 X182.7184 Y192.3832 E0.06634 F1800 ; Glyph: 0
G1 X180.7184 Y192.3832 E0.06634 F1800 ; Glyph: 0
G1 X180.7184 Y190.3832 E0.06634 F1800 ; Glyph: 0
G1 E-0.7 F2100 ; Retract
G1 Z0.5 F6000 ; Z hop
G0 X184.7184 Y193.3832 F6000 ; Move
G1 Z0.4 F6000 ; Z hop return
G1 E0.7 F2100 ; Un-retract
G1 X183.9684 Y193.3832 E0.02488 F1800 ; Glyph: .
G1 E-0.7 F2100 ; Retract
G1 Z0.5 F6000 ; Z hop
G0 X180.7184 Y194.3832 F6000 ; Move
G1 Z0.4 F6000 ; Z hop return
G1 E0.7 F2100 ; Un-retract
G1 X182.7184 Y194.3832 E0.06634 F1800 ; Glyph: 0
G1 X184.7184 Y194.3832 E0.06634 F1800 ; Glyph: 0
G1 X184.7184 Y196.3832 E0.06634 F1800 ; Glyph: 0
G1 X182.7184 Y196.3832 E0.06634 F1800 ; Glyph: 0
G1 X180.7184 Y196.3832 E0.06634 F1800 ; Glyph: 0
G1 X180.7184 Y194.3832 E0.06634 F1800 ; Glyph: 0
G1 E-0.7 F2100 ; Retract
G1 Z0.5 F6000 ; Z hop
G0 X180.7184 Y199.3832 F6000 ; Move
G1 Z0.4 F6000 ; Z hop return
G1 E0.7 F2100 ; Un-retract
G1 X182.7184 Y199.3832 E0.06634 F1800 ; Glyph: 4
G1 X184.7184 Y199.3832 E0.06634 F1800 ; Glyph: 4
G0 X182.7184 Y199.3832 F6000 ; Move
G1 X182.7184 Y197.3832 E0.06634 F1800 ; Glyph: 4
G1 X180.7184 Y197.3832 E0.06634 F1800 ; Glyph: 4
G1 E-0.7 F2100 ; Retract
G1 Z0.5 F6000 ; Z hop
G0 X146.1287 Y146.5068 F6000 ; Move to pattern start

G1 Z0.4 F6000 ; Z hop return
G1 E0.7 F2100 ; Un-retract
SET_PRESSURE_ADVANCE ADVANCE=0.02 ; Set pressure advance
M117 PA 0.02
G1 X167.3419 Y167.72 E0.99515 F6000 ; Print pattern wall
G1 X146.1287 Y188.9332 E0.99515 F6000 ; Print pattern wall
G1 E-0.7 F2100 ; Retract
G1 Z0.5 F6000 ; Z hop
G0 X146.7044 Y146.5068 F6000 ; Move to start next pattern wall
G1 Z0.4 F6000 ; Z hop return
G1 E0.7 F2100 ; Un-retract
G1 X167.9176 Y167.72 E0.99515 F6000 ; Print pattern wall
G1 X146.7044 Y188.9332 E0.99515 F6000 ; Print pattern wall
G1 E-0.7 F2100 ; Retract
G1 Z0.5 F6000 ; Z hop
G0 X147.2801 Y146.5068 F6000 ; Move to start next pattern wall
G1 Z0.4 F6000 ; Z hop return
G1 E0.7 F2100 ; Un-retract
G1 X168.4933 Y167.72 E0.99515 F6000 ; Print pattern wall
G1 X147.2801 Y188.9332 E0.99515 F6000 ; Print pattern wall
G1 E-0.7 F2100 ; Retract
G1 Z0.5 F6000 ; Z hop
G0 X149.7301 Y146.5068 F6000 ; Move to next pattern
G1 Z0.4 F6000 ; Z hop return
G1 E0.7 F2100 ; Un-retract
SET_PRESSURE_ADVANCE ADVANCE=0.022 ; Set pressure advance
M117 PA 0.022
G1 X170.9433 Y167.72 E0.99515 F6000 ; Print pattern wall
G1 X149.7301 Y188.9332 E0.99515 F6000 ; Print pattern wall
G1 E-0.7 F2100 ; Retract
G1 Z0.5 F6000 ; Z hop
G0 X150.3058 Y146.5068 F6000 ; Move to start next pattern wall
G1 Z0.4 F6000 ; Z hop return
G1 E0.7 F2100 ; Un-retract
G1 X171.519 Y167.72 E0.99515 F6000 ; Print pattern wall
G1 X150.3058 Y188.9332 E0.99515 F6000 ; Print pattern wall
G1 E-0.7 F2100 ; Retract
G1 Z0.5 F6000 ; Z hop
G0 X150.8815 Y146.5068 F6000 ; Move to start next pattern wall
G1 Z0.4 F6000 ; Z hop return
G1 E0.7 F2100 ; Un-retract
G1 X172.0947 Y167.72 E0.99515 F6000 ; Print pattern wall
G1 X150.8815 Y188.9332 E0.99515 F6000 ; Print pattern wall
G1 E-0.7 F2100 ; Retract
G1 Z0.5 F6000 ; Z hop
G0 X153.3315 Y146.5068 F6000 ; Move to next pattern
G1 Z0.4 F6000 ; Z hop return
G1 E0.7 F2100 ; Un-retract
SET_PRESSURE_ADVANCE ADVANCE=0.024 ; Set pressure advance
M117 PA 0.024
G1 X174.5447 Y167.72 E0.99515 F6000 ; Print pattern wall
G1 X153.3315 Y188.9332 E0.99515 F6000 ; Print pattern wall
G1 E-0.7 F2100 ; Retract
G1 Z0.5 F6000 ; Z hop
G0 X153.9072 Y146.5068 F6000 ; Move to start next pattern wall
G1 Z0.4 F6000 ; Z hop return
G1 E0.7 F2100 ; Un-retract
G1 X175.1204 Y167.72 E0.99515 F6000 ; Print pattern wall
G1 X153.9072 Y188.9332 E0.99515 F6000 ; Print pattern wall
G1 E-0.7 F2100 ; Retract
G1 Z0.5 F6000 ; Z hop
G0 X154.4829 Y146.5068 F6000 ; Move to start next pattern wall
G1 Z0.4 F6000 ; Z hop return
G1 E0.7 F2100 ; Un-retract
G1 X175.6961 Y167.72 E0.99515 F6000 ; Print pattern wall
G1 X154.4829 Y188.9332 E0.99515 F6000 ; Print pattern wall
G1 E-0.7 F2100 ; Retract
G1 Z0.5 F6000 ; Z hop
G0 X156.9329 Y146.5068 F6000 ; Move to next pattern
G1 Z0.4 F6000 ; Z hop return
G1 E0.7 F2100 ; Un-retract
SET_PRESSURE_ADVANCE ADVANCE=0.026 ; Set pressure advance
M117 PA 0.026
G1 X178.1461 Y167.72 E0.99515 F6000 ; Print pattern wall
G1 X156.9329 Y188.9332 E0.99515 F6000 ; Print pattern wall
G1 E-0.7 F2100 ; Retract
G1 Z0.5 F6000 ; Z hop
G0 X157.5086 Y146.5068 F6000 ; Move to start next pattern wall
G1 Z0.4 F6000 ; Z hop return
G1 E0.7 F2100 ; Un-retract
G1 X178.7218 Y167.72 E0.99515 F6000 ; Print pattern wall
G1 X157.5086 Y188.9332 E0.99515 F6000 ; Print pattern wall
G1 E-0.7 F2100 ; Retract
G1 Z0.5 F6000 ; Z hop
G0 X158.0843 Y146.5068 F6000 ; Move to start next pattern wall
G1 Z0.4 F6000 ; Z hop return
G1 E0.7 F2100 ; Un-retract
G1 X179.2975 Y167.72 E0.99515 F6000 ; Print pattern wall
G1 X158.0843 Y188.9332 E0.99515 F6000 ; Print pattern wall
G1 E-0.7 F2100 ; Retract
G1 Z0.5 F6000 ; Z hop
G0 X160.5343 Y146.5068 F6000 ; Move to next pattern
G1 Z0.4 F6000 ; Z hop return
G1 E0.7 F2100 ; Un-retract
SET_PRESSURE_ADVANCE ADVANCE=0.028 ; Set pressure advance
M117 PA 0.028
G1 X181.7475 Y167.72 E0.99515 F6000 ; Print pattern wall
G1 X160.5343 Y188.9332 E0.99515 F6000 ; Print pattern wall
G1 E-0.7 F2100 ; Retract
G1 Z0.5 F6000 ; Z hop
G0 X161.11 Y146.5068 F6000 ; Move to start next pattern wall
G1 Z0.4 F6000 ; Z hop return
G1 E0.7 F2100 ; Un-retract
G1 X182.3232 Y167.72 E0.99515 F6000 ; Print pattern wall
G1 X161.11 Y188.9332 E0.99515 F6000 ; Print pattern wall
G1 E-0.7 F2100 ; Retract
G1 Z0.5 F6000 ; Z hop
G0 X161.6857 Y146.5068 F6000 ; Move to start next pattern wall
G1 Z0.4 F6000 ; Z hop return
G1 E0.7 F2100 ; Un-retract
G1 X182.8989 Y167.72 E0.99515 F6000 ; Print pattern wall
G1 X161.6857 Y188.9332 E0.99515 F6000 ; Print pattern wall
G1 E-0.7 F2100 ; Retract
G1 Z0.5 F6000 ; Z hop
G0 X164.1357 Y146.5068 F6000 ; Move to next pattern
G1 Z0.4 F6000 ; Z hop return
G1 E0.7 F2100 ; Un-retract
SET_PRESSURE_ADVANCE ADVANCE=0.03 ; Set pressure advance
M117 PA 0.03
G1 X185.3489 Y167.72 E0.99515 F6000 ; Print pattern wall
G1 X164.1357 Y188.9332 E0.99515 F6000 ; Print pattern wall
G1 E-0.7 F2100 ; Retract
G1 Z0.5 F6000 ; Z hop
G0 X164.7114 Y146.5068 F6000 ; Move to start next pattern wall
G1 Z0.4 F6000 ; Z hop return
G1 E0.7 F2100 ; Un-retract
G1 X185.9246 Y167.72 E0.99515 F6000 ; Print pattern wall
G1 X164.7114 Y188.9332 E0.99515 F6000 ; Print pattern wall
G1 E-0.7 F2100 ; Retract
G1 Z0.5 F6000 ; Z hop
G0 X165.2871 Y146.5068 F6000 ; Move to start next pattern wall
G1 Z0.4 F6000 ; Z hop return
G1 E0.7 F2100 ; Un-retract
G1 X186.5003 Y167.72 E0.99515 F6000 ; Print pattern wall
G1 X165.2871 Y188.9332 E0.99515 F6000 ; Print pattern wall
G1 E-0.7 F2100 ; Retract
G1 Z0.5 F6000 ; Z hop
G0 X167.7371 Y146.5068 F6000 ; Move to next pattern
G1 Z0.4 F6000 ; Z hop return
G1 E0.7 F2100 ; Un-retract
SET_PRESSURE_ADVANCE ADVANCE=0.032 ; Set pressure advance
M117 PA 0.032
G1 X188.9503 Y167.72 E0.99515 F6000 ; Print pattern wall
G1 X167.7371 Y188.9332 E0.99515 F6000 ; Print pattern wall
G1 E-0.7 F2100 ; Retract
G1 Z0.5 F6000 ; Z hop
G0 X168.3128 Y146.5068 F6000 ; Move to start next pattern wall
G1 Z0.4 F6000 ; Z hop return
G1 E0.7 F2100 ; Un-retract
G1 X189.526 Y167.72 E0.99515 F6000 ; Print pattern wall
G1 X168.3128 Y188.9332 E0.99515 F6000 ; Print pattern wall
G1 E-0.7 F2100 ; Retract
G1 Z0.5 F6000 ; Z hop
G0 X168.8885 Y146.5068 F6000 ; Move to start next pattern wall
G1 Z0.4 F6000 ; Z hop return
G1 E0.7 F2100 ; Un-retract
G1 X190.1017 Y167.72 E0.99515 F6000 ; Print pattern wall
G1 X168.8885 Y188.9332 E0.99515 F6000 ; Print pattern wall
G1 E-0.7 F2100 ; Retract
G1 Z0.5 F6000 ; Z hop
G0 X171.3385 Y146.5068 F6000 ; Move to next pattern
G1 Z0.4 F6000 ; Z hop return
G1 E0.7 F2100 ; Un-retract
SET_PRESSURE_ADVANCE ADVANCE=0.034 ; Set pressure advance
M117 PA 0.034
G1 X192.5517 Y167.72 E0.99515 F6000 ; Print pattern wall
G1 X171.3385 Y188.9332 E0.99515 F6000 ; Print pattern wall
G1 E-0.7 F2100 ; Retract
G1 Z0.5 F6000 ; Z hop
G0 X171.9142 Y146.5068 F6000 ; Move to start next pattern wall
G1 Z0.4 F6000 ; Z hop return
G1 E0.7 F2100 ; Un-retract
G1 X193.1274 Y167.72 E0.99515 F6000 ; Print pattern wall
G1 X171.9142 Y188.9332 E0.99515 F6000 ; Print pattern wall
G1 E-0.7 F2100 ; Retract
G1 Z0.5 F6000 ; Z hop
G0 X172.4899 Y146.5068 F6000 ; Move to start next pattern wall
G1 Z0.4 F6000 ; Z hop return
G1 E0.7 F2100 ; Un-retract
G1 X193.7031 Y167.72 E0.99515 F6000 ; Print pattern wall
G1 X172.4899 Y188.9332 E0.99515 F6000 ; Print pattern wall
G1 E-0.7 F2100 ; Retract
G1 Z0.5 F6000 ; Z hop
G0 X174.9399 Y146.5068 F6000 ; Move to next pattern
G1 Z0.4 F6000 ; Z hop return
G1 E0.7 F2100 ; Un-retract
SET_PRESSURE_ADVANCE ADVANCE=0.036 ; Set pressure advance
M117 PA 0.036
G1 X196.1531 Y167.72 E0.99515 F6000 ; Print pattern wall
G1 X174.9399 Y188.9332 E0.99515 F6000 ; Print pattern wall
G1 E-0.7 F2100 ; Retract
G1 Z0.5 F6000 ; Z hop
G0 X175.5156 Y146.5068 F6000 ; Move to start next pattern wall
G1 Z0.4 F6000 ; Z hop return
G1 E0.7 F2100 ; Un-retract
G1 X196.7288 Y167.72 E0.99515 F6000 ; Print pattern wall
G1 X175.5156 Y188.9332 E0.99515 F6000 ; Print pattern wall
G1 E-0.7 F2100 ; Retract
G1 Z0.5 F6000 ; Z hop
G0 X176.0913 Y146.5068 F6000 ; Move to start next pattern wall
G1 Z0.4 F6000 ; Z hop return
G1 E0.7 F2100 ; Un-retract
G1 X197.3045 Y167.72 E0.99515 F6000 ; Print pattern wall
G1 X176.0913 Y188.9332 E0.99515 F6000 ; Print pattern wall
G1 E-0.7 F2100 ; Retract
G1 Z0.5 F6000 ; Z hop
G0 X178.5413 Y146.5068 F6000 ; Move to next pattern
G1 Z0.4 F6000 ; Z hop return
G1 E0.7 F2100 ; Un-retract
SET_PRESSURE_ADVANCE ADVANCE=0.038 ; Set pressure advance
M117 PA 0.038
G1 X199.7545 Y167.72 E0.99515 F6000 ; Print pattern wall
G1 X178.5413 Y188.9332 E0.99515 F6000 ; Print pattern wall
G1 E-0.7 F2100 ; Retract
G1 Z0.5 F6000 ; Z hop
G0 X179.117 Y146.5068 F6000 ; Move to start next pattern wall
G1 Z0.4 F6000 ; Z hop return
G1 E0.7 F2100 ; Un-retract
G1 X200.3302 Y167.72 E0.99515 F6000 ; Print pattern wall
G1 X179.117 Y188.9332 E0.99515 F6000 ; Print pattern wall
G1 E-0.7 F2100 ; Retract
G1 Z0.5 F6000 ; Z hop
G0 X179.6927 Y146.5068 F6000 ; Move to start next pattern wall
G1 Z0.4 F6000 ; Z hop return
G1 E0.7 F2100 ; Un-retract
G1 X200.9059 Y167.72 E0.99515 F6000 ; Print pattern wall
G1 X179.6927 Y188.9332 E0.99515 F6000 ; Print pattern wall
G1 E-0.7 F2100 ; Retract
G1 Z0.5 F6000 ; Z hop
G0 X182.1427 Y146.5068 F6000 ; Move to next pattern
G1 Z0.4 F6000 ; Z hop return
G1 E0.7 F2100 ; Un-retract
SET_PRESSURE_ADVANCE ADVANCE=0.04 ; Set pressure advance
M117 PA 0.04
G1 X203.3559 Y167.72 E0.99515 F6000 ; Print pattern wall
G1 X182.1427 Y188.9332 E0.99515 F6000 ; Print pattern wall
G1 E-0.7 F2100 ; Retract
G1 Z0.5 F6000 ; Z hop
G0 X182.7184 Y146.5068 F6000 ; Move to start next pattern wall
G1 Z0.4 F6000 ; Z hop return
G1 E0.7 F2100 ; Un-retract
G1 X203.9316 Y167.72 E0.99515 F6000 ; Print pattern wall
G1 X182.7184 Y188.9332 E0.99515 F6000 ; Print pattern wall
G1 E-0.7 F2100 ; Retract
G1 Z0.5 F6000 ; Z hop
G0 X183.2941 Y146.5068 F6000 ; Move to start next pattern wall
G1 Z0.4 F6000 ; Z hop return
G1 E0.7 F2100 ; Un-retract
G1 X204.5073 Y167.72 E0.99515 F6000 ; Print pattern wall
G1 X183.2941 Y188.9332 E0.99515 F6000 ; Print pattern wall
G1 E-0.7 F2100 ; Retract
G1 Z0.5 F6000 ; Z hop
G0 X146.1287 Y146.5068 F6000 ; Move back to start position
G1 Z0.4 F6000 ; Z hop return
G1 E0.7 F2100 ; Un-retract
G0 Z0.6 F6000 ; Move to layer height
SET_PRESSURE_ADVANCE ADVANCE=0.02 ; Set pressure advance
M117 PA 0.02
G1 X167.3419 Y167.72 E0.99515 F6000 ; Print pattern wall
G1 X146.1287 Y188.9332 E0.99515 F6000 ; Print pattern wall
G1 E-0.7 F2100 ; Retract
G1 Z0.7 F6000 ; Z hop
G0 X146.7044 Y146.5068 F6000 ; Move to start next pattern wall
G1 Z0.6 F6000 ; Z hop return
G1 E0.7 F2100 ; Un-retract
G1 X167.9176 Y167.72 E0.99515 F6000 ; Print pattern wall
G1 X146.7044 Y188.9332 E0.99515 F6000 ; Print pattern wall
G1 E-0.7 F2100 ; Retract
G1 Z0.7 F6000 ; Z hop
G0 X147.2801 Y146.5068 F6000 ; Move to start next pattern wall
G1 Z0.6 F6000 ; Z hop return
G1 E0.7 F2100 ; Un-retract
G1 X168.4933 Y167.72 E0.99515 F6000 ; Print pattern wall
G1 X147.2801 Y188.9332 E0.99515 F6000 ; Print pattern wall
G1 E-0.7 F2100 ; Retract
G1 Z0.7 F6000 ; Z hop
G0 X149.7301 Y146.5068 F6000 ; Move to next pattern
G1 Z0.6 F6000 ; Z hop return
G1 E0.7 F2100 ; Un-retract
SET_PRESSURE_ADVANCE ADVANCE=0.022 ; Set pressure advance
M117 PA 0.022
G1 X170.9433 Y167.72 E0.99515 F6000 ; Print pattern wall
G1 X149.7301 Y188.9332 E0.99515 F6000 ; Print pattern wall
G1 E-0.7 F2100 ; Retract
G1 Z0.7 F6000 ; Z hop
G0 X150.3058 Y146.5068 F6000 ; Move to start next pattern wall
G1 Z0.6 F6000 ; Z hop return
G1 E0.7 F2100 ; Un-retract
G1 X171.519 Y167.72 E0.99515 F6000 ; Print pattern wall
G1 X150.3058 Y188.9332 E0.99515 F6000 ; Print pattern wall
G1 E-0.7 F2100 ; Retract
G1 Z0.7 F6000 ; Z hop
G0 X150.8815 Y146.5068 F6000 ; Move to start next pattern wall
G1 Z0.6 F6000 ; Z hop return
G1 E0.7 F2100 ; Un-retract
G1 X172.0947 Y167.72 E0.99515 F6000 ; Print pattern wall
G1 X150.8815 Y188.9332 E0.99515 F6000 ; Print pattern wall
G1 E-0.7 F2100 ; Retract
G1 Z0.7 F6000 ; Z hop
G0 X153.3315 Y146.5068 F6000 ; Move to next pattern
G1 Z0.6 F6000 ; Z hop return
G1 E0.7 F2100 ; Un-retract
SET_PRESSURE_ADVANCE ADVANCE=0.024 ; Set pressure advance
M117 PA 0.024
G1 X174.5447 Y167.72 E0.99515 F6000 ; Print pattern wall
G1 X153.3315 Y188.9332 E0.99515 F6000 ; Print pattern wall
G1 E-0.7 F2100 ; Retract
G1 Z0.7 F6000 ; Z hop
G0 X153.9072 Y146.5068 F6000 ; Move to start next pattern wall
G1 Z0.6 F6000 ; Z hop return
G1 E0.7 F2100 ; Un-retract
G1 X175.1204 Y167.72 E0.99515 F6000 ; Print pattern wall
G1 X153.9072 Y188.9332 E0.99515 F6000 ; Print pattern wall
G1 E-0.7 F2100 ; Retract
G1 Z0.7 F6000 ; Z hop
G0 X154.4829 Y146.5068 F6000 ; Move to start next pattern wall
G1 Z0.6 F6000 ; Z hop return
G1 E0.7 F2100 ; Un-retract
G1 X175.6961 Y167.72 E0.99515 F6000 ; Print pattern wall
G1 X154.4829 Y188.9332 E0.99515 F6000 ; Print pattern wall
G1 E-0.7 F2100 ; Retract
G1 Z0.7 F6000 ; Z hop
G0 X156.9329 Y146.5068 F6000 ; Move to next pattern
G1 Z0.6 F6000 ; Z hop return
G1 E0.7 F2100 ; Un-retract
SET_PRESSURE_ADVANCE ADVANCE=0.026 ; Set pressure advance
M117 PA 0.026
G1 X178.1461 Y167.72 E0.99515 F6000 ; Print pattern wall
G1 X156.9329 Y188.9332 E0.99515 F6000 ; Print pattern wall
G1 E-0.7 F2100 ; Retract
G1 Z0.7 F6000 ; Z hop
G0 X157.5086 Y146.5068 F6000 ; Move to start next pattern wall
G1 Z0.6 F6000 ; Z hop return
G1 E0.7 F2100 ; Un-retract
G1 X178.7218 Y167.72 E0.99515 F6000 ; Print pattern wall
G1 X157.5086 Y188.9332 E0.99515 F6000 ; Print pattern wall
G1 E-0.7 F2100 ; Retract
G1 Z0.7 F6000 ; Z hop
G0 X158.0843 Y146.5068 F6000 ; Move to start next pattern wall
G1 Z0.6 F6000 ; Z hop return
G1 E0.7 F2100 ; Un-retract
G1 X179.2975 Y167.72 E0.99515 F6000 ; Print pattern wall
G1 X158.0843 Y188.9332 E0.99515 F6000 ; Print pattern wall
G1 E-0.7 F2100 ; Retract
G1 Z0.7 F6000 ; Z hop
G0 X160.5343 Y146.5068 F6000 ; Move to next pattern
G1 Z0.6 F6000 ; Z hop return
G1 E0.7 F2100 ; Un-retract
SET_PRESSURE_ADVANCE ADVANCE=0.028 ; Set pressure advance
M117 PA 0.028
G1 X181.7475 Y167.72 E0.99515 F6000 ; Print pattern wall
G1 X160.5343 Y188.9332 E0.99515 F6000 ; Print pattern wall
G1 E-0.7 F2100 ; Retract
G1 Z0.7 F6000 ; Z hop
G0 X161.11 Y146.5068 F6000 ; Move to start next pattern wall
G1 Z0.6 F6000 ; Z hop return
G1 E0.7 F2100 ; Un-retract
G1 X182.3232 Y167.72 E0.99515 F6000 ; Print pattern wall
G1 X161.11 Y188.9332 E0.99515 F6000 ; Print pattern wall
G1 E-0.7 F2100 ; Retract
G1 Z0.7 F6000 ; Z hop
G0 X161.6857 Y146.5068 F6000 ; Move to start next pattern wall
G1 Z0.6 F6000 ; Z hop return
G1 E0.7 F2100 ; Un-retract
G1 X182.8989 Y167.72 E0.99515 F6000 ; Print pattern wall
G1 X161.6857 Y188.9332 E0.99515 F6000 ; Print pattern wall
G1 E-0.7 F2100 ; Retract
G1 Z0.7 F6000 ; Z hop
G0 X164.1357 Y146.5068 F6000 ; Move to next pattern
G1 Z0.6 F6000 ; Z hop return
G1 E0.7 F2100 ; Un-retract
SET_PRESSURE_ADVANCE ADVANCE=0.03 ; Set pressure advance
M117 PA 0.03
G1 X185.3489 Y167.72 E0.99515 F6000 ; Print pattern wall
G1 X164.1357 Y188.9332 E0.99515 F6000 ; Print pattern wall
G1 E-0.7 F2100 ; Retract
G1 Z0.7 F6000 ; Z hop
G0 X164.7114 Y146.5068 F6000 ; Move to start next pattern wall
G1 Z0.6 F6000 ; Z hop return
G1 E0.7 F2100 ; Un-retract
G1 X185.9246 Y167.72 E0.99515 F6000 ; Print pattern wall
G1 X164.7114 Y188.9332 E0.99515 F6000 ; Print pattern wall
G1 E-0.7 F2100 ; Retract
G1 Z0.7 F6000 ; Z hop
G0 X165.2871 Y146.5068 F6000 ; Move to start next pattern wall
G1 Z0.6 F6000 ; Z hop return
G1 E0.7 F2100 ; Un-retract
G1 X186.5003 Y167.72 E0.99515 F6000 ; Print pattern wall
G1 X165.2871 Y188.9332 E0.99515 F6000 ; Print pattern wall
G1 E-0.7 F2100 ; Retract
G1 Z0.7 F6000 ; Z hop
G0 X167.7371 Y146.5068 F6000 ; Move to next pattern
G1 Z0.6 F6000 ; Z hop return
G1 E0.7 F2100 ; Un-retract
SET_PRESSURE_ADVANCE ADVANCE=0.032 ; Set pressure advance
M117 PA 0.032
G1 X188.9503 Y167.72 E0.99515 F6000 ; Print pattern wall
G1 X167.7371 Y188.9332 E0.99515 F6000 ; Print pattern wall
G1 E-0.7 F2100 ; Retract
G1 Z0.7 F6000 ; Z hop
G0 X168.3128 Y146.5068 F6000 ; Move to start next pattern wall
G1 Z0.6 F6000 ; Z hop return
G1 E0.7 F2100 ; Un-retract
G1 X189.526 Y167.72 E0.99515 F6000 ; Print pattern wall
G1 X168.3128 Y188.9332 E0.99515 F6000 ; Print pattern wall
G1 E-0.7 F2100 ; Retract
G1 Z0.7 F6000 ; Z hop
G0 X168.8885 Y146.5068 F6000 ; Move to start next pattern wall
G1 Z0.6 F6000 ; Z hop return
G1 E0.7 F2100 ; Un-retract
G1 X190.1017 Y167.72 E0.99515 F6000 ; Print pattern wall
G1 X168.8885 Y188.9332 E0.99515 F6000 ; Print pattern wall
G1 E-0.7 F2100 ; Retract
G1 Z0.7 F6000 ; Z hop
G0 X171.3385 Y146.5068 F6000 ; Move to next pattern
G1 Z0.6 F6000 ; Z hop return
G1 E0.7 F2100 ; Un-retract
SET_PRESSURE_ADVANCE ADVANCE=0.034 ; Set pressure advance
M117 PA 0.034
G1 X192.5517 Y167.72 E0.99515 F6000 ; Print pattern wall
G1 X171.3385 Y188.9332 E0.99515 F6000 ; Print pattern wall
G1 E-0.7 F2100 ; Retract
G1 Z0.7 F6000 ; Z hop
G0 X171.9142 Y146.5068 F6000 ; Move to start next pattern wall
G1 Z0.6 F6000 ; Z hop return
G1 E0.7 F2100 ; Un-retract
G1 X193.1274 Y167.72 E0.99515 F6000 ; Print pattern wall
G1 X171.9142 Y188.9332 E0.99515 F6000 ; Print pattern wall
G1 E-0.7 F2100 ; Retract
G1 Z0.7 F6000 ; Z hop
G0 X172.4899 Y146.5068 F6000 ; Move to start next pattern wall
G1 Z0.6 F6000 ; Z hop return
G1 E0.7 F2100 ; Un-retract
G1 X193.7031 Y167.72 E0.99515 F6000 ; Print pattern wall
G1 X172.4899 Y188.9332 E0.99515 F6000 ; Print pattern wall
G1 E-0.7 F2100 ; Retract
G1 Z0.7 F6000 ; Z hop
G0 X174.9399 Y146.5068 F6000 ; Move to next pattern
G1 Z0.6 F6000 ; Z hop return
G1 E0.7 F2100 ; Un-retract
SET_PRESSURE_ADVANCE ADVANCE=0.036 ; Set pressure advance
M117 PA 0.036
G1 X196.1531 Y167.72 E0.99515 F6000 ; Print pattern wall
G1 X174.9399 Y188.9332 E0.99515 F6000 ; Print pattern wall
G1 E-0.7 F2100 ; Retract
G1 Z0.7 F6000 ; Z hop
G0 X175.5156 Y146.5068 F6000 ; Move to start next pattern wall
G1 Z0.6 F6000 ; Z hop return
G1 E0.7 F2100 ; Un-retract
G1 X196.7288 Y167.72 E0.99515 F6000 ; Print pattern wall
G1 X175.5156 Y188.9332 E0.99515 F6000 ; Print pattern wall
G1 E-0.7 F2100 ; Retract
G1 Z0.7 F6000 ; Z hop
G0 X176.0913 Y146.5068 F6000 ; Move to start next pattern wall
G1 Z0.6 F6000 ; Z hop return
G1 E0.7 F2100 ; Un-retract
G1 X197.3045 Y167.72 E0.99515 F6000 ; Print pattern wall
G1 X176.0913 Y188.9332 E0.99515 F6000 ; Print pattern wall
G1 E-0.7 F2100 ; Retract
G1 Z0.7 F6000 ; Z hop
G0 X178.5413 Y146.5068 F6000 ; Move to next pattern
G1 Z0.6 F6000 ; Z hop return
G1 E0.7 F2100 ; Un-retract
SET_PRESSURE_ADVANCE ADVANCE=0.038 ; Set pressure advance
M117 PA 0.038
G1 X199.7545 Y167.72 E0.99515 F6000 ; Print pattern wall
G1 X178.5413 Y188.9332 E0.99515 F6000 ; Print pattern wall
G1 E-0.7 F2100 ; Retract
G1 Z0.7 F6000 ; Z hop
G0 X179.117 Y146.5068 F6000 ; Move to start next pattern wall
G1 Z0.6 F6000 ; Z hop return
G1 E0.7 F2100 ; Un-retract
G1 X200.3302 Y167.72 E0.99515 F6000 ; Print pattern wall
G1 X179.117 Y188.9332 E0.99515 F6000 ; Print pattern wall
G1 E-0.7 F2100 ; Retract
G1 Z0.7 F6000 ; Z hop
G0 X179.6927 Y146.5068 F6000 ; Move to start next pattern wall
G1 Z0.6 F6000 ; Z hop return
G1 E0.7 F2100 ; Un-retract
G1 X200.9059 Y167.72 E0.99515 F6000 ; Print pattern wall
G1 X179.6927 Y188.9332 E0.99515 F6000 ; Print pattern wall
G1 E-0.7 F2100 ; Retract
G1 Z0.7 F6000 ; Z hop
G0 X182.1427 Y146.5068 F6000 ; Move to next pattern
G1 Z0.6 F6000 ; Z hop return
G1 E0.7 F2100 ; Un-retract
SET_PRESSURE_ADVANCE ADVANCE=0.04 ; Set pressure advance
M117 PA 0.04
G1 X203.3559 Y167.72 E0.99515 F6000 ; Print pattern wall
G1 X182.1427 Y188.9332 E0.99515 F6000 ; Print pattern wall
G1 E-0.7 F2100 ; Retract
G1 Z0.7 F6000 ; Z hop
G0 X182.7184 Y146.5068 F6000 ; Move to start next pattern wall
G1 Z0.6 F6000 ; Z hop return
G1 E0.7 F2100 ; Un-retract
G1 X203.9316 Y167.72 E0.99515 F6000 ; Print pattern wall
G1 X182.7184 Y188.9332 E0.99515 F6000 ; Print pattern wall
G1 E-0.7 F2100 ; Retract
G1 Z0.7 F6000 ; Z hop
G0 X183.2941 Y146.5068 F6000 ; Move to start next pattern wall
G1 Z0.6 F6000 ; Z hop return
G1 E0.7 F2100 ; Un-retract
G1 X204.5073 Y167.72 E0.99515 F6000 ; Print pattern wall
G1 X183.2941 Y188.9332 E0.99515 F6000 ; Print pattern wall
G1 E-0.7 F2100 ; Retract
G1 Z0.7 F6000 ; Z hop
G0 X146.1287 Y146.5068 F6000 ; Move back to start position
G1 Z0.6 F6000 ; Z hop return
G1 E0.7 F2100 ; Un-retract
G0 Z0.8 F6000 ; Move to layer height
SET_PRESSURE_ADVANCE ADVANCE=0.02 ; Set pressure advance
M117 PA 0.02
G1 X167.3419 Y167.72 E0.99515 F6000 ; Print pattern wall
G1 X146.1287 Y188.9332 E0.99515 F6000 ; Print pattern wall
G1 E-0.7 F2100 ; Retract
G1 Z0.9 F6000 ; Z hop
G0 X146.7044 Y146.5068 F6000 ; Move to start next pattern wall
G1 Z0.8 F6000 ; Z hop return
G1 E0.7 F2100 ; Un-retract
G1 X167.9176 Y167.72 E0.99515 F6000 ; Print pattern wall
G1 X146.7044 Y188.9332 E0.99515 F6000 ; Print pattern wall
G1 E-0.7 F2100 ; Retract
G1 Z0.9 F6000 ; Z hop
G0 X147.2801 Y146.5068 F6000 ; Move to start next pattern wall
G1 Z0.8 F6000 ; Z hop return
G1 E0.7 F2100 ; Un-retract
G1 X168.4933 Y167.72 E0.99515 F6000 ; Print pattern wall
G1 X147.2801 Y188.9332 E0.99515 F6000 ; Print pattern wall
G1 E-0.7 F2100 ; Retract
G1 Z0.9 F6000 ; Z hop
G0 X149.7301 Y146.5068 F6000 ; Move to next pattern
G1 Z0.8 F6000 ; Z hop return
G1 E0.7 F2100 ; Un-retract
SET_PRESSURE_ADVANCE ADVANCE=0.022 ; Set pressure advance
M117 PA 0.022
G1 X170.9433 Y167.72 E0.99515 F6000 ; Print pattern wall
G1 X149.7301 Y188.9332 E0.99515 F6000 ; Print pattern wall
G1 E-0.7 F2100 ; Retract
G1 Z0.9 F6000 ; Z hop
G0 X150.3058 Y146.5068 F6000 ; Move to start next pattern wall
G1 Z0.8 F6000 ; Z hop return
G1 E0.7 F2100 ; Un-retract
G1 X171.519 Y167.72 E0.99515 F6000 ; Print pattern wall
G1 X150.3058 Y188.9332 E0.99515 F6000 ; Print pattern wall
G1 E-0.7 F2100 ; Retract
G1 Z0.9 F6000 ; Z hop
G0 X150.8815 Y146.5068 F6000 ; Move to start next pattern wall
G1 Z0.8 F6000 ; Z hop return
G1 E0.7 F2100 ; Un-retract
G1 X172.0947 Y167.72 E0.99515 F6000 ; Print pattern wall
G1 X150.8815 Y188.9332 E0.99515 F6000 ; Print pattern wall
G1 E-0.7 F2100 ; Retract
G1 Z0.9 F6000 ; Z hop
G0 X153.3315 Y146.5068 F6000 ; Move to next pattern
G1 Z0.8 F6000 ; Z hop return
G1 E0.7 F2100 ; Un-retract
SET_PRESSURE_ADVANCE ADVANCE=0.024 ; Set pressure advance
M117 PA 0.024
G1 X174.5447 Y167.72 E0.99515 F6000 ; Print pattern wall
G1 X153.3315 Y188.9332 E0.99515 F6000 ; Print pattern wall
G1 E-0.7 F2100 ; Retract
G1 Z0.9 F6000 ; Z hop
G0 X153.9072 Y146.5068 F6000 ; Move to start next pattern wall
G1 Z0.8 F6000 ; Z hop return
G1 E0.7 F2100 ; Un-retract
G1 X175.1204 Y167.72 E0.99515 F6000 ; Print pattern wall
G1 X153.9072 Y188.9332 E0.99515 F6000 ; Print pattern wall
G1 E-0.7 F2100 ; Retract
G1 Z0.9 F6000 ; Z hop
G0 X154.4829 Y146.5068 F6000 ; Move to start next pattern wall
G1 Z0.8 F6000 ; Z hop return
G1 E0.7 F2100 ; Un-retract
G1 X175.6961 Y167.72 E0.99515 F6000 ; Print pattern wall
G1 X154.4829 Y188.9332 E0.99515 F6000 ; Print pattern wall
G1 E-0.7 F2100 ; Retract
G1 Z0.9 F6000 ; Z hop
G0 X156.9329 Y146.5068 F6000 ; Move to next pattern
G1 Z0.8 F6000 ; Z hop return
G1 E0.7 F2100 ; Un-retract
SET_PRESSURE_ADVANCE ADVANCE=0.026 ; Set pressure advance
M117 PA 0.026
G1 X178.1461 Y167.72 E0.99515 F6000 ; Print pattern wall
G1 X156.9329 Y188.9332 E0.99515 F6000 ; Print pattern wall
G1 E-0.7 F2100 ; Retract
G1 Z0.9 F6000 ; Z hop
G0 X157.5086 Y146.5068 F6000 ; Move to start next pattern wall
G1 Z0.8 F6000 ; Z hop return
G1 E0.7 F2100 ; Un-retract
G1 X178.7218 Y167.72 E0.99515 F6000 ; Print pattern wall
G1 X157.5086 Y188.9332 E0.99515 F6000 ; Print pattern wall
G1 E-0.7 F2100 ; Retract
G1 Z0.9 F6000 ; Z hop
G0 X158.0843 Y146.5068 F6000 ; Move to start next pattern wall
G1 Z0.8 F6000 ; Z hop return
G1 E0.7 F2100 ; Un-retract
G1 X179.2975 Y167.72 E0.99515 F6000 ; Print pattern wall
G1 X158.0843 Y188.9332 E0.99515 F6000 ; Print pattern wall
G1 E-0.7 F2100 ; Retract
G1 Z0.9 F6000 ; Z hop
G0 X160.5343 Y146.5068 F6000 ; Move to next pattern
G1 Z0.8 F6000 ; Z hop return
G1 E0.7 F2100 ; Un-retract
SET_PRESSURE_ADVANCE ADVANCE=0.028 ; Set pressure advance
M117 PA 0.028
G1 X181.7475 Y167.72 E0.99515 F6000 ; Print pattern wall
G1 X160.5343 Y188.9332 E0.99515 F6000 ; Print pattern wall
G1 E-0.7 F2100 ; Retract
G1 Z0.9 F6000 ; Z hop
G0 X161.11 Y146.5068 F6000 ; Move to start next pattern wall
G1 Z0.8 F6000 ; Z hop return
G1 E0.7 F2100 ; Un-retract
G1 X182.3232 Y167.72 E0.99515 F6000 ; Print pattern wall
G1 X161.11 Y188.9332 E0.99515 F6000 ; Print pattern wall
G1 E-0.7 F2100 ; Retract
G1 Z0.9 F6000 ; Z hop
G0 X161.6857 Y146.5068 F6000 ; Move to start next pattern wall
G1 Z0.8 F6000 ; Z hop return
G1 E0.7 F2100 ; Un-retract
G1 X182.8989 Y167.72 E0.99515 F6000 ; Print pattern wall
G1 X161.6857 Y188.9332 E0.99515 F6000 ; Print pattern wall
G1 E-0.7 F2100 ; Retract
G1 Z0.9 F6000 ; Z hop
G0 X164.1357 Y146.5068 F6000 ; Move to next pattern
G1 Z0.8 F6000 ; Z hop return
G1 E0.7 F2100 ; Un-retract
SET_PRESSURE_ADVANCE ADVANCE=0.03 ; Set pressure advance
M117 PA 0.03
G1 X185.3489 Y167.72 E0.99515 F6000 ; Print pattern wall
G1 X164.1357 Y188.9332 E0.99515 F6000 ; Print pattern wall
G1 E-0.7 F2100 ; Retract
G1 Z0.9 F6000 ; Z hop
G0 X164.7114 Y146.5068 F6000 ; Move to start next pattern wall
G1 Z0.8 F6000 ; Z hop return
G1 E0.7 F2100 ; Un-retract
G1 X185.9246 Y167.72 E0.99515 F6000 ; Print pattern wall
G1 X164.7114 Y188.9332 E0.99515 F6000 ; Print pattern wall
G1 E-0.7 F2100 ; Retract
G1 Z0.9 F6000 ; Z hop
G0 X165.2871 Y146.5068 F6000 ; Move to start next pattern wall
G1 Z0.8 F6000 ; Z hop return
G1 E0.7 F2100 ; Un-retract
G1 X186.5003 Y167.72 E0.99515 F6000 ; Print pattern wall
G1 X165.2871 Y188.9332 E0.99515 F6000 ; Print pattern wall
G1 E-0.7 F2100 ; Retract
G1 Z0.9 F6000 ; Z hop
G0 X167.7371 Y146.5068 F6000 ; Move to next pattern
G1 Z0.8 F6000 ; Z hop return
G1 E0.7 F2100 ; Un-retract
SET_PRESSURE_ADVANCE ADVANCE=0.032 ; Set pressure advance
M117 PA 0.032
G1 X188.9503 Y167.72 E0.99515 F6000 ; Print pattern wall
G1 X167.7371 Y188.9332 E0.99515 F6000 ; Print pattern wall
G1 E-0.7 F2100 ; Retract
G1 Z0.9 F6000 ; Z hop
G0 X168.3128 Y146.5068 F6000 ; Move to start next pattern wall
G1 Z0.8 F6000 ; Z hop return
G1 E0.7 F2100 ; Un-retract
G1 X189.526 Y167.72 E0.99515 F6000 ; Print pattern wall
G1 X168.3128 Y188.9332 E0.99515 F6000 ; Print pattern wall
G1 E-0.7 F2100 ; Retract
G1 Z0.9 F6000 ; Z hop
G0 X168.8885 Y146.5068 F6000 ; Move to start next pattern wall
G1 Z0.8 F6000 ; Z hop return
G1 E0.7 F2100 ; Un-retract
G1 X190.1017 Y167.72 E0.99515 F6000 ; Print pattern wall
G1 X168.8885 Y188.9332 E0.99515 F6000 ; Print pattern wall
G1 E-0.7 F2100 ; Retract
G1 Z0.9 F6000 ; Z hop
G0 X171.3385 Y146.5068 F6000 ; Move to next pattern
G1 Z0.8 F6000 ; Z hop return
G1 E0.7 F2100 ; Un-retract
SET_PRESSURE_ADVANCE ADVANCE=0.034 ; Set pressure advance
M117 PA 0.034
G1 X192.5517 Y167.72 E0.99515 F6000 ; Print pattern wall
G1 X171.3385 Y188.9332 E0.99515 F6000 ; Print pattern wall
G1 E-0.7 F2100 ; Retract
G1 Z0.9 F6000 ; Z hop
G0 X171.9142 Y146.5068 F6000 ; Move to start next pattern wall
G1 Z0.8 F6000 ; Z hop return
G1 E0.7 F2100 ; Un-retract
G1 X193.1274 Y167.72 E0.99515 F6000 ; Print pattern wall
G1 X171.9142 Y188.9332 E0.99515 F6000 ; Print pattern wall
G1 E-0.7 F2100 ; Retract
G1 Z0.9 F6000 ; Z hop
G0 X172.4899 Y146.5068 F6000 ; Move to start next pattern wall
G1 Z0.8 F6000 ; Z hop return
G1 E0.7 F2100 ; Un-retract
G1 X193.7031 Y167.72 E0.99515 F6000 ; Print pattern wall
G1 X172.4899 Y188.9332 E0.99515 F6000 ; Print pattern wall
G1 E-0.7 F2100 ; Retract
G1 Z0.9 F6000 ; Z hop
G0 X174.9399 Y146.5068 F6000 ; Move to next pattern
G1 Z0.8 F6000 ; Z hop return
G1 E0.7 F2100 ; Un-retract
SET_PRESSURE_ADVANCE ADVANCE=0.036 ; Set pressure advance
M117 PA 0.036
G1 X196.1531 Y167.72 E0.99515 F6000 ; Print pattern wall
G1 X174.9399 Y188.9332 E0.99515 F6000 ; Print pattern wall
G1 E-0.7 F2100 ; Retract
G1 Z0.9 F6000 ; Z hop
G0 X175.5156 Y146.5068 F6000 ; Move to start next pattern wall
G1 Z0.8 F6000 ; Z hop return
G1 E0.7 F2100 ; Un-retract
G1 X196.7288 Y167.72 E0.99515 F6000 ; Print pattern wall
G1 X175.5156 Y188.9332 E0.99515 F6000 ; Print pattern wall
G1 E-0.7 F2100 ; Retract
G1 Z0.9 F6000 ; Z hop
G0 X176.0913 Y146.5068 F6000 ; Move to start next pattern wall
G1 Z0.8 F6000 ; Z hop return
G1 E0.7 F2100 ; Un-retract
G1 X197.3045 Y167.72 E0.99515 F6000 ; Print pattern wall
G1 X176.0913 Y188.9332 E0.99515 F6000 ; Print pattern wall
G1 E-0.7 F2100 ; Retract
G1 Z0.9 F6000 ; Z hop
G0 X178.5413 Y146.5068 F6000 ; Move to next pattern
G1 Z0.8 F6000 ; Z hop return
G1 E0.7 F2100 ; Un-retract
SET_PRESSURE_ADVANCE ADVANCE=0.038 ; Set pressure advance
M117 PA 0.038
G1 X199.7545 Y167.72 E0.99515 F6000 ; Print pattern wall
G1 X178.5413 Y188.9332 E0.99515 F6000 ; Print pattern wall
G1 E-0.7 F2100 ; Retract
G1 Z0.9 F6000 ; Z hop
G0 X179.117 Y146.5068 F6000 ; Move to start next pattern wall
G1 Z0.8 F6000 ; Z hop return
G1 E0.7 F2100 ; Un-retract
G1 X200.3302 Y167.72 E0.99515 F6000 ; Print pattern wall
G1 X179.117 Y188.9332 E0.99515 F6000 ; Print pattern wall
G1 E-0.7 F2100 ; Retract
G1 Z0.9 F6000 ; Z hop
G0 X179.6927 Y146.5068 F6000 ; Move to start next pattern wall
G1 Z0.8 F6000 ; Z hop return
G1 E0.7 F2100 ; Un-retract
G1 X200.9059 Y167.72 E0.99515 F6000 ; Print pattern wall
G1 X179.6927 Y188.9332 E0.99515 F6000 ; Print pattern wall
G1 E-0.7 F2100 ; Retract
G1 Z0.9 F6000 ; Z hop
G0 X182.1427 Y146.5068 F6000 ; Move to next pattern
G1 Z0.8 F6000 ; Z hop return
G1 E0.7 F2100 ; Un-retract
SET_PRESSURE_ADVANCE ADVANCE=0.04 ; Set pressure advance
M117 PA 0.04
G1 X203.3559 Y167.72 E0.99515 F6000 ; Print pattern wall
G1 X182.1427 Y188.9332 E0.99515 F6000 ; Print pattern wall
G1 E-0.7 F2100 ; Retract
G1 Z0.9 F6000 ; Z hop
G0 X182.7184 Y146.5068 F6000 ; Move to start next pattern wall
G1 Z0.8 F6000 ; Z hop return
G1 E0.7 F2100 ; Un-retract
G1 X203.9316 Y167.72 E0.99515 F6000 ; Print pattern wall
G1 X182.7184 Y188.9332 E0.99515 F6000 ; Print pattern wall
G1 E-0.7 F2100 ; Retract
G1 Z0.9 F6000 ; Z hop
G0 X183.2941 Y146.5068 F6000 ; Move to start next pattern wall
G1 Z0.8 F6000 ; Z hop return
G1 E0.7 F2100 ; Un-retract
G1 X204.5073 Y167.72 E0.99515 F6000 ; Print pattern wall
G1 X183.2941 Y188.9332 E0.99515 F6000 ; Print pattern wall
SET_PRESSURE_ADVANCE ADVANCE=0.02 ; Set pressure advance back to start value
M117 PA 0.02
G1 E-0.7 F2100 ; Retract
G1 Z0.9 F6000 ; Z hop
G0 Z5.8 F6000 ; Z raise
M104 S0 ; Turn off hotend
M140 S0 ; Turn off bed
M107    ; Turn off fan
;
; End G-code
;
END_PRINT
;
; FINISH
;
